(Generated by PartKam Version 0.05)

G20 G90 G40

(profile 1)
G0 Z0.3
T0 M6
G17
M3
G0 X25.0368 Y17.686
G1 Z-0.15 F30
G1 X20.442 Y22.2808 F25
G3 X20.4229 Y22.2964 I-0.0884 J-0.0884
G1 X20.3608 Y22.3378
G3 X20.3188 Y22.3558 I-0.0693 J-0.104
G1 X20.2458 Y22.3721
G3 X20.2003 Y22.3738 I-0.0273 J-0.122
G1 X20.1262 Y22.3629
G3 X20.1245 Y22.3627 I0.0182 J-0.1237
G1 X20.0472 Y22.3502
G1 X19.995 Y22.3621
G1 X19.9505 Y22.3939
G1 X19.9203 Y22.4399
G1 X19.91 Y22.493
G1 X19.9202 Y22.5452
G1 X19.9505 Y22.5913
G1 X19.995 Y22.6231
G1 X20.0478 Y22.6352
G1 X20.1251 Y22.6235
G1 X20.1985 Y22.6116
G3 X20.2458 Y22.6131 I0.02 J0.1234
G1 X20.3188 Y22.6294
G3 X20.3608 Y22.6474 I-0.0273 J0.122
G1 X20.4229 Y22.6888
G3 X20.442 Y22.7044 I-0.0693 J0.104
G1 X24.224 Y26.4864
G3 X24.2404 Y26.5067 I-0.0884 J0.0884
G1 X24.285 Y26.5753
G3 X24.3036 Y26.6234 I-0.1048 J0.0681
G1 X24.3167 Y26.704
G3 X24.3183 Y26.724 I-0.1234 J0.02
G3 X24.3146 Y26.7543 I-0.125 J0
G1 X24.295 Y26.8328
G3 X24.2737 Y26.8775 I-0.1213 J-0.0303
G1 X24.2247 Y26.9428
G3 X24.1846 Y26.9776 I-0.1 J-0.075
G1 X24.1127 Y27.0168
G3 X24.0645 Y27.0315 I-0.0599 J-0.1097
G1 X23.9838 Y27.0392
G3 X23.9335 Y27.0336 I-0.0118 J-0.1244
G1 X23.8562 Y27.0086
G3 X23.8346 Y26.9992 I0.0385 J-0.1189
G1 X23.3246 Y26.7192
G1 X22.7902 Y26.451
G1 X22.2314 Y26.1933
G1 X21.6507 Y25.9452
G1 X21.0469 Y25.7078
G1 X20.4233 Y25.48
G1 X19.7213 Y25.2434
G1 X18.9982 Y25.0187
G1 X18.9783 Y25.013
G1 X18.4979 Y24.8746
G1 X18.2554 Y24.8048
G1 X17.4961 Y24.6027
G1 X16.7202 Y24.4104
G1 X15.9313 Y24.23
G1 X15.1303 Y24.0605
G1 X13.9929 Y23.8408
G1 X12.8391 Y23.6407
G1 X11.6754 Y23.4602
G1 X10.5061 Y23.2992
G1 X9.3366 Y23.1567
G1 X8.4087 Y23.0566
G1 X7.4861 Y22.9663
G1 X6.5701 Y22.888
G1 X5.6648 Y22.8205
G1 X5.4386 Y22.8059
G1 X4.9396 Y22.7736
G1 X4.7726 Y22.7628
G1 X3.8946 Y22.715
G1 X3.034 Y22.6769
G1 X2.1924 Y22.6486
G3 X2.1842 Y22.648 I0.0042 J-0.1249
G1 X1.878 Y22.6175
G3 X1.8612 Y22.6147 I0.0124 J-0.1244
G1 X1.5626 Y22.5428
G3 X1.5455 Y22.5373 I0.0293 J-0.1215
G1 X1.259 Y22.4229
G3 X1.2433 Y22.4154 I0.0463 J-0.1161
G1 X0.9764 Y22.2628
G3 X0.9618 Y22.2531 I0.062 J-0.1085
G1 X0.7188 Y22.0646
G3 X0.7059 Y22.0531 I0.0766 J-0.0988
G1 X0.4913 Y21.833
G3 X0.4797 Y21.8193 I0.0895 J-0.0873
G1 X0.2988 Y21.5708
G3 X0.2896 Y21.5562 I0.1011 J-0.0736
G1 X0.1447 Y21.2849
G3 X0.1375 Y21.2688 I0.1103 J-0.0589
G1 X0.0318 Y20.979
G3 X0.027 Y20.9623 I0.1174 J-0.0428
G1 X-0.0373 Y20.6615
G3 X-0.0397 Y20.6443 I0.1222 J-0.0261
G1 X-0.0615 Y20.3381
G3 X-0.0618 Y20.3292 I0.1247 J-0.0089
G1 X-0.0618 Y20.2484
G1 X-0.0618 Y19.7484
G1 X-0.0618 Y18.9945
G3 X0.0632 Y18.8695 I0.125 J0
G1 X4.3856 Y18.8695
G3 X4.4091 Y18.8717 I0 J0.125
G1 X4.4832 Y18.8859
G3 X4.5269 Y18.9033 I-0.0235 J0.1228
G1 X4.5901 Y18.9436
G3 X4.624 Y18.9754 I-0.0672 J0.1054
G1 X4.6676 Y19.0354
G1 X4.714 Y19.0992
G1 X4.7601 Y19.1274
G1 X4.8139 Y19.1372
G1 X4.866 Y19.1259
G1 X4.9112 Y19.0952
G1 X4.942 Y19.0499
G1 X4.9534 Y18.9971
G1 X4.9443 Y18.944
G1 X4.9155 Y18.8979
G1 X4.8522 Y18.8513
G1 X4.7912 Y18.8066
G3 X4.7596 Y18.7729 I0.0738 J-0.1009
G1 X4.7193 Y18.7097
G3 X4.702 Y18.6663 I0.1054 J-0.0672
G1 X4.6878 Y18.5933
G3 X4.6855 Y18.5695 I0.1227 J-0.0238
G1 X4.6855 Y18.2448
G3 X4.8095 Y18.1198 I0.125 J0
G1 X5.3358 Y18.1155
G1 X5.3366 Y18.1155
G1 X5.8818 Y18.1144
G1 X6.4452 Y18.1155
G1 X6.4459 Y18.1155
G1 X6.6779 Y18.1172
G1 X7.0268 Y18.1198
G1 X7.1779 Y18.1212
G1 X7.623 Y18.1253
G1 X8.2324 Y18.1318
G1 X9.2132 Y18.1449
G1 X10.2187 Y18.1591
G1 X11.2425 Y18.1721
G1 X12.3523 Y18.183
G1 X13.4698 Y18.1896
G1 X14.5858 Y18.1885
G1 X15.695 Y18.1787
G1 X16.7876 Y18.158
G1 X17.4609 Y18.1384
G1 X18.1222 Y18.1134
G1 X18.7712 Y18.0819
G1 X19.4072 Y18.0438
G1 X20.0264 Y17.9982
G1 X20.6282 Y17.945
G1 X21.2111 Y17.8842
G1 X21.7719 Y17.8148
G1 X22.1142 Y17.7649
G1 X22.2551 Y17.7443
G1 X22.6078 Y17.6851
G1 X22.7198 Y17.6664
G1 X23.1621 Y17.5809
G1 X23.5822 Y17.487
G1 X23.9776 Y17.3846
G1 X24.3475 Y17.2728
G1 X24.6947 Y17.1516
G3 X24.7178 Y17.146 I0.0412 J0.118
G1 X24.8072 Y17.1329
G3 X24.8648 Y17.138 I0.0181 J0.1237
G1 X24.9498 Y17.1663
G3 X24.9979 Y17.1958 I-0.0395 J0.1186
G1 X25.0622 Y17.259
G3 X25.0921 Y17.3054 I-0.0876 J0.0891
G1 X25.1226 Y17.3893
G3 X25.1301 Y17.432 I-0.1175 J0.0427
G3 X25.1293 Y17.4456 I-0.125 J0
G1 X25.1195 Y17.535
G3 X25.1018 Y17.5868 I-0.1243 J-0.0136
G1 X25.0549 Y17.6631
G3 X25.0368 Y17.686 I-0.1065 J-0.0655
G1 Z-0.3 F30
G1 X20.442 Y22.2808 F25
G3 X20.4229 Y22.2964 I-0.0884 J-0.0884
G1 X20.3608 Y22.3378
G3 X20.3188 Y22.3558 I-0.0693 J-0.104
G1 X20.2458 Y22.3721
G3 X20.2003 Y22.3738 I-0.0273 J-0.122
G1 X20.1262 Y22.3629
G3 X20.1245 Y22.3627 I0.0182 J-0.1237
G1 X20.0472 Y22.3502
G1 X19.995 Y22.3621
G1 X19.9505 Y22.3939
G1 X19.9203 Y22.4399
G1 X19.91 Y22.493
G1 X19.9202 Y22.5452
G1 X19.9505 Y22.5913
G1 X19.995 Y22.6231
G1 X20.0478 Y22.6352
G1 X20.1251 Y22.6235
G1 X20.1985 Y22.6116
G3 X20.2458 Y22.6131 I0.02 J0.1234
G1 X20.3188 Y22.6294
G3 X20.3608 Y22.6474 I-0.0273 J0.122
G1 X20.4229 Y22.6888
G3 X20.442 Y22.7044 I-0.0693 J0.104
G1 X24.224 Y26.4864
G3 X24.2404 Y26.5067 I-0.0884 J0.0884
G1 X24.285 Y26.5753
G3 X24.3036 Y26.6234 I-0.1048 J0.0681
G1 X24.3167 Y26.704
G3 X24.3183 Y26.724 I-0.1234 J0.02
G3 X24.3146 Y26.7543 I-0.125 J0
G1 X24.295 Y26.8328
G3 X24.2737 Y26.8775 I-0.1213 J-0.0303
G1 X24.2247 Y26.9428
G3 X24.1846 Y26.9776 I-0.1 J-0.075
G1 X24.1127 Y27.0168
G3 X24.0645 Y27.0315 I-0.0599 J-0.1097
G1 X23.9838 Y27.0392
G3 X23.9335 Y27.0336 I-0.0118 J-0.1244
G1 X23.8562 Y27.0086
G3 X23.8346 Y26.9992 I0.0385 J-0.1189
G1 X23.3246 Y26.7192
G1 X22.7902 Y26.451
G1 X22.2314 Y26.1933
G1 X21.6507 Y25.9452
G1 X21.0469 Y25.7078
G1 X20.4233 Y25.48
G1 X19.7213 Y25.2434
G1 X18.9982 Y25.0187
G1 X18.9783 Y25.013
G1 Z-0.25 F30
G1 X18.4979 Y24.8746 F25
G1 Z-0.3 F30
G1 X18.2554 Y24.8048 F25
G1 X17.4961 Y24.6027
G1 X16.7202 Y24.4104
G1 X15.9313 Y24.23
G1 X15.1303 Y24.0605
G1 X13.9929 Y23.8408
G1 X12.8391 Y23.6407
G1 X11.6754 Y23.4602
G1 X10.5061 Y23.2992
G1 X9.3366 Y23.1567
G1 X8.4087 Y23.0566
G1 X7.4861 Y22.9663
G1 X6.5701 Y22.888
G1 X5.6648 Y22.8205
G1 X5.4386 Y22.8059
G1 Z-0.25 F30
G1 X4.9396 Y22.7736 F25
G1 Z-0.3 F30
G1 X4.7726 Y22.7628 F25
G1 X3.8946 Y22.715
G1 X3.034 Y22.6769
G1 X2.1924 Y22.6486
G3 X2.1842 Y22.648 I0.0042 J-0.1249
G1 X1.878 Y22.6175
G3 X1.8612 Y22.6147 I0.0124 J-0.1244
G1 X1.5626 Y22.5428
G3 X1.5455 Y22.5373 I0.0293 J-0.1215
G1 X1.259 Y22.4229
G3 X1.2433 Y22.4154 I0.0463 J-0.1161
G1 X0.9764 Y22.2628
G3 X0.9618 Y22.2531 I0.062 J-0.1085
G1 X0.7188 Y22.0646
G3 X0.7059 Y22.0531 I0.0766 J-0.0988
G1 X0.4913 Y21.833
G3 X0.4797 Y21.8193 I0.0895 J-0.0873
G1 X0.2988 Y21.5708
G3 X0.2896 Y21.5562 I0.1011 J-0.0736
G1 X0.1447 Y21.2849
G3 X0.1375 Y21.2688 I0.1103 J-0.0589
G1 X0.0318 Y20.979
G3 X0.027 Y20.9623 I0.1174 J-0.0428
G1 X-0.0373 Y20.6615
G3 X-0.0397 Y20.6443 I0.1222 J-0.0261
G1 X-0.0615 Y20.3381
G3 X-0.0618 Y20.3292 I0.1247 J-0.0089
G1 X-0.0618 Y20.2484
G1 Z-0.25 F30
G1 X-0.0618 Y19.7484 F25
G1 Z-0.3 F30
G1 X-0.0618 Y18.9945 F25
G3 X0.0632 Y18.8695 I0.125 J0
G1 X4.3856 Y18.8695
G3 X4.4091 Y18.8717 I0 J0.125
G1 X4.4832 Y18.8859
G3 X4.5269 Y18.9033 I-0.0235 J0.1228
G1 X4.5901 Y18.9436
G3 X4.624 Y18.9754 I-0.0672 J0.1054
G1 X4.6676 Y19.0354
G1 X4.714 Y19.0992
G1 X4.7601 Y19.1274
G1 X4.8139 Y19.1372
G1 X4.866 Y19.1259
G1 X4.9112 Y19.0952
G1 X4.942 Y19.0499
G1 X4.9534 Y18.9971
G1 X4.9443 Y18.944
G1 X4.9155 Y18.8979
G1 X4.8522 Y18.8513
G1 X4.7912 Y18.8066
G3 X4.7596 Y18.7729 I0.0738 J-0.1009
G1 X4.7193 Y18.7097
G3 X4.702 Y18.6663 I0.1054 J-0.0672
G1 X4.6878 Y18.5933
G3 X4.6855 Y18.5695 I0.1227 J-0.0238
G1 X4.6855 Y18.2448
G3 X4.8095 Y18.1198 I0.125 J0
G1 X5.3358 Y18.1155
G1 X5.3366 Y18.1155
G1 X5.8818 Y18.1144
G1 X6.4452 Y18.1155
G1 X6.4459 Y18.1155
G1 X6.6779 Y18.1172
G1 Z-0.25 F30
G1 X7.0268 Y18.1198 F25
G1 X7.1779 Y18.1212
G1 Z-0.3 F30
G1 X7.623 Y18.1253 F25
G1 X8.2324 Y18.1318
G1 X9.2132 Y18.1449
G1 X10.2187 Y18.1591
G1 X11.2425 Y18.1721
G1 X12.3523 Y18.183
G1 X13.4698 Y18.1896
G1 X14.5858 Y18.1885
G1 X15.695 Y18.1787
G1 X16.7876 Y18.158
G1 X17.4609 Y18.1384
G1 X18.1222 Y18.1134
G1 X18.7712 Y18.0819
G1 X19.4072 Y18.0438
G1 X20.0264 Y17.9982
G1 X20.6282 Y17.945
G1 X21.2111 Y17.8842
G1 X21.7719 Y17.8148
G1 X22.1142 Y17.7649
G1 Z-0.25 F30
G1 X22.2551 Y17.7443 F25
G1 X22.6078 Y17.6851
G1 Z-0.3 F30
G1 X22.7198 Y17.6664 F25
G1 X23.1621 Y17.5809
G1 X23.5822 Y17.487
G1 X23.9776 Y17.3846
G1 X24.3475 Y17.2728
G1 X24.6947 Y17.1516
G3 X24.7178 Y17.146 I0.0412 J0.118
G1 X24.8072 Y17.1329
G3 X24.8648 Y17.138 I0.0181 J0.1237
G1 X24.9498 Y17.1663
G3 X24.9979 Y17.1958 I-0.0395 J0.1186
G1 X25.0622 Y17.259
G3 X25.0921 Y17.3054 I-0.0876 J0.0891
G1 X25.1226 Y17.3893
G3 X25.1301 Y17.432 I-0.1175 J0.0427
G3 X25.1293 Y17.4456 I-0.125 J0
G1 X25.1195 Y17.535
G3 X25.1018 Y17.5868 I-0.1243 J-0.0136
G1 X25.0549 Y17.6631
G3 X25.0368 Y17.686 I-0.1065 J-0.0655
G1 Z-0.45 F30
G1 X20.442 Y22.2808 F25
G3 X20.4229 Y22.2964 I-0.0884 J-0.0884
G1 X20.3608 Y22.3378
G3 X20.3188 Y22.3558 I-0.0693 J-0.104
G1 X20.2458 Y22.3721
G3 X20.2003 Y22.3738 I-0.0273 J-0.122
G1 X20.1262 Y22.3629
G3 X20.1245 Y22.3627 I0.0182 J-0.1237
G1 X20.0472 Y22.3502
G1 X19.995 Y22.3621
G1 X19.9505 Y22.3939
G1 X19.9203 Y22.4399
G1 X19.91 Y22.493
G1 X19.9202 Y22.5452
G1 X19.9505 Y22.5913
G1 X19.995 Y22.6231
G1 X20.0478 Y22.6352
G1 X20.1251 Y22.6235
G1 X20.1985 Y22.6116
G3 X20.2458 Y22.6131 I0.02 J0.1234
G1 X20.3188 Y22.6294
G3 X20.3608 Y22.6474 I-0.0273 J0.122
G1 X20.4229 Y22.6888
G3 X20.442 Y22.7044 I-0.0693 J0.104
G1 X24.224 Y26.4864
G3 X24.2404 Y26.5067 I-0.0884 J0.0884
G1 X24.285 Y26.5753
G3 X24.3036 Y26.6234 I-0.1048 J0.0681
G1 X24.3167 Y26.704
G3 X24.3183 Y26.724 I-0.1234 J0.02
G3 X24.3146 Y26.7543 I-0.125 J0
G1 X24.295 Y26.8328
G3 X24.2737 Y26.8775 I-0.1213 J-0.0303
G1 X24.2247 Y26.9428
G3 X24.1846 Y26.9776 I-0.1 J-0.075
G1 X24.1127 Y27.0168
G3 X24.0645 Y27.0315 I-0.0599 J-0.1097
G1 X23.9838 Y27.0392
G3 X23.9335 Y27.0336 I-0.0118 J-0.1244
G1 X23.8562 Y27.0086
G3 X23.8346 Y26.9992 I0.0385 J-0.1189
G1 X23.3246 Y26.7192
G1 X22.7902 Y26.451
G1 X22.2314 Y26.1933
G1 X21.6507 Y25.9452
G1 X21.0469 Y25.7078
G1 X20.4233 Y25.48
G1 X19.7213 Y25.2434
G1 X18.9982 Y25.0187
G1 X18.9783 Y25.013
G1 Z-0.25 F30
G1 X18.4979 Y24.8746 F25
G1 Z-0.45 F30
G1 X18.2554 Y24.8048 F25
G1 X17.4961 Y24.6027
G1 X16.7202 Y24.4104
G1 X15.9313 Y24.23
G1 X15.1303 Y24.0605
G1 X13.9929 Y23.8408
G1 X12.8391 Y23.6407
G1 X11.6754 Y23.4602
G1 X10.5061 Y23.2992
G1 X9.3366 Y23.1567
G1 X8.4087 Y23.0566
G1 X7.4861 Y22.9663
G1 X6.5701 Y22.888
G1 X5.6648 Y22.8205
G1 X5.4386 Y22.8059
G1 Z-0.25 F30
G1 X4.9396 Y22.7736 F25
G1 Z-0.45 F30
G1 X4.7726 Y22.7628 F25
G1 X3.8946 Y22.715
G1 X3.034 Y22.6769
G1 X2.1924 Y22.6486
G3 X2.1842 Y22.648 I0.0042 J-0.1249
G1 X1.878 Y22.6175
G3 X1.8612 Y22.6147 I0.0124 J-0.1244
G1 X1.5626 Y22.5428
G3 X1.5455 Y22.5373 I0.0293 J-0.1215
G1 X1.259 Y22.4229
G3 X1.2433 Y22.4154 I0.0463 J-0.1161
G1 X0.9764 Y22.2628
G3 X0.9618 Y22.2531 I0.062 J-0.1085
G1 X0.7188 Y22.0646
G3 X0.7059 Y22.0531 I0.0766 J-0.0988
G1 X0.4913 Y21.833
G3 X0.4797 Y21.8193 I0.0895 J-0.0873
G1 X0.2988 Y21.5708
G3 X0.2896 Y21.5562 I0.1011 J-0.0736
G1 X0.1447 Y21.2849
G3 X0.1375 Y21.2688 I0.1103 J-0.0589
G1 X0.0318 Y20.979
G3 X0.027 Y20.9623 I0.1174 J-0.0428
G1 X-0.0373 Y20.6615
G3 X-0.0397 Y20.6443 I0.1222 J-0.0261
G1 X-0.0615 Y20.3381
G3 X-0.0618 Y20.3292 I0.1247 J-0.0089
G1 X-0.0618 Y20.2484
G1 Z-0.25 F30
G1 X-0.0618 Y19.7484 F25
G1 Z-0.45 F30
G1 X-0.0618 Y18.9945 F25
G3 X0.0632 Y18.8695 I0.125 J0
G1 X4.3856 Y18.8695
G3 X4.4091 Y18.8717 I0 J0.125
G1 X4.4832 Y18.8859
G3 X4.5269 Y18.9033 I-0.0235 J0.1228
G1 X4.5901 Y18.9436
G3 X4.624 Y18.9754 I-0.0672 J0.1054
G1 X4.6676 Y19.0354
G1 X4.714 Y19.0992
G1 X4.7601 Y19.1274
G1 X4.8139 Y19.1372
G1 X4.866 Y19.1259
G1 X4.9112 Y19.0952
G1 X4.942 Y19.0499
G1 X4.9534 Y18.9971
G1 X4.9443 Y18.944
G1 X4.9155 Y18.8979
G1 X4.8522 Y18.8513
G1 X4.7912 Y18.8066
G3 X4.7596 Y18.7729 I0.0738 J-0.1009
G1 X4.7193 Y18.7097
G3 X4.702 Y18.6663 I0.1054 J-0.0672
G1 X4.6878 Y18.5933
G3 X4.6855 Y18.5695 I0.1227 J-0.0238
G1 X4.6855 Y18.2448
G3 X4.8095 Y18.1198 I0.125 J0
G1 X5.3358 Y18.1155
G1 X5.3366 Y18.1155
G1 X5.8818 Y18.1144
G1 X6.4452 Y18.1155
G1 X6.4459 Y18.1155
G1 X6.6779 Y18.1172
G1 Z-0.25 F30
G1 X7.0268 Y18.1198 F25
G1 X7.1779 Y18.1212
G1 Z-0.45 F30
G1 X7.623 Y18.1253 F25
G1 X8.2324 Y18.1318
G1 X9.2132 Y18.1449
G1 X10.2187 Y18.1591
G1 X11.2425 Y18.1721
G1 X12.3523 Y18.183
G1 X13.4698 Y18.1896
G1 X14.5858 Y18.1885
G1 X15.695 Y18.1787
G1 X16.7876 Y18.158
G1 X17.4609 Y18.1384
G1 X18.1222 Y18.1134
G1 X18.7712 Y18.0819
G1 X19.4072 Y18.0438
G1 X20.0264 Y17.9982
G1 X20.6282 Y17.945
G1 X21.2111 Y17.8842
G1 X21.7719 Y17.8148
G1 X22.1142 Y17.7649
G1 Z-0.25 F30
G1 X22.2551 Y17.7443 F25
G1 X22.6078 Y17.6851
G1 Z-0.45 F30
G1 X22.7198 Y17.6664 F25
G1 X23.1621 Y17.5809
G1 X23.5822 Y17.487
G1 X23.9776 Y17.3846
G1 X24.3475 Y17.2728
G1 X24.6947 Y17.1516
G3 X24.7178 Y17.146 I0.0412 J0.118
G1 X24.8072 Y17.1329
G3 X24.8648 Y17.138 I0.0181 J0.1237
G1 X24.9498 Y17.1663
G3 X24.9979 Y17.1958 I-0.0395 J0.1186
G1 X25.0622 Y17.259
G3 X25.0921 Y17.3054 I-0.0876 J0.0891
G1 X25.1226 Y17.3893
G3 X25.1301 Y17.432 I-0.1175 J0.0427
G3 X25.1293 Y17.4456 I-0.125 J0
G1 X25.1195 Y17.535
G3 X25.1018 Y17.5868 I-0.1243 J-0.0136
G1 X25.0549 Y17.6631
G3 X25.0368 Y17.686 I-0.1065 J-0.0655
G1 Z-0.6 F30
G1 X20.442 Y22.2808 F25
G3 X20.4229 Y22.2964 I-0.0884 J-0.0884
G1 X20.3608 Y22.3378
G3 X20.3188 Y22.3558 I-0.0693 J-0.104
G1 X20.2458 Y22.3721
G3 X20.2003 Y22.3738 I-0.0273 J-0.122
G1 X20.1262 Y22.3629
G3 X20.1245 Y22.3627 I0.0182 J-0.1237
G1 X20.0472 Y22.3502
G1 X19.995 Y22.3621
G1 X19.9505 Y22.3939
G1 X19.9203 Y22.4399
G1 X19.91 Y22.493
G1 X19.9202 Y22.5452
G1 X19.9505 Y22.5913
G1 X19.995 Y22.6231
G1 X20.0478 Y22.6352
G1 X20.1251 Y22.6235
G1 X20.1985 Y22.6116
G3 X20.2458 Y22.6131 I0.02 J0.1234
G1 X20.3188 Y22.6294
G3 X20.3608 Y22.6474 I-0.0273 J0.122
G1 X20.4229 Y22.6888
G3 X20.442 Y22.7044 I-0.0693 J0.104
G1 X24.224 Y26.4864
G3 X24.2404 Y26.5067 I-0.0884 J0.0884
G1 X24.285 Y26.5753
G3 X24.3036 Y26.6234 I-0.1048 J0.0681
G1 X24.3167 Y26.704
G3 X24.3183 Y26.724 I-0.1234 J0.02
G3 X24.3146 Y26.7543 I-0.125 J0
G1 X24.295 Y26.8328
G3 X24.2737 Y26.8775 I-0.1213 J-0.0303
G1 X24.2247 Y26.9428
G3 X24.1846 Y26.9776 I-0.1 J-0.075
G1 X24.1127 Y27.0168
G3 X24.0645 Y27.0315 I-0.0599 J-0.1097
G1 X23.9838 Y27.0392
G3 X23.9335 Y27.0336 I-0.0118 J-0.1244
G1 X23.8562 Y27.0086
G3 X23.8346 Y26.9992 I0.0385 J-0.1189
G1 X23.3246 Y26.7192
G1 X22.7902 Y26.451
G1 X22.2314 Y26.1933
G1 X21.6507 Y25.9452
G1 X21.0469 Y25.7078
G1 X20.4233 Y25.48
G1 X19.7213 Y25.2434
G1 X18.9982 Y25.0187
G1 X18.9783 Y25.013
G1 Z-0.25 F30
G1 X18.4979 Y24.8746 F25
G1 Z-0.6 F30
G1 X18.2554 Y24.8048 F25
G1 X17.4961 Y24.6027
G1 X16.7202 Y24.4104
G1 X15.9313 Y24.23
G1 X15.1303 Y24.0605
G1 X13.9929 Y23.8408
G1 X12.8391 Y23.6407
G1 X11.6754 Y23.4602
G1 X10.5061 Y23.2992
G1 X9.3366 Y23.1567
G1 X8.4087 Y23.0566
G1 X7.4861 Y22.9663
G1 X6.5701 Y22.888
G1 X5.6648 Y22.8205
G1 X5.4386 Y22.8059
G1 Z-0.25 F30
G1 X4.9396 Y22.7736 F25
G1 Z-0.6 F30
G1 X4.7726 Y22.7628 F25
G1 X3.8946 Y22.715
G1 X3.034 Y22.6769
G1 X2.1924 Y22.6486
G3 X2.1842 Y22.648 I0.0042 J-0.1249
G1 X1.878 Y22.6175
G3 X1.8612 Y22.6147 I0.0124 J-0.1244
G1 X1.5626 Y22.5428
G3 X1.5455 Y22.5373 I0.0293 J-0.1215
G1 X1.259 Y22.4229
G3 X1.2433 Y22.4154 I0.0463 J-0.1161
G1 X0.9764 Y22.2628
G3 X0.9618 Y22.2531 I0.062 J-0.1085
G1 X0.7188 Y22.0646
G3 X0.7059 Y22.0531 I0.0766 J-0.0988
G1 X0.4913 Y21.833
G3 X0.4797 Y21.8193 I0.0895 J-0.0873
G1 X0.2988 Y21.5708
G3 X0.2896 Y21.5562 I0.1011 J-0.0736
G1 X0.1447 Y21.2849
G3 X0.1375 Y21.2688 I0.1103 J-0.0589
G1 X0.0318 Y20.979
G3 X0.027 Y20.9623 I0.1174 J-0.0428
G1 X-0.0373 Y20.6615
G3 X-0.0397 Y20.6443 I0.1222 J-0.0261
G1 X-0.0615 Y20.3381
G3 X-0.0618 Y20.3292 I0.1247 J-0.0089
G1 X-0.0618 Y20.2484
G1 Z-0.25 F30
G1 X-0.0618 Y19.7484 F25
G1 Z-0.6 F30
G1 X-0.0618 Y18.9945 F25
G3 X0.0632 Y18.8695 I0.125 J0
G1 X4.3856 Y18.8695
G3 X4.4091 Y18.8717 I0 J0.125
G1 X4.4832 Y18.8859
G3 X4.5269 Y18.9033 I-0.0235 J0.1228
G1 X4.5901 Y18.9436
G3 X4.624 Y18.9754 I-0.0672 J0.1054
G1 X4.6676 Y19.0354
G1 X4.714 Y19.0992
G1 X4.7601 Y19.1274
G1 X4.8139 Y19.1372
G1 X4.866 Y19.1259
G1 X4.9112 Y19.0952
G1 X4.942 Y19.0499
G1 X4.9534 Y18.9971
G1 X4.9443 Y18.944
G1 X4.9155 Y18.8979
G1 X4.8522 Y18.8513
G1 X4.7912 Y18.8066
G3 X4.7596 Y18.7729 I0.0738 J-0.1009
G1 X4.7193 Y18.7097
G3 X4.702 Y18.6663 I0.1054 J-0.0672
G1 X4.6878 Y18.5933
G3 X4.6855 Y18.5695 I0.1227 J-0.0238
G1 X4.6855 Y18.2448
G3 X4.8095 Y18.1198 I0.125 J0
G1 X5.3358 Y18.1155
G1 X5.3366 Y18.1155
G1 X5.8818 Y18.1144
G1 X6.4452 Y18.1155
G1 X6.4459 Y18.1155
G1 X6.6779 Y18.1172
G1 Z-0.25 F30
G1 X7.0268 Y18.1198 F25
G1 X7.1779 Y18.1212
G1 Z-0.6 F30
G1 X7.623 Y18.1253 F25
G1 X8.2324 Y18.1318
G1 X9.2132 Y18.1449
G1 X10.2187 Y18.1591
G1 X11.2425 Y18.1721
G1 X12.3523 Y18.183
G1 X13.4698 Y18.1896
G1 X14.5858 Y18.1885
G1 X15.695 Y18.1787
G1 X16.7876 Y18.158
G1 X17.4609 Y18.1384
G1 X18.1222 Y18.1134
G1 X18.7712 Y18.0819
G1 X19.4072 Y18.0438
G1 X20.0264 Y17.9982
G1 X20.6282 Y17.945
G1 X21.2111 Y17.8842
G1 X21.7719 Y17.8148
G1 X22.1142 Y17.7649
G1 Z-0.25 F30
G1 X22.2551 Y17.7443 F25
G1 X22.6078 Y17.6851
G1 Z-0.6 F30
G1 X22.7198 Y17.6664 F25
G1 X23.1621 Y17.5809
G1 X23.5822 Y17.487
G1 X23.9776 Y17.3846
G1 X24.3475 Y17.2728
G1 X24.6947 Y17.1516
G3 X24.7178 Y17.146 I0.0412 J0.118
G1 X24.8072 Y17.1329
G3 X24.8648 Y17.138 I0.0181 J0.1237
G1 X24.9498 Y17.1663
G3 X24.9979 Y17.1958 I-0.0395 J0.1186
G1 X25.0622 Y17.259
G3 X25.0921 Y17.3054 I-0.0876 J0.0891
G1 X25.1226 Y17.3893
G3 X25.1301 Y17.432 I-0.1175 J0.0427
G3 X25.1293 Y17.4456 I-0.125 J0
G1 X25.1195 Y17.535
G3 X25.1018 Y17.5868 I-0.1243 J-0.0136
G1 X25.0549 Y17.6631
G3 X25.0368 Y17.686 I-0.1065 J-0.0655
G1 Z-0.75 F30
G1 X20.442 Y22.2808 F25
G3 X20.4229 Y22.2964 I-0.0884 J-0.0884
G1 X20.3608 Y22.3378
G3 X20.3188 Y22.3558 I-0.0693 J-0.104
G1 X20.2458 Y22.3721
G3 X20.2003 Y22.3738 I-0.0273 J-0.122
G1 X20.1262 Y22.3629
G3 X20.1245 Y22.3627 I0.0182 J-0.1237
G1 X20.0472 Y22.3502
G1 X19.995 Y22.3621
G1 X19.9505 Y22.3939
G1 X19.9203 Y22.4399
G1 X19.91 Y22.493
G1 X19.9202 Y22.5452
G1 X19.9505 Y22.5913
G1 X19.995 Y22.6231
G1 X20.0478 Y22.6352
G1 X20.1251 Y22.6235
G1 X20.1985 Y22.6116
G3 X20.2458 Y22.6131 I0.02 J0.1234
G1 X20.3188 Y22.6294
G3 X20.3608 Y22.6474 I-0.0273 J0.122
G1 X20.4229 Y22.6888
G3 X20.442 Y22.7044 I-0.0693 J0.104
G1 X24.224 Y26.4864
G3 X24.2404 Y26.5067 I-0.0884 J0.0884
G1 X24.285 Y26.5753
G3 X24.3036 Y26.6234 I-0.1048 J0.0681
G1 X24.3167 Y26.704
G3 X24.3183 Y26.724 I-0.1234 J0.02
G3 X24.3146 Y26.7543 I-0.125 J0
G1 X24.295 Y26.8328
G3 X24.2737 Y26.8775 I-0.1213 J-0.0303
G1 X24.2247 Y26.9428
G3 X24.1846 Y26.9776 I-0.1 J-0.075
G1 X24.1127 Y27.0168
G3 X24.0645 Y27.0315 I-0.0599 J-0.1097
G1 X23.9838 Y27.0392
G3 X23.9335 Y27.0336 I-0.0118 J-0.1244
G1 X23.8562 Y27.0086
G3 X23.8346 Y26.9992 I0.0385 J-0.1189
G1 X23.3246 Y26.7192
G1 X22.7902 Y26.451
G1 X22.2314 Y26.1933
G1 X21.6507 Y25.9452
G1 X21.0469 Y25.7078
G1 X20.4233 Y25.48
G1 X19.7213 Y25.2434
G1 X18.9982 Y25.0187
G1 X18.9783 Y25.013
G1 Z-0.25 F30
G1 X18.4979 Y24.8746 F25
G1 Z-0.75 F30
G1 X18.2554 Y24.8048 F25
G1 X17.4961 Y24.6027
G1 X16.7202 Y24.4104
G1 X15.9313 Y24.23
G1 X15.1303 Y24.0605
G1 X13.9929 Y23.8408
G1 X12.8391 Y23.6407
G1 X11.6754 Y23.4602
G1 X10.5061 Y23.2992
G1 X9.3366 Y23.1567
G1 X8.4087 Y23.0566
G1 X7.4861 Y22.9663
G1 X6.5701 Y22.888
G1 X5.6648 Y22.8205
G1 X5.4386 Y22.8059
G1 Z-0.25 F30
G1 X4.9396 Y22.7736 F25
G1 Z-0.75 F30
G1 X4.7726 Y22.7628 F25
G1 X3.8946 Y22.715
G1 X3.034 Y22.6769
G1 X2.1924 Y22.6486
G3 X2.1842 Y22.648 I0.0042 J-0.1249
G1 X1.878 Y22.6175
G3 X1.8612 Y22.6147 I0.0124 J-0.1244
G1 X1.5626 Y22.5428
G3 X1.5455 Y22.5373 I0.0293 J-0.1215
G1 X1.259 Y22.4229
G3 X1.2433 Y22.4154 I0.0463 J-0.1161
G1 X0.9764 Y22.2628
G3 X0.9618 Y22.2531 I0.062 J-0.1085
G1 X0.7188 Y22.0646
G3 X0.7059 Y22.0531 I0.0766 J-0.0988
G1 X0.4913 Y21.833
G3 X0.4797 Y21.8193 I0.0895 J-0.0873
G1 X0.2988 Y21.5708
G3 X0.2896 Y21.5562 I0.1011 J-0.0736
G1 X0.1447 Y21.2849
G3 X0.1375 Y21.2688 I0.1103 J-0.0589
G1 X0.0318 Y20.979
G3 X0.027 Y20.9623 I0.1174 J-0.0428
G1 X-0.0373 Y20.6615
G3 X-0.0397 Y20.6443 I0.1222 J-0.0261
G1 X-0.0615 Y20.3381
G3 X-0.0618 Y20.3292 I0.1247 J-0.0089
G1 X-0.0618 Y20.2484
G1 Z-0.25 F30
G1 X-0.0618 Y19.7484 F25
G1 Z-0.75 F30
G1 X-0.0618 Y18.9945 F25
G3 X0.0632 Y18.8695 I0.125 J0
G1 X4.3856 Y18.8695
G3 X4.4091 Y18.8717 I0 J0.125
G1 X4.4832 Y18.8859
G3 X4.5269 Y18.9033 I-0.0235 J0.1228
G1 X4.5901 Y18.9436
G3 X4.624 Y18.9754 I-0.0672 J0.1054
G1 X4.6676 Y19.0354
G1 X4.714 Y19.0992
G1 X4.7601 Y19.1274
G1 X4.8139 Y19.1372
G1 X4.866 Y19.1259
G1 X4.9112 Y19.0952
G1 X4.942 Y19.0499
G1 X4.9534 Y18.9971
G1 X4.9443 Y18.944
G1 X4.9155 Y18.8979
G1 X4.8522 Y18.8513
G1 X4.7912 Y18.8066
G3 X4.7596 Y18.7729 I0.0738 J-0.1009
G1 X4.7193 Y18.7097
G3 X4.702 Y18.6663 I0.1054 J-0.0672
G1 X4.6878 Y18.5933
G3 X4.6855 Y18.5695 I0.1227 J-0.0238
G1 X4.6855 Y18.2448
G3 X4.8095 Y18.1198 I0.125 J0
G1 X5.3358 Y18.1155
G1 X5.3366 Y18.1155
G1 X5.8818 Y18.1144
G1 X6.4452 Y18.1155
G1 X6.4459 Y18.1155
G1 X6.6779 Y18.1172
G1 Z-0.25 F30
G1 X7.0268 Y18.1198 F25
G1 X7.1779 Y18.1212
G1 Z-0.75 F30
G1 X7.623 Y18.1253 F25
G1 X8.2324 Y18.1318
G1 X9.2132 Y18.1449
G1 X10.2187 Y18.1591
G1 X11.2425 Y18.1721
G1 X12.3523 Y18.183
G1 X13.4698 Y18.1896
G1 X14.5858 Y18.1885
G1 X15.695 Y18.1787
G1 X16.7876 Y18.158
G1 X17.4609 Y18.1384
G1 X18.1222 Y18.1134
G1 X18.7712 Y18.0819
G1 X19.4072 Y18.0438
G1 X20.0264 Y17.9982
G1 X20.6282 Y17.945
G1 X21.2111 Y17.8842
G1 X21.7719 Y17.8148
G1 X22.1142 Y17.7649
G1 Z-0.25 F30
G1 X22.2551 Y17.7443 F25
G1 X22.6078 Y17.6851
G1 Z-0.75 F30
G1 X22.7198 Y17.6664 F25
G1 X23.1621 Y17.5809
G1 X23.5822 Y17.487
G1 X23.9776 Y17.3846
G1 X24.3475 Y17.2728
G1 X24.6947 Y17.1516
G3 X24.7178 Y17.146 I0.0412 J0.118
G1 X24.8072 Y17.1329
G3 X24.8648 Y17.138 I0.0181 J0.1237
G1 X24.9498 Y17.1663
G3 X24.9979 Y17.1958 I-0.0395 J0.1186
G1 X25.0622 Y17.259
G3 X25.0921 Y17.3054 I-0.0876 J0.0891
G1 X25.1226 Y17.3893
G3 X25.1301 Y17.432 I-0.1175 J0.0427
G3 X25.1293 Y17.4456 I-0.125 J0
G1 X25.1195 Y17.535
G3 X25.1018 Y17.5868 I-0.1243 J-0.0136
G1 X25.0549 Y17.6631
G3 X25.0368 Y17.686 I-0.1065 J-0.0655
G1 Z-0.85 F30
G1 X20.442 Y22.2808 F25
G3 X20.4229 Y22.2964 I-0.0884 J-0.0884
G1 X20.3608 Y22.3378
G3 X20.3188 Y22.3558 I-0.0693 J-0.104
G1 X20.2458 Y22.3721
G3 X20.2003 Y22.3738 I-0.0273 J-0.122
G1 X20.1262 Y22.3629
G3 X20.1245 Y22.3627 I0.0182 J-0.1237
G1 X20.0472 Y22.3502
G1 X19.995 Y22.3621
G1 X19.9505 Y22.3939
G1 X19.9203 Y22.4399
G1 X19.91 Y22.493
G1 X19.9202 Y22.5452
G1 X19.9505 Y22.5913
G1 X19.995 Y22.6231
G1 X20.0478 Y22.6352
G1 X20.1251 Y22.6235
G1 X20.1985 Y22.6116
G3 X20.2458 Y22.6131 I0.02 J0.1234
G1 X20.3188 Y22.6294
G3 X20.3608 Y22.6474 I-0.0273 J0.122
G1 X20.4229 Y22.6888
G3 X20.442 Y22.7044 I-0.0693 J0.104
G1 X24.224 Y26.4864
G3 X24.2404 Y26.5067 I-0.0884 J0.0884
G1 X24.285 Y26.5753
G3 X24.3036 Y26.6234 I-0.1048 J0.0681
G1 X24.3167 Y26.704
G3 X24.3183 Y26.724 I-0.1234 J0.02
G3 X24.3146 Y26.7543 I-0.125 J0
G1 X24.295 Y26.8328
G3 X24.2737 Y26.8775 I-0.1213 J-0.0303
G1 X24.2247 Y26.9428
G3 X24.1846 Y26.9776 I-0.1 J-0.075
G1 X24.1127 Y27.0168
G3 X24.0645 Y27.0315 I-0.0599 J-0.1097
G1 X23.9838 Y27.0392
G3 X23.9335 Y27.0336 I-0.0118 J-0.1244
G1 X23.8562 Y27.0086
G3 X23.8346 Y26.9992 I0.0385 J-0.1189
G1 X23.3246 Y26.7192
G1 X22.7902 Y26.451
G1 X22.2314 Y26.1933
G1 X21.6507 Y25.9452
G1 X21.0469 Y25.7078
G1 X20.4233 Y25.48
G1 X19.7213 Y25.2434
G1 X18.9982 Y25.0187
G1 X18.9783 Y25.013
G1 Z-0.25 F30
G1 X18.4979 Y24.8746 F25
G1 Z-0.85 F30
G1 X18.2554 Y24.8048 F25
G1 X17.4961 Y24.6027
G1 X16.7202 Y24.4104
G1 X15.9313 Y24.23
G1 X15.1303 Y24.0605
G1 X13.9929 Y23.8408
G1 X12.8391 Y23.6407
G1 X11.6754 Y23.4602
G1 X10.5061 Y23.2992
G1 X9.3366 Y23.1567
G1 X8.4087 Y23.0566
G1 X7.4861 Y22.9663
G1 X6.5701 Y22.888
G1 X5.6648 Y22.8205
G1 X5.4386 Y22.8059
G1 Z-0.25 F30
G1 X4.9396 Y22.7736 F25
G1 Z-0.85 F30
G1 X4.7726 Y22.7628 F25
G1 X3.8946 Y22.715
G1 X3.034 Y22.6769
G1 X2.1924 Y22.6486
G3 X2.1842 Y22.648 I0.0042 J-0.1249
G1 X1.878 Y22.6175
G3 X1.8612 Y22.6147 I0.0124 J-0.1244
G1 X1.5626 Y22.5428
G3 X1.5455 Y22.5373 I0.0293 J-0.1215
G1 X1.259 Y22.4229
G3 X1.2433 Y22.4154 I0.0463 J-0.1161
G1 X0.9764 Y22.2628
G3 X0.9618 Y22.2531 I0.062 J-0.1085
G1 X0.7188 Y22.0646
G3 X0.7059 Y22.0531 I0.0766 J-0.0988
G1 X0.4913 Y21.833
G3 X0.4797 Y21.8193 I0.0895 J-0.0873
G1 X0.2988 Y21.5708
G3 X0.2896 Y21.5562 I0.1011 J-0.0736
G1 X0.1447 Y21.2849
G3 X0.1375 Y21.2688 I0.1103 J-0.0589
G1 X0.0318 Y20.979
G3 X0.027 Y20.9623 I0.1174 J-0.0428
G1 X-0.0373 Y20.6615
G3 X-0.0397 Y20.6443 I0.1222 J-0.0261
G1 X-0.0615 Y20.3381
G3 X-0.0618 Y20.3292 I0.1247 J-0.0089
G1 X-0.0618 Y20.2484
G1 Z-0.25 F30
G1 X-0.0618 Y19.7484 F25
G1 Z-0.85 F30
G1 X-0.0618 Y18.9945 F25
G3 X0.0632 Y18.8695 I0.125 J0
G1 X4.3856 Y18.8695
G3 X4.4091 Y18.8717 I0 J0.125
G1 X4.4832 Y18.8859
G3 X4.5269 Y18.9033 I-0.0235 J0.1228
G1 X4.5901 Y18.9436
G3 X4.624 Y18.9754 I-0.0672 J0.1054
G1 X4.6676 Y19.0354
G1 X4.714 Y19.0992
G1 X4.7601 Y19.1274
G1 X4.8139 Y19.1372
G1 X4.866 Y19.1259
G1 X4.9112 Y19.0952
G1 X4.942 Y19.0499
G1 X4.9534 Y18.9971
G1 X4.9443 Y18.944
G1 X4.9155 Y18.8979
G1 X4.8522 Y18.8513
G1 X4.7912 Y18.8066
G3 X4.7596 Y18.7729 I0.0738 J-0.1009
G1 X4.7193 Y18.7097
G3 X4.702 Y18.6663 I0.1054 J-0.0672
G1 X4.6878 Y18.5933
G3 X4.6855 Y18.5695 I0.1227 J-0.0238
G1 X4.6855 Y18.2448
G3 X4.8095 Y18.1198 I0.125 J0
G1 X5.3358 Y18.1155
G1 X5.3366 Y18.1155
G1 X5.8818 Y18.1144
G1 X6.4452 Y18.1155
G1 X6.4459 Y18.1155
G1 X6.6779 Y18.1172
G1 Z-0.25 F30
G1 X7.0268 Y18.1198 F25
G1 X7.1779 Y18.1212
G1 Z-0.85 F30
G1 X7.623 Y18.1253 F25
G1 X8.2324 Y18.1318
G1 X9.2132 Y18.1449
G1 X10.2187 Y18.1591
G1 X11.2425 Y18.1721
G1 X12.3523 Y18.183
G1 X13.4698 Y18.1896
G1 X14.5858 Y18.1885
G1 X15.695 Y18.1787
G1 X16.7876 Y18.158
G1 X17.4609 Y18.1384
G1 X18.1222 Y18.1134
G1 X18.7712 Y18.0819
G1 X19.4072 Y18.0438
G1 X20.0264 Y17.9982
G1 X20.6282 Y17.945
G1 X21.2111 Y17.8842
G1 X21.7719 Y17.8148
G1 X22.1142 Y17.7649
G1 Z-0.25 F30
G1 X22.2551 Y17.7443 F25
G1 X22.6078 Y17.6851
G1 Z-0.85 F30
G1 X22.7198 Y17.6664 F25
G1 X23.1621 Y17.5809
G1 X23.5822 Y17.487
G1 X23.9776 Y17.3846
G1 X24.3475 Y17.2728
G1 X24.6947 Y17.1516
G3 X24.7178 Y17.146 I0.0412 J0.118
G1 X24.8072 Y17.1329
G3 X24.8648 Y17.138 I0.0181 J0.1237
G1 X24.9498 Y17.1663
G3 X24.9979 Y17.1958 I-0.0395 J0.1186
G1 X25.0622 Y17.259
G3 X25.0921 Y17.3054 I-0.0876 J0.0891
G1 X25.1226 Y17.3893
G3 X25.1301 Y17.432 I-0.1175 J0.0427
G3 X25.1293 Y17.4456 I-0.125 J0
G1 X25.1195 Y17.535
G3 X25.1018 Y17.5868 I-0.1243 J-0.0136
G1 X25.0549 Y17.6631
G3 X25.0368 Y17.686 I-0.1065 J-0.0655

(profile 2)
G0 Z0.3
G0 X22.26 Y5.6186
G1 Z-0.15 F30
G1 X26.8548 Y10.2134 F25
G3 X26.8729 Y10.2363 I-0.0884 J0.0884
G1 X26.9198 Y10.3126
G3 X26.9375 Y10.3644 I-0.1065 J0.0655
G1 X26.9473 Y10.4538
G3 X26.9481 Y10.4674 I-0.1243 J0.0136
G3 X26.9406 Y10.5101 I-0.125 J0
G1 X26.9101 Y10.594
G3 X26.8802 Y10.6405 I-0.1175 J-0.0427
G1 X26.8159 Y10.7036
G3 X26.7678 Y10.7331 I-0.0876 J-0.0892
G1 X26.6828 Y10.7614
G3 X26.6252 Y10.7665 I-0.0395 J-0.1186
G1 X26.5358 Y10.7534
G3 X26.5127 Y10.7478 I0.0181 J-0.1237
G1 X26.1655 Y10.6266
G1 X25.7956 Y10.5148
G1 X25.4002 Y10.4124
G1 X24.9801 Y10.3185
G1 X24.5378 Y10.233
G1 X24.0731 Y10.1551
G1 X23.7519 Y10.1082
G1 X23.5899 Y10.0846
G1 X23.2561 Y10.0433
G1 X23.0291 Y10.0152
G1 X22.4462 Y9.9544
G1 X21.8444 Y9.9012
G1 X21.2252 Y9.8556
G1 X20.5892 Y9.8175
G1 X19.9402 Y9.786
G1 X19.2789 Y9.761
G1 X18.6056 Y9.7414
G1 X17.513 Y9.7207
G1 X16.4038 Y9.7109
G1 X15.2878 Y9.7098
G1 X14.1708 Y9.7164
G1 X13.0609 Y9.7273
G1 X12.0368 Y9.7403
G1 X12.0061 Y9.7408
G1 X11.5061 Y9.7478
G1 X11.0311 Y9.7545
G1 X10.0501 Y9.7676
G1 X9.4408 Y9.7741
G1 X8.8446 Y9.7796
G1 X8.2639 Y9.7839
G1 X8.2632 Y9.7839
G1 X7.6994 Y9.785
G1 X7.1546 Y9.7839
G1 X7.1538 Y9.7839
G1 X6.6275 Y9.7796
G3 X6.5035 Y9.6546 I0.001 J-0.125
G1 X6.5035 Y9.3299
G3 X6.5058 Y9.3061 I0.125 J0
G1 X6.52 Y9.2331
G3 X6.5373 Y9.1897 I0.1227 J0.0238
G1 X6.5776 Y9.1265
G3 X6.6092 Y9.0928 I0.1054 J0.0672
G1 X6.6699 Y9.0484
G1 X6.7335 Y9.0015
G1 X6.7623 Y8.9554
G1 X6.7714 Y8.9023
G1 X6.76 Y8.8495
G1 X6.7292 Y8.8042
G1 X6.684 Y8.7735
G1 X6.6319 Y8.7622
G1 X6.5781 Y8.772
G1 X6.532 Y8.8002
G1 X6.4856 Y8.864
G1 X6.442 Y8.924
G3 X6.4081 Y8.9558 I-0.1011 J-0.0735
G1 X6.3449 Y8.9961
G3 X6.3012 Y9.0135 I-0.0672 J-0.1054
G1 X6.2271 Y9.0277
G3 X6.2036 Y9.0299 I-0.0235 J-0.1228
G1 X1.8812 Y9.0299
G3 X1.7562 Y8.9049 I0 J-0.125
G1 X1.7562 Y7.5702
G3 X1.7565 Y7.5613 I0.125 J0
G1 X1.7783 Y7.2551
G3 X1.7807 Y7.2379 I0.1247 J0.0089
G1 X1.845 Y6.9371
G3 X1.8498 Y6.9205 I0.1222 J0.0261
G1 X1.9555 Y6.6306
G3 X1.9627 Y6.6145 I0.1174 J0.0428
G1 X2.1076 Y6.3432
G3 X2.1168 Y6.3286 I0.1103 J0.0589
G1 X2.2977 Y6.0801
G3 X2.3093 Y6.0664 I0.1011 J0.0736
G1 X2.5239 Y5.8463
G3 X2.5368 Y5.8348 I0.0895 J0.0873
G1 X2.7798 Y5.6463
G3 X2.7944 Y5.6366 I0.0766 J0.0988
G1 X3.0613 Y5.484
G3 X3.077 Y5.4765 I0.062 J0.1085
G1 X3.3635 Y5.3621
G3 X3.3806 Y5.3566 I0.0463 J0.1161
G1 X3.6792 Y5.2847
G3 X3.696 Y5.2819 I0.0293 J0.1215
G1 X4.0022 Y5.2514
G3 X4.0104 Y5.2508 I0.0124 J0.1244
G1 X4.852 Y5.2225
G1 X5.7126 Y5.1844
G1 X6.5906 Y5.1365
G1 X7.302 Y5.0906
G1 X7.4828 Y5.0789
G1 X7.8007 Y5.0552
G1 X8.3881 Y5.0114
G1 X9.3041 Y4.9331
G1 X10.2267 Y4.8428
G1 X11.1546 Y4.7427
G1 X12.3241 Y4.6002
G1 X13.4934 Y4.4392
G1 X14.6571 Y4.2587
G1 X15.8109 Y4.0586
G1 X16.9483 Y3.8389
G1 X17.7493 Y3.6694
G1 X18.5382 Y3.489
G1 X19.3141 Y3.2967
G1 X20.0734 Y3.0946
G1 X20.8162 Y2.8807
G1 X20.9052 Y2.853
G1 X21.3827 Y2.7046
G1 X21.5393 Y2.656
G1 X22.2413 Y2.4194
G1 X22.8649 Y2.1916
G1 X23.4687 Y1.9543
G1 X24.0494 Y1.7061
G1 X24.6082 Y1.4484
G1 X25.1426 Y1.1802
G1 X25.6526 Y0.9002
G3 X25.6742 Y0.8908 I0.0602 J0.1096
G1 X25.7515 Y0.8658
G3 X25.8019 Y0.8602 I0.0385 J0.1189
G1 X25.8826 Y0.8679
G3 X25.9307 Y0.8826 I-0.0118 J0.1244
G1 X26.0026 Y0.9218
G3 X26.0427 Y0.9566 I-0.0599 J0.1097
G1 X26.0917 Y1.0219
G3 X26.113 Y1.0666 I-0.1 J0.075
G1 X26.1326 Y1.1451
G3 X26.1363 Y1.1754 I-0.1213 J0.0303
G3 X26.1347 Y1.1954 I-0.125 J0
G1 X26.1216 Y1.276
G3 X26.103 Y1.3241 I-0.1234 J-0.02
G1 X26.0584 Y1.3927
G3 X26.042 Y1.413 I-0.1048 J-0.0681
G1 X22.26 Y5.195
G3 X22.2409 Y5.2106 I-0.0884 J-0.0884
G1 X22.1788 Y5.252
G3 X22.1368 Y5.27 I-0.0693 J-0.104
G1 X22.0638 Y5.2863
G3 X22.0165 Y5.2878 I-0.0273 J-0.122
G1 X21.9431 Y5.2759
G1 X21.8658 Y5.2642
G1 X21.813 Y5.2763
G1 X21.7685 Y5.3081
G1 X21.7382 Y5.3542
G1 X21.728 Y5.4064
G1 X21.7383 Y5.4595
G1 X21.7685 Y5.5055
G1 X21.813 Y5.5373
G1 X21.8652 Y5.5492
G1 X21.9425 Y5.5367
G3 X21.9442 Y5.5364 I0.0199 J0.1234
G1 X22.0183 Y5.5256
G3 X22.0638 Y5.5272 I0.0182 J0.1237
G1 X22.1368 Y5.5436
G3 X22.1788 Y5.5616 I-0.0273 J0.122
G1 X22.2409 Y5.603
G3 X22.26 Y5.6186 I-0.0693 J0.104
G1 Z-0.3 F30
G1 X26.8548 Y10.2134 F25
G3 X26.8729 Y10.2363 I-0.0884 J0.0884
G1 X26.9198 Y10.3126
G3 X26.9375 Y10.3644 I-0.1065 J0.0655
G1 X26.9473 Y10.4538
G3 X26.9481 Y10.4674 I-0.1243 J0.0136
G3 X26.9406 Y10.5101 I-0.125 J0
G1 X26.9101 Y10.594
G3 X26.8802 Y10.6405 I-0.1175 J-0.0427
G1 X26.8159 Y10.7036
G3 X26.7678 Y10.7331 I-0.0876 J-0.0892
G1 X26.6828 Y10.7614
G3 X26.6252 Y10.7665 I-0.0395 J-0.1186
G1 X26.5358 Y10.7534
G3 X26.5127 Y10.7478 I0.0181 J-0.1237
G1 X26.1655 Y10.6266
G1 X25.7956 Y10.5148
G1 X25.4002 Y10.4124
G1 X24.9801 Y10.3185
G1 X24.5378 Y10.233
G1 X24.0731 Y10.1551
G1 X23.7519 Y10.1082
G1 Z-0.25 F30
G1 X23.5899 Y10.0846 F25
G1 X23.2561 Y10.0433
G1 Z-0.3 F30
G1 X23.0291 Y10.0152 F25
G1 X22.4462 Y9.9544
G1 X21.8444 Y9.9012
G1 X21.2252 Y9.8556
G1 X20.5892 Y9.8175
G1 X19.9402 Y9.786
G1 X19.2789 Y9.761
G1 X18.6056 Y9.7414
G1 X17.513 Y9.7207
G1 X16.4038 Y9.7109
G1 X15.2878 Y9.7098
G1 X14.1708 Y9.7164
G1 X13.0609 Y9.7273
G1 X12.0368 Y9.7403
G1 X12.0061 Y9.7408
G1 Z-0.25 F30
G1 X11.5061 Y9.7478 F25
G1 Z-0.3 F30
G1 X11.0311 Y9.7545 F25
G1 X10.0501 Y9.7676
G1 X9.4408 Y9.7741
G1 X8.8446 Y9.7796
G1 X8.2639 Y9.7839
G1 X8.2632 Y9.7839
G1 X7.6994 Y9.785
G1 X7.1546 Y9.7839
G1 X7.1538 Y9.7839
G1 X6.6275 Y9.7796
G3 X6.5035 Y9.6546 I0.001 J-0.125
G1 X6.5035 Y9.3299
G3 X6.5058 Y9.3061 I0.125 J0
G1 X6.52 Y9.2331
G3 X6.5373 Y9.1897 I0.1227 J0.0238
G1 X6.5776 Y9.1265
G3 X6.6092 Y9.0928 I0.1054 J0.0672
G1 X6.6699 Y9.0484
G1 X6.7335 Y9.0015
G1 X6.7623 Y8.9554
G1 X6.7714 Y8.9023
G1 X6.76 Y8.8495
G1 X6.7292 Y8.8042
G1 X6.684 Y8.7735
G1 X6.6319 Y8.7622
G1 X6.5781 Y8.772
G1 X6.532 Y8.8002
G1 X6.4856 Y8.864
G1 X6.442 Y8.924
G3 X6.4081 Y8.9558 I-0.1011 J-0.0735
G1 X6.3449 Y8.9961
G3 X6.3012 Y9.0135 I-0.0672 J-0.1054
G1 X6.2271 Y9.0277
G3 X6.2036 Y9.0299 I-0.0235 J-0.1228
G1 X1.8812 Y9.0299
G3 X1.7562 Y8.9049 I0 J-0.125
G1 X1.7562 Y7.5702
G3 X1.7565 Y7.5613 I0.125 J0
G1 X1.7783 Y7.2551
G3 X1.7807 Y7.2379 I0.1247 J0.0089
G1 X1.845 Y6.9371
G3 X1.8498 Y6.9205 I0.1222 J0.0261
G1 X1.9555 Y6.6306
G3 X1.9627 Y6.6145 I0.1174 J0.0428
G1 X2.1076 Y6.3432
G3 X2.1168 Y6.3286 I0.1103 J0.0589
G1 X2.2977 Y6.0801
G3 X2.3093 Y6.0664 I0.1011 J0.0736
G1 X2.5239 Y5.8463
G3 X2.5368 Y5.8348 I0.0895 J0.0873
G1 X2.7798 Y5.6463
G3 X2.7944 Y5.6366 I0.0766 J0.0988
G1 X3.0613 Y5.484
G3 X3.077 Y5.4765 I0.062 J0.1085
G1 X3.3635 Y5.3621
G3 X3.3806 Y5.3566 I0.0463 J0.1161
G1 X3.6792 Y5.2847
G3 X3.696 Y5.2819 I0.0293 J0.1215
G1 X4.0022 Y5.2514
G3 X4.0104 Y5.2508 I0.0124 J0.1244
G1 X4.852 Y5.2225
G1 X5.7126 Y5.1844
G1 X6.5906 Y5.1365
G1 X7.302 Y5.0906
G1 Z-0.25 F30
G1 X7.4828 Y5.0789 F25
G1 X7.8007 Y5.0552
G1 Z-0.3 F30
G1 X8.3881 Y5.0114 F25
G1 X9.3041 Y4.9331
G1 X10.2267 Y4.8428
G1 X11.1546 Y4.7427
G1 X12.3241 Y4.6002
G1 X13.4934 Y4.4392
G1 X14.6571 Y4.2587
G1 X15.8109 Y4.0586
G1 X16.9483 Y3.8389
G1 X17.7493 Y3.6694
G1 X18.5382 Y3.489
G1 X19.3141 Y3.2967
G1 X20.0734 Y3.0946
G1 X20.8162 Y2.8807
G1 X20.9052 Y2.853
G1 Z-0.25 F30
G1 X21.3827 Y2.7046 F25
G1 Z-0.3 F30
G1 X21.5393 Y2.656 F25
G1 X22.2413 Y2.4194
G1 X22.8649 Y2.1916
G1 X23.4687 Y1.9543
G1 X24.0494 Y1.7061
G1 X24.6082 Y1.4484
G1 X25.1426 Y1.1802
G1 X25.6526 Y0.9002
G3 X25.6742 Y0.8908 I0.0602 J0.1096
G1 X25.7515 Y0.8658
G3 X25.8019 Y0.8602 I0.0385 J0.1189
G1 X25.8826 Y0.8679
G3 X25.9307 Y0.8826 I-0.0118 J0.1244
G1 X26.0026 Y0.9218
G3 X26.0427 Y0.9566 I-0.0599 J0.1097
G1 X26.0917 Y1.0219
G3 X26.113 Y1.0666 I-0.1 J0.075
G1 X26.1326 Y1.1451
G3 X26.1363 Y1.1754 I-0.1213 J0.0303
G3 X26.1347 Y1.1954 I-0.125 J0
G1 X26.1216 Y1.276
G3 X26.103 Y1.3241 I-0.1234 J-0.02
G1 X26.0584 Y1.3927
G3 X26.042 Y1.413 I-0.1048 J-0.0681
G1 X22.26 Y5.195
G3 X22.2409 Y5.2106 I-0.0884 J-0.0884
G1 X22.1788 Y5.252
G3 X22.1368 Y5.27 I-0.0693 J-0.104
G1 X22.0638 Y5.2863
G3 X22.0165 Y5.2878 I-0.0273 J-0.122
G1 X21.9431 Y5.2759
G1 X21.8658 Y5.2642
G1 X21.813 Y5.2763
G1 X21.7685 Y5.3081
G1 X21.7382 Y5.3542
G1 X21.728 Y5.4064
G1 X21.7383 Y5.4595
G1 X21.7685 Y5.5055
G1 X21.813 Y5.5373
G1 X21.8652 Y5.5492
G1 X21.9425 Y5.5367
G3 X21.9442 Y5.5364 I0.0199 J0.1234
G1 X22.0183 Y5.5256
G3 X22.0638 Y5.5272 I0.0182 J0.1237
G1 X22.1368 Y5.5436
G3 X22.1788 Y5.5616 I-0.0273 J0.122
G1 X22.2409 Y5.603
G3 X22.26 Y5.6186 I-0.0693 J0.104
G1 Z-0.45 F30
G1 X26.8548 Y10.2134 F25
G3 X26.8729 Y10.2363 I-0.0884 J0.0884
G1 X26.9198 Y10.3126
G3 X26.9375 Y10.3644 I-0.1065 J0.0655
G1 X26.9473 Y10.4538
G3 X26.9481 Y10.4674 I-0.1243 J0.0136
G3 X26.9406 Y10.5101 I-0.125 J0
G1 X26.9101 Y10.594
G3 X26.8802 Y10.6405 I-0.1175 J-0.0427
G1 X26.8159 Y10.7036
G3 X26.7678 Y10.7331 I-0.0876 J-0.0892
G1 X26.6828 Y10.7614
G3 X26.6252 Y10.7665 I-0.0395 J-0.1186
G1 X26.5358 Y10.7534
G3 X26.5127 Y10.7478 I0.0181 J-0.1237
G1 X26.1655 Y10.6266
G1 X25.7956 Y10.5148
G1 X25.4002 Y10.4124
G1 X24.9801 Y10.3185
G1 X24.5378 Y10.233
G1 X24.0731 Y10.1551
G1 X23.7519 Y10.1082
G1 Z-0.25 F30
G1 X23.5899 Y10.0846 F25
G1 X23.2561 Y10.0433
G1 Z-0.45 F30
G1 X23.0291 Y10.0152 F25
G1 X22.4462 Y9.9544
G1 X21.8444 Y9.9012
G1 X21.2252 Y9.8556
G1 X20.5892 Y9.8175
G1 X19.9402 Y9.786
G1 X19.2789 Y9.761
G1 X18.6056 Y9.7414
G1 X17.513 Y9.7207
G1 X16.4038 Y9.7109
G1 X15.2878 Y9.7098
G1 X14.1708 Y9.7164
G1 X13.0609 Y9.7273
G1 X12.0368 Y9.7403
G1 X12.0061 Y9.7408
G1 Z-0.25 F30
G1 X11.5061 Y9.7478 F25
G1 Z-0.45 F30
G1 X11.0311 Y9.7545 F25
G1 X10.0501 Y9.7676
G1 X9.4408 Y9.7741
G1 X8.8446 Y9.7796
G1 X8.2639 Y9.7839
G1 X8.2632 Y9.7839
G1 X7.6994 Y9.785
G1 X7.1546 Y9.7839
G1 X7.1538 Y9.7839
G1 X6.6275 Y9.7796
G3 X6.5035 Y9.6546 I0.001 J-0.125
G1 X6.5035 Y9.3299
G3 X6.5058 Y9.3061 I0.125 J0
G1 X6.52 Y9.2331
G3 X6.5373 Y9.1897 I0.1227 J0.0238
G1 X6.5776 Y9.1265
G3 X6.6092 Y9.0928 I0.1054 J0.0672
G1 X6.6699 Y9.0484
G1 X6.7335 Y9.0015
G1 X6.7623 Y8.9554
G1 X6.7714 Y8.9023
G1 X6.76 Y8.8495
G1 X6.7292 Y8.8042
G1 X6.684 Y8.7735
G1 X6.6319 Y8.7622
G1 X6.5781 Y8.772
G1 X6.532 Y8.8002
G1 X6.4856 Y8.864
G1 X6.442 Y8.924
G3 X6.4081 Y8.9558 I-0.1011 J-0.0735
G1 X6.3449 Y8.9961
G3 X6.3012 Y9.0135 I-0.0672 J-0.1054
G1 X6.2271 Y9.0277
G3 X6.2036 Y9.0299 I-0.0235 J-0.1228
G1 X1.8812 Y9.0299
G3 X1.7562 Y8.9049 I0 J-0.125
G1 X1.7562 Y7.5702
G3 X1.7565 Y7.5613 I0.125 J0
G1 X1.7783 Y7.2551
G3 X1.7807 Y7.2379 I0.1247 J0.0089
G1 X1.845 Y6.9371
G3 X1.8498 Y6.9205 I0.1222 J0.0261
G1 X1.9555 Y6.6306
G3 X1.9627 Y6.6145 I0.1174 J0.0428
G1 X2.1076 Y6.3432
G3 X2.1168 Y6.3286 I0.1103 J0.0589
G1 X2.2977 Y6.0801
G3 X2.3093 Y6.0664 I0.1011 J0.0736
G1 X2.5239 Y5.8463
G3 X2.5368 Y5.8348 I0.0895 J0.0873
G1 X2.7798 Y5.6463
G3 X2.7944 Y5.6366 I0.0766 J0.0988
G1 X3.0613 Y5.484
G3 X3.077 Y5.4765 I0.062 J0.1085
G1 X3.3635 Y5.3621
G3 X3.3806 Y5.3566 I0.0463 J0.1161
G1 X3.6792 Y5.2847
G3 X3.696 Y5.2819 I0.0293 J0.1215
G1 X4.0022 Y5.2514
G3 X4.0104 Y5.2508 I0.0124 J0.1244
G1 X4.852 Y5.2225
G1 X5.7126 Y5.1844
G1 X6.5906 Y5.1365
G1 X7.302 Y5.0906
G1 Z-0.25 F30
G1 X7.4828 Y5.0789 F25
G1 X7.8007 Y5.0552
G1 Z-0.45 F30
G1 X8.3881 Y5.0114 F25
G1 X9.3041 Y4.9331
G1 X10.2267 Y4.8428
G1 X11.1546 Y4.7427
G1 X12.3241 Y4.6002
G1 X13.4934 Y4.4392
G1 X14.6571 Y4.2587
G1 X15.8109 Y4.0586
G1 X16.9483 Y3.8389
G1 X17.7493 Y3.6694
G1 X18.5382 Y3.489
G1 X19.3141 Y3.2967
G1 X20.0734 Y3.0946
G1 X20.8162 Y2.8807
G1 X20.9052 Y2.853
G1 Z-0.25 F30
G1 X21.3827 Y2.7046 F25
G1 Z-0.45 F30
G1 X21.5393 Y2.656 F25
G1 X22.2413 Y2.4194
G1 X22.8649 Y2.1916
G1 X23.4687 Y1.9543
G1 X24.0494 Y1.7061
G1 X24.6082 Y1.4484
G1 X25.1426 Y1.1802
G1 X25.6526 Y0.9002
G3 X25.6742 Y0.8908 I0.0602 J0.1096
G1 X25.7515 Y0.8658
G3 X25.8019 Y0.8602 I0.0385 J0.1189
G1 X25.8826 Y0.8679
G3 X25.9307 Y0.8826 I-0.0118 J0.1244
G1 X26.0026 Y0.9218
G3 X26.0427 Y0.9566 I-0.0599 J0.1097
G1 X26.0917 Y1.0219
G3 X26.113 Y1.0666 I-0.1 J0.075
G1 X26.1326 Y1.1451
G3 X26.1363 Y1.1754 I-0.1213 J0.0303
G3 X26.1347 Y1.1954 I-0.125 J0
G1 X26.1216 Y1.276
G3 X26.103 Y1.3241 I-0.1234 J-0.02
G1 X26.0584 Y1.3927
G3 X26.042 Y1.413 I-0.1048 J-0.0681
G1 X22.26 Y5.195
G3 X22.2409 Y5.2106 I-0.0884 J-0.0884
G1 X22.1788 Y5.252
G3 X22.1368 Y5.27 I-0.0693 J-0.104
G1 X22.0638 Y5.2863
G3 X22.0165 Y5.2878 I-0.0273 J-0.122
G1 X21.9431 Y5.2759
G1 X21.8658 Y5.2642
G1 X21.813 Y5.2763
G1 X21.7685 Y5.3081
G1 X21.7382 Y5.3542
G1 X21.728 Y5.4064
G1 X21.7383 Y5.4595
G1 X21.7685 Y5.5055
G1 X21.813 Y5.5373
G1 X21.8652 Y5.5492
G1 X21.9425 Y5.5367
G3 X21.9442 Y5.5364 I0.0199 J0.1234
G1 X22.0183 Y5.5256
G3 X22.0638 Y5.5272 I0.0182 J0.1237
G1 X22.1368 Y5.5436
G3 X22.1788 Y5.5616 I-0.0273 J0.122
G1 X22.2409 Y5.603
G3 X22.26 Y5.6186 I-0.0693 J0.104
G1 Z-0.6 F30
G1 X26.8548 Y10.2134 F25
G3 X26.8729 Y10.2363 I-0.0884 J0.0884
G1 X26.9198 Y10.3126
G3 X26.9375 Y10.3644 I-0.1065 J0.0655
G1 X26.9473 Y10.4538
G3 X26.9481 Y10.4674 I-0.1243 J0.0136
G3 X26.9406 Y10.5101 I-0.125 J0
G1 X26.9101 Y10.594
G3 X26.8802 Y10.6405 I-0.1175 J-0.0427
G1 X26.8159 Y10.7036
G3 X26.7678 Y10.7331 I-0.0876 J-0.0892
G1 X26.6828 Y10.7614
G3 X26.6252 Y10.7665 I-0.0395 J-0.1186
G1 X26.5358 Y10.7534
G3 X26.5127 Y10.7478 I0.0181 J-0.1237
G1 X26.1655 Y10.6266
G1 X25.7956 Y10.5148
G1 X25.4002 Y10.4124
G1 X24.9801 Y10.3185
G1 X24.5378 Y10.233
G1 X24.0731 Y10.1551
G1 X23.7519 Y10.1082
G1 Z-0.25 F30
G1 X23.5899 Y10.0846 F25
G1 X23.2561 Y10.0433
G1 Z-0.6 F30
G1 X23.0291 Y10.0152 F25
G1 X22.4462 Y9.9544
G1 X21.8444 Y9.9012
G1 X21.2252 Y9.8556
G1 X20.5892 Y9.8175
G1 X19.9402 Y9.786
G1 X19.2789 Y9.761
G1 X18.6056 Y9.7414
G1 X17.513 Y9.7207
G1 X16.4038 Y9.7109
G1 X15.2878 Y9.7098
G1 X14.1708 Y9.7164
G1 X13.0609 Y9.7273
G1 X12.0368 Y9.7403
G1 X12.0061 Y9.7408
G1 Z-0.25 F30
G1 X11.5061 Y9.7478 F25
G1 Z-0.6 F30
G1 X11.0311 Y9.7545 F25
G1 X10.0501 Y9.7676
G1 X9.4408 Y9.7741
G1 X8.8446 Y9.7796
G1 X8.2639 Y9.7839
G1 X8.2632 Y9.7839
G1 X7.6994 Y9.785
G1 X7.1546 Y9.7839
G1 X7.1538 Y9.7839
G1 X6.6275 Y9.7796
G3 X6.5035 Y9.6546 I0.001 J-0.125
G1 X6.5035 Y9.3299
G3 X6.5058 Y9.3061 I0.125 J0
G1 X6.52 Y9.2331
G3 X6.5373 Y9.1897 I0.1227 J0.0238
G1 X6.5776 Y9.1265
G3 X6.6092 Y9.0928 I0.1054 J0.0672
G1 X6.6699 Y9.0484
G1 X6.7335 Y9.0015
G1 X6.7623 Y8.9554
G1 X6.7714 Y8.9023
G1 X6.76 Y8.8495
G1 X6.7292 Y8.8042
G1 X6.684 Y8.7735
G1 X6.6319 Y8.7622
G1 X6.5781 Y8.772
G1 X6.532 Y8.8002
G1 X6.4856 Y8.864
G1 X6.442 Y8.924
G3 X6.4081 Y8.9558 I-0.1011 J-0.0735
G1 X6.3449 Y8.9961
G3 X6.3012 Y9.0135 I-0.0672 J-0.1054
G1 X6.2271 Y9.0277
G3 X6.2036 Y9.0299 I-0.0235 J-0.1228
G1 X1.8812 Y9.0299
G3 X1.7562 Y8.9049 I0 J-0.125
G1 X1.7562 Y7.5702
G3 X1.7565 Y7.5613 I0.125 J0
G1 X1.7783 Y7.2551
G3 X1.7807 Y7.2379 I0.1247 J0.0089
G1 X1.845 Y6.9371
G3 X1.8498 Y6.9205 I0.1222 J0.0261
G1 X1.9555 Y6.6306
G3 X1.9627 Y6.6145 I0.1174 J0.0428
G1 X2.1076 Y6.3432
G3 X2.1168 Y6.3286 I0.1103 J0.0589
G1 X2.2977 Y6.0801
G3 X2.3093 Y6.0664 I0.1011 J0.0736
G1 X2.5239 Y5.8463
G3 X2.5368 Y5.8348 I0.0895 J0.0873
G1 X2.7798 Y5.6463
G3 X2.7944 Y5.6366 I0.0766 J0.0988
G1 X3.0613 Y5.484
G3 X3.077 Y5.4765 I0.062 J0.1085
G1 X3.3635 Y5.3621
G3 X3.3806 Y5.3566 I0.0463 J0.1161
G1 X3.6792 Y5.2847
G3 X3.696 Y5.2819 I0.0293 J0.1215
G1 X4.0022 Y5.2514
G3 X4.0104 Y5.2508 I0.0124 J0.1244
G1 X4.852 Y5.2225
G1 X5.7126 Y5.1844
G1 X6.5906 Y5.1365
G1 X7.302 Y5.0906
G1 Z-0.25 F30
G1 X7.4828 Y5.0789 F25
G1 X7.8007 Y5.0552
G1 Z-0.6 F30
G1 X8.3881 Y5.0114 F25
G1 X9.3041 Y4.9331
G1 X10.2267 Y4.8428
G1 X11.1546 Y4.7427
G1 X12.3241 Y4.6002
G1 X13.4934 Y4.4392
G1 X14.6571 Y4.2587
G1 X15.8109 Y4.0586
G1 X16.9483 Y3.8389
G1 X17.7493 Y3.6694
G1 X18.5382 Y3.489
G1 X19.3141 Y3.2967
G1 X20.0734 Y3.0946
G1 X20.8162 Y2.8807
G1 X20.9052 Y2.853
G1 Z-0.25 F30
G1 X21.3827 Y2.7046 F25
G1 Z-0.6 F30
G1 X21.5393 Y2.656 F25
G1 X22.2413 Y2.4194
G1 X22.8649 Y2.1916
G1 X23.4687 Y1.9543
G1 X24.0494 Y1.7061
G1 X24.6082 Y1.4484
G1 X25.1426 Y1.1802
G1 X25.6526 Y0.9002
G3 X25.6742 Y0.8908 I0.0602 J0.1096
G1 X25.7515 Y0.8658
G3 X25.8019 Y0.8602 I0.0385 J0.1189
G1 X25.8826 Y0.8679
G3 X25.9307 Y0.8826 I-0.0118 J0.1244
G1 X26.0026 Y0.9218
G3 X26.0427 Y0.9566 I-0.0599 J0.1097
G1 X26.0917 Y1.0219
G3 X26.113 Y1.0666 I-0.1 J0.075
G1 X26.1326 Y1.1451
G3 X26.1363 Y1.1754 I-0.1213 J0.0303
G3 X26.1347 Y1.1954 I-0.125 J0
G1 X26.1216 Y1.276
G3 X26.103 Y1.3241 I-0.1234 J-0.02
G1 X26.0584 Y1.3927
G3 X26.042 Y1.413 I-0.1048 J-0.0681
G1 X22.26 Y5.195
G3 X22.2409 Y5.2106 I-0.0884 J-0.0884
G1 X22.1788 Y5.252
G3 X22.1368 Y5.27 I-0.0693 J-0.104
G1 X22.0638 Y5.2863
G3 X22.0165 Y5.2878 I-0.0273 J-0.122
G1 X21.9431 Y5.2759
G1 X21.8658 Y5.2642
G1 X21.813 Y5.2763
G1 X21.7685 Y5.3081
G1 X21.7382 Y5.3542
G1 X21.728 Y5.4064
G1 X21.7383 Y5.4595
G1 X21.7685 Y5.5055
G1 X21.813 Y5.5373
G1 X21.8652 Y5.5492
G1 X21.9425 Y5.5367
G3 X21.9442 Y5.5364 I0.0199 J0.1234
G1 X22.0183 Y5.5256
G3 X22.0638 Y5.5272 I0.0182 J0.1237
G1 X22.1368 Y5.5436
G3 X22.1788 Y5.5616 I-0.0273 J0.122
G1 X22.2409 Y5.603
G3 X22.26 Y5.6186 I-0.0693 J0.104
G1 Z-0.75 F30
G1 X26.8548 Y10.2134 F25
G3 X26.8729 Y10.2363 I-0.0884 J0.0884
G1 X26.9198 Y10.3126
G3 X26.9375 Y10.3644 I-0.1065 J0.0655
G1 X26.9473 Y10.4538
G3 X26.9481 Y10.4674 I-0.1243 J0.0136
G3 X26.9406 Y10.5101 I-0.125 J0
G1 X26.9101 Y10.594
G3 X26.8802 Y10.6405 I-0.1175 J-0.0427
G1 X26.8159 Y10.7036
G3 X26.7678 Y10.7331 I-0.0876 J-0.0892
G1 X26.6828 Y10.7614
G3 X26.6252 Y10.7665 I-0.0395 J-0.1186
G1 X26.5358 Y10.7534
G3 X26.5127 Y10.7478 I0.0181 J-0.1237
G1 X26.1655 Y10.6266
G1 X25.7956 Y10.5148
G1 X25.4002 Y10.4124
G1 X24.9801 Y10.3185
G1 X24.5378 Y10.233
G1 X24.0731 Y10.1551
G1 X23.7519 Y10.1082
G1 Z-0.25 F30
G1 X23.5899 Y10.0846 F25
G1 X23.2561 Y10.0433
G1 Z-0.75 F30
G1 X23.0291 Y10.0152 F25
G1 X22.4462 Y9.9544
G1 X21.8444 Y9.9012
G1 X21.2252 Y9.8556
G1 X20.5892 Y9.8175
G1 X19.9402 Y9.786
G1 X19.2789 Y9.761
G1 X18.6056 Y9.7414
G1 X17.513 Y9.7207
G1 X16.4038 Y9.7109
G1 X15.2878 Y9.7098
G1 X14.1708 Y9.7164
G1 X13.0609 Y9.7273
G1 X12.0368 Y9.7403
G1 X12.0061 Y9.7408
G1 Z-0.25 F30
G1 X11.5061 Y9.7478 F25
G1 Z-0.75 F30
G1 X11.0311 Y9.7545 F25
G1 X10.0501 Y9.7676
G1 X9.4408 Y9.7741
G1 X8.8446 Y9.7796
G1 X8.2639 Y9.7839
G1 X8.2632 Y9.7839
G1 X7.6994 Y9.785
G1 X7.1546 Y9.7839
G1 X7.1538 Y9.7839
G1 X6.6275 Y9.7796
G3 X6.5035 Y9.6546 I0.001 J-0.125
G1 X6.5035 Y9.3299
G3 X6.5058 Y9.3061 I0.125 J0
G1 X6.52 Y9.2331
G3 X6.5373 Y9.1897 I0.1227 J0.0238
G1 X6.5776 Y9.1265
G3 X6.6092 Y9.0928 I0.1054 J0.0672
G1 X6.6699 Y9.0484
G1 X6.7335 Y9.0015
G1 X6.7623 Y8.9554
G1 X6.7714 Y8.9023
G1 X6.76 Y8.8495
G1 X6.7292 Y8.8042
G1 X6.684 Y8.7735
G1 X6.6319 Y8.7622
G1 X6.5781 Y8.772
G1 X6.532 Y8.8002
G1 X6.4856 Y8.864
G1 X6.442 Y8.924
G3 X6.4081 Y8.9558 I-0.1011 J-0.0735
G1 X6.3449 Y8.9961
G3 X6.3012 Y9.0135 I-0.0672 J-0.1054
G1 X6.2271 Y9.0277
G3 X6.2036 Y9.0299 I-0.0235 J-0.1228
G1 X1.8812 Y9.0299
G3 X1.7562 Y8.9049 I0 J-0.125
G1 X1.7562 Y7.5702
G3 X1.7565 Y7.5613 I0.125 J0
G1 X1.7783 Y7.2551
G3 X1.7807 Y7.2379 I0.1247 J0.0089
G1 X1.845 Y6.9371
G3 X1.8498 Y6.9205 I0.1222 J0.0261
G1 X1.9555 Y6.6306
G3 X1.9627 Y6.6145 I0.1174 J0.0428
G1 X2.1076 Y6.3432
G3 X2.1168 Y6.3286 I0.1103 J0.0589
G1 X2.2977 Y6.0801
G3 X2.3093 Y6.0664 I0.1011 J0.0736
G1 X2.5239 Y5.8463
G3 X2.5368 Y5.8348 I0.0895 J0.0873
G1 X2.7798 Y5.6463
G3 X2.7944 Y5.6366 I0.0766 J0.0988
G1 X3.0613 Y5.484
G3 X3.077 Y5.4765 I0.062 J0.1085
G1 X3.3635 Y5.3621
G3 X3.3806 Y5.3566 I0.0463 J0.1161
G1 X3.6792 Y5.2847
G3 X3.696 Y5.2819 I0.0293 J0.1215
G1 X4.0022 Y5.2514
G3 X4.0104 Y5.2508 I0.0124 J0.1244
G1 X4.852 Y5.2225
G1 X5.7126 Y5.1844
G1 X6.5906 Y5.1365
G1 X7.302 Y5.0906
G1 Z-0.25 F30
G1 X7.4828 Y5.0789 F25
G1 X7.8007 Y5.0552
G1 Z-0.75 F30
G1 X8.3881 Y5.0114 F25
G1 X9.3041 Y4.9331
G1 X10.2267 Y4.8428
G1 X11.1546 Y4.7427
G1 X12.3241 Y4.6002
G1 X13.4934 Y4.4392
G1 X14.6571 Y4.2587
G1 X15.8109 Y4.0586
G1 X16.9483 Y3.8389
G1 X17.7493 Y3.6694
G1 X18.5382 Y3.489
G1 X19.3141 Y3.2967
G1 X20.0734 Y3.0946
G1 X20.8162 Y2.8807
G1 X20.9052 Y2.853
G1 Z-0.25 F30
G1 X21.3827 Y2.7046 F25
G1 Z-0.75 F30
G1 X21.5393 Y2.656 F25
G1 X22.2413 Y2.4194
G1 X22.8649 Y2.1916
G1 X23.4687 Y1.9543
G1 X24.0494 Y1.7061
G1 X24.6082 Y1.4484
G1 X25.1426 Y1.1802
G1 X25.6526 Y0.9002
G3 X25.6742 Y0.8908 I0.0602 J0.1096
G1 X25.7515 Y0.8658
G3 X25.8019 Y0.8602 I0.0385 J0.1189
G1 X25.8826 Y0.8679
G3 X25.9307 Y0.8826 I-0.0118 J0.1244
G1 X26.0026 Y0.9218
G3 X26.0427 Y0.9566 I-0.0599 J0.1097
G1 X26.0917 Y1.0219
G3 X26.113 Y1.0666 I-0.1 J0.075
G1 X26.1326 Y1.1451
G3 X26.1363 Y1.1754 I-0.1213 J0.0303
G3 X26.1347 Y1.1954 I-0.125 J0
G1 X26.1216 Y1.276
G3 X26.103 Y1.3241 I-0.1234 J-0.02
G1 X26.0584 Y1.3927
G3 X26.042 Y1.413 I-0.1048 J-0.0681
G1 X22.26 Y5.195
G3 X22.2409 Y5.2106 I-0.0884 J-0.0884
G1 X22.1788 Y5.252
G3 X22.1368 Y5.27 I-0.0693 J-0.104
G1 X22.0638 Y5.2863
G3 X22.0165 Y5.2878 I-0.0273 J-0.122
G1 X21.9431 Y5.2759
G1 X21.8658 Y5.2642
G1 X21.813 Y5.2763
G1 X21.7685 Y5.3081
G1 X21.7382 Y5.3542
G1 X21.728 Y5.4064
G1 X21.7383 Y5.4595
G1 X21.7685 Y5.5055
G1 X21.813 Y5.5373
G1 X21.8652 Y5.5492
G1 X21.9425 Y5.5367
G3 X21.9442 Y5.5364 I0.0199 J0.1234
G1 X22.0183 Y5.5256
G3 X22.0638 Y5.5272 I0.0182 J0.1237
G1 X22.1368 Y5.5436
G3 X22.1788 Y5.5616 I-0.0273 J0.122
G1 X22.2409 Y5.603
G3 X22.26 Y5.6186 I-0.0693 J0.104
G1 Z-0.85 F30
G1 X26.8548 Y10.2134 F25
G3 X26.8729 Y10.2363 I-0.0884 J0.0884
G1 X26.9198 Y10.3126
G3 X26.9375 Y10.3644 I-0.1065 J0.0655
G1 X26.9473 Y10.4538
G3 X26.9481 Y10.4674 I-0.1243 J0.0136
G3 X26.9406 Y10.5101 I-0.125 J0
G1 X26.9101 Y10.594
G3 X26.8802 Y10.6405 I-0.1175 J-0.0427
G1 X26.8159 Y10.7036
G3 X26.7678 Y10.7331 I-0.0876 J-0.0892
G1 X26.6828 Y10.7614
G3 X26.6252 Y10.7665 I-0.0395 J-0.1186
G1 X26.5358 Y10.7534
G3 X26.5127 Y10.7478 I0.0181 J-0.1237
G1 X26.1655 Y10.6266
G1 X25.7956 Y10.5148
G1 X25.4002 Y10.4124
G1 X24.9801 Y10.3185
G1 X24.5378 Y10.233
G1 X24.0731 Y10.1551
G1 X23.7519 Y10.1082
G1 Z-0.25 F30
G1 X23.5899 Y10.0846 F25
G1 X23.2561 Y10.0433
G1 Z-0.85 F30
G1 X23.0291 Y10.0152 F25
G1 X22.4462 Y9.9544
G1 X21.8444 Y9.9012
G1 X21.2252 Y9.8556
G1 X20.5892 Y9.8175
G1 X19.9402 Y9.786
G1 X19.2789 Y9.761
G1 X18.6056 Y9.7414
G1 X17.513 Y9.7207
G1 X16.4038 Y9.7109
G1 X15.2878 Y9.7098
G1 X14.1708 Y9.7164
G1 X13.0609 Y9.7273
G1 X12.0368 Y9.7403
G1 X12.0061 Y9.7408
G1 Z-0.25 F30
G1 X11.5061 Y9.7478 F25
G1 Z-0.85 F30
G1 X11.0311 Y9.7545 F25
G1 X10.0501 Y9.7676
G1 X9.4408 Y9.7741
G1 X8.8446 Y9.7796
G1 X8.2639 Y9.7839
G1 X8.2632 Y9.7839
G1 X7.6994 Y9.785
G1 X7.1546 Y9.7839
G1 X7.1538 Y9.7839
G1 X6.6275 Y9.7796
G3 X6.5035 Y9.6546 I0.001 J-0.125
G1 X6.5035 Y9.3299
G3 X6.5058 Y9.3061 I0.125 J0
G1 X6.52 Y9.2331
G3 X6.5373 Y9.1897 I0.1227 J0.0238
G1 X6.5776 Y9.1265
G3 X6.6092 Y9.0928 I0.1054 J0.0672
G1 X6.6699 Y9.0484
G1 X6.7335 Y9.0015
G1 X6.7623 Y8.9554
G1 X6.7714 Y8.9023
G1 X6.76 Y8.8495
G1 X6.7292 Y8.8042
G1 X6.684 Y8.7735
G1 X6.6319 Y8.7622
G1 X6.5781 Y8.772
G1 X6.532 Y8.8002
G1 X6.4856 Y8.864
G1 X6.442 Y8.924
G3 X6.4081 Y8.9558 I-0.1011 J-0.0735
G1 X6.3449 Y8.9961
G3 X6.3012 Y9.0135 I-0.0672 J-0.1054
G1 X6.2271 Y9.0277
G3 X6.2036 Y9.0299 I-0.0235 J-0.1228
G1 X1.8812 Y9.0299
G3 X1.7562 Y8.9049 I0 J-0.125
G1 X1.7562 Y7.5702
G3 X1.7565 Y7.5613 I0.125 J0
G1 X1.7783 Y7.2551
G3 X1.7807 Y7.2379 I0.1247 J0.0089
G1 X1.845 Y6.9371
G3 X1.8498 Y6.9205 I0.1222 J0.0261
G1 X1.9555 Y6.6306
G3 X1.9627 Y6.6145 I0.1174 J0.0428
G1 X2.1076 Y6.3432
G3 X2.1168 Y6.3286 I0.1103 J0.0589
G1 X2.2977 Y6.0801
G3 X2.3093 Y6.0664 I0.1011 J0.0736
G1 X2.5239 Y5.8463
G3 X2.5368 Y5.8348 I0.0895 J0.0873
G1 X2.7798 Y5.6463
G3 X2.7944 Y5.6366 I0.0766 J0.0988
G1 X3.0613 Y5.484
G3 X3.077 Y5.4765 I0.062 J0.1085
G1 X3.3635 Y5.3621
G3 X3.3806 Y5.3566 I0.0463 J0.1161
G1 X3.6792 Y5.2847
G3 X3.696 Y5.2819 I0.0293 J0.1215
G1 X4.0022 Y5.2514
G3 X4.0104 Y5.2508 I0.0124 J0.1244
G1 X4.852 Y5.2225
G1 X5.7126 Y5.1844
G1 X6.5906 Y5.1365
G1 X7.302 Y5.0906
G1 Z-0.25 F30
G1 X7.4828 Y5.0789 F25
G1 X7.8007 Y5.0552
G1 Z-0.85 F30
G1 X8.3881 Y5.0114 F25
G1 X9.3041 Y4.9331
G1 X10.2267 Y4.8428
G1 X11.1546 Y4.7427
G1 X12.3241 Y4.6002
G1 X13.4934 Y4.4392
G1 X14.6571 Y4.2587
G1 X15.8109 Y4.0586
G1 X16.9483 Y3.8389
G1 X17.7493 Y3.6694
G1 X18.5382 Y3.489
G1 X19.3141 Y3.2967
G1 X20.0734 Y3.0946
G1 X20.8162 Y2.8807
G1 X20.9052 Y2.853
G1 Z-0.25 F30
G1 X21.3827 Y2.7046 F25
G1 Z-0.85 F30
G1 X21.5393 Y2.656 F25
G1 X22.2413 Y2.4194
G1 X22.8649 Y2.1916
G1 X23.4687 Y1.9543
G1 X24.0494 Y1.7061
G1 X24.6082 Y1.4484
G1 X25.1426 Y1.1802
G1 X25.6526 Y0.9002
G3 X25.6742 Y0.8908 I0.0602 J0.1096
G1 X25.7515 Y0.8658
G3 X25.8019 Y0.8602 I0.0385 J0.1189
G1 X25.8826 Y0.8679
G3 X25.9307 Y0.8826 I-0.0118 J0.1244
G1 X26.0026 Y0.9218
G3 X26.0427 Y0.9566 I-0.0599 J0.1097
G1 X26.0917 Y1.0219
G3 X26.113 Y1.0666 I-0.1 J0.075
G1 X26.1326 Y1.1451
G3 X26.1363 Y1.1754 I-0.1213 J0.0303
G3 X26.1347 Y1.1954 I-0.125 J0
G1 X26.1216 Y1.276
G3 X26.103 Y1.3241 I-0.1234 J-0.02
G1 X26.0584 Y1.3927
G3 X26.042 Y1.413 I-0.1048 J-0.0681
G1 X22.26 Y5.195
G3 X22.2409 Y5.2106 I-0.0884 J-0.0884
G1 X22.1788 Y5.252
G3 X22.1368 Y5.27 I-0.0693 J-0.104
G1 X22.0638 Y5.2863
G3 X22.0165 Y5.2878 I-0.0273 J-0.122
G1 X21.9431 Y5.2759
G1 X21.8658 Y5.2642
G1 X21.813 Y5.2763
G1 X21.7685 Y5.3081
G1 X21.7382 Y5.3542
G1 X21.728 Y5.4064
G1 X21.7383 Y5.4595
G1 X21.7685 Y5.5055
G1 X21.813 Y5.5373
G1 X21.8652 Y5.5492
G1 X21.9425 Y5.5367
G3 X21.9442 Y5.5364 I0.0199 J0.1234
G1 X22.0183 Y5.5256
G3 X22.0638 Y5.5272 I0.0182 J0.1237
G1 X22.1368 Y5.5436
G3 X22.1788 Y5.5616 I-0.0273 J0.122
G1 X22.2409 Y5.603
G3 X22.26 Y5.6186 I-0.0693 J0.104

(profile 3)
G0 Z0.3
G0 X10.594 Y12.4271
G1 Z-0.15 F30
G1 X4.0953 Y14.8185 F25
G1 X3.6261 Y14.9912
G1 X2.2016 Y15.5154
G3 X2.0334 Y15.3981 I-0.0432 J-0.1173
G1 X2.0334 Y10.9914
G3 X2.1584 Y10.8664 I0.125 J0
G1 X3.7145 Y10.8664
G1 X4.2145 Y10.8664
G1 X10.0656 Y10.8664
G3 X10.183 Y10.9482 I0 J0.125
G1 X10.3419 Y11.3801
G1 X10.5146 Y11.8493
G1 X10.6681 Y12.2666
G3 X10.6758 Y12.3098 I-0.1173 J0.0432
G3 X10.594 Y12.4271 I-0.125 J0
G1 Z-0.3 F30
G1 X4.0953 Y14.8185 F25
G1 Z-0.25 F30
G1 X3.6261 Y14.9912 F25
G1 Z-0.3 F30
G1 X2.2016 Y15.5154 F25
G3 X2.0334 Y15.3981 I-0.0432 J-0.1173
G1 X2.0334 Y10.9914
G3 X2.1584 Y10.8664 I0.125 J0
G1 X3.7145 Y10.8664
G1 Z-0.25 F30
G1 X4.2145 Y10.8664 F25
G1 Z-0.3 F30
G1 X10.0656 Y10.8664 F25
G3 X10.183 Y10.9482 I0 J0.125
G1 X10.3419 Y11.3801
G1 Z-0.25 F30
G1 X10.5146 Y11.8493 F25
G1 Z-0.3 F30
G1 X10.6681 Y12.2666 F25
G3 X10.6758 Y12.3098 I-0.1173 J0.0432
G3 X10.594 Y12.4271 I-0.125 J0
G1 Z-0.45 F30
G1 X4.0953 Y14.8185 F25
G1 Z-0.25 F30
G1 X3.6261 Y14.9912 F25
G1 Z-0.45 F30
G1 X2.2016 Y15.5154 F25
G3 X2.0334 Y15.3981 I-0.0432 J-0.1173
G1 X2.0334 Y10.9914
G3 X2.1584 Y10.8664 I0.125 J0
G1 X3.7145 Y10.8664
G1 Z-0.25 F30
G1 X4.2145 Y10.8664 F25
G1 Z-0.45 F30
G1 X10.0656 Y10.8664 F25
G3 X10.183 Y10.9482 I0 J0.125
G1 X10.3419 Y11.3801
G1 Z-0.25 F30
G1 X10.5146 Y11.8493 F25
G1 Z-0.45 F30
G1 X10.6681 Y12.2666 F25
G3 X10.6758 Y12.3098 I-0.1173 J0.0432
G3 X10.594 Y12.4271 I-0.125 J0
G1 Z-0.6 F30
G1 X4.0953 Y14.8185 F25
G1 Z-0.25 F30
G1 X3.6261 Y14.9912 F25
G1 Z-0.6 F30
G1 X2.2016 Y15.5154 F25
G3 X2.0334 Y15.3981 I-0.0432 J-0.1173
G1 X2.0334 Y10.9914
G3 X2.1584 Y10.8664 I0.125 J0
G1 X3.7145 Y10.8664
G1 Z-0.25 F30
G1 X4.2145 Y10.8664 F25
G1 Z-0.6 F30
G1 X10.0656 Y10.8664 F25
G3 X10.183 Y10.9482 I0 J0.125
G1 X10.3419 Y11.3801
G1 Z-0.25 F30
G1 X10.5146 Y11.8493 F25
G1 Z-0.6 F30
G1 X10.6681 Y12.2666 F25
G3 X10.6758 Y12.3098 I-0.1173 J0.0432
G3 X10.594 Y12.4271 I-0.125 J0
G1 Z-0.75 F30
G1 X4.0953 Y14.8185 F25
G1 Z-0.25 F30
G1 X3.6261 Y14.9912 F25
G1 Z-0.75 F30
G1 X2.2016 Y15.5154 F25
G3 X2.0334 Y15.3981 I-0.0432 J-0.1173
G1 X2.0334 Y10.9914
G3 X2.1584 Y10.8664 I0.125 J0
G1 X3.7145 Y10.8664
G1 Z-0.25 F30
G1 X4.2145 Y10.8664 F25
G1 Z-0.75 F30
G1 X10.0656 Y10.8664 F25
G3 X10.183 Y10.9482 I0 J0.125
G1 X10.3419 Y11.3801
G1 Z-0.25 F30
G1 X10.5146 Y11.8493 F25
G1 Z-0.75 F30
G1 X10.6681 Y12.2666 F25
G3 X10.6758 Y12.3098 I-0.1173 J0.0432
G3 X10.594 Y12.4271 I-0.125 J0
G1 Z-0.85 F30
G1 X4.0953 Y14.8185 F25
G1 Z-0.25 F30
G1 X3.6261 Y14.9912 F25
G1 Z-0.85 F30
G1 X2.2016 Y15.5154 F25
G3 X2.0334 Y15.3981 I-0.0432 J-0.1173
G1 X2.0334 Y10.9914
G3 X2.1584 Y10.8664 I0.125 J0
G1 X3.7145 Y10.8664
G1 Z-0.25 F30
G1 X4.2145 Y10.8664 F25
G1 Z-0.85 F30
G1 X10.0656 Y10.8664 F25
G3 X10.183 Y10.9482 I0 J0.125
G1 X10.3419 Y11.3801
G1 Z-0.25 F30
G1 X10.5146 Y11.8493 F25
G1 Z-0.85 F30
G1 X10.6681 Y12.2666 F25
G3 X10.6758 Y12.3098 I-0.1173 J0.0432
G3 X10.594 Y12.4271 I-0.125 J0

(profile 4)
G0 Z0.3
G0 X4.7378 Y15.0047
G1 Z-0.15 F30
G1 X9.9602 Y13.0829 F25
G1 X10.4295 Y12.9102
G1 X13.1302 Y11.9164
G3 X13.2984 Y12.0337 I0.0432 J0.1173
G1 X13.2984 Y16.4404
G3 X13.1734 Y16.5654 I-0.125 J0
G1 X12.7193 Y16.5654
G1 X12.2193 Y16.5654
G1 X5.2661 Y16.5654
G3 X5.1488 Y16.4836 I0 J-0.125
G1 X5.0061 Y16.0957
G1 X4.8334 Y15.6264
G1 X4.6637 Y15.1651
G3 X4.656 Y15.122 I0.1173 J-0.0432
G3 X4.7378 Y15.0047 I0.125 J0
G1 Z-0.3 F30
G1 X9.9602 Y13.0829 F25
G1 Z-0.25 F30
G1 X10.4295 Y12.9102 F25
G1 Z-0.3 F30
G1 X13.1302 Y11.9164 F25
G3 X13.2984 Y12.0337 I0.0432 J0.1173
G1 X13.2984 Y16.4404
G3 X13.1734 Y16.5654 I-0.125 J0
G1 X12.7193 Y16.5654
G1 Z-0.25 F30
G1 X12.2193 Y16.5654 F25
G1 Z-0.3 F30
G1 X5.2661 Y16.5654 F25
G3 X5.1488 Y16.4836 I0 J-0.125
G1 X5.0061 Y16.0957
G1 Z-0.25 F30
G1 X4.8334 Y15.6264 F25
G1 Z-0.3 F30
G1 X4.6637 Y15.1651 F25
G3 X4.656 Y15.122 I0.1173 J-0.0432
G3 X4.7378 Y15.0047 I0.125 J0
G1 Z-0.45 F30
G1 X9.9602 Y13.0829 F25
G1 Z-0.25 F30
G1 X10.4295 Y12.9102 F25
G1 Z-0.45 F30
G1 X13.1302 Y11.9164 F25
G3 X13.2984 Y12.0337 I0.0432 J0.1173
G1 X13.2984 Y16.4404
G3 X13.1734 Y16.5654 I-0.125 J0
G1 X12.7193 Y16.5654
G1 Z-0.25 F30
G1 X12.2193 Y16.5654 F25
G1 Z-0.45 F30
G1 X5.2661 Y16.5654 F25
G3 X5.1488 Y16.4836 I0 J-0.125
G1 X5.0061 Y16.0957
G1 Z-0.25 F30
G1 X4.8334 Y15.6264 F25
G1 Z-0.45 F30
G1 X4.6637 Y15.1651 F25
G3 X4.656 Y15.122 I0.1173 J-0.0432
G3 X4.7378 Y15.0047 I0.125 J0
G1 Z-0.6 F30
G1 X9.9602 Y13.0829 F25
G1 Z-0.25 F30
G1 X10.4295 Y12.9102 F25
G1 Z-0.6 F30
G1 X13.1302 Y11.9164 F25
G3 X13.2984 Y12.0337 I0.0432 J0.1173
G1 X13.2984 Y16.4404
G3 X13.1734 Y16.5654 I-0.125 J0
G1 X12.7193 Y16.5654
G1 Z-0.25 F30
G1 X12.2193 Y16.5654 F25
G1 Z-0.6 F30
G1 X5.2661 Y16.5654 F25
G3 X5.1488 Y16.4836 I0 J-0.125
G1 X5.0061 Y16.0957
G1 Z-0.25 F30
G1 X4.8334 Y15.6264 F25
G1 Z-0.6 F30
G1 X4.6637 Y15.1651 F25
G3 X4.656 Y15.122 I0.1173 J-0.0432
G3 X4.7378 Y15.0047 I0.125 J0
G1 Z-0.75 F30
G1 X9.9602 Y13.0829 F25
G1 Z-0.25 F30
G1 X10.4295 Y12.9102 F25
G1 Z-0.75 F30
G1 X13.1302 Y11.9164 F25
G3 X13.2984 Y12.0337 I0.0432 J0.1173
G1 X13.2984 Y16.4404
G3 X13.1734 Y16.5654 I-0.125 J0
G1 X12.7193 Y16.5654
G1 Z-0.25 F30
G1 X12.2193 Y16.5654 F25
G1 Z-0.75 F30
G1 X5.2661 Y16.5654 F25
G3 X5.1488 Y16.4836 I0 J-0.125
G1 X5.0061 Y16.0957
G1 Z-0.25 F30
G1 X4.8334 Y15.6264 F25
G1 Z-0.75 F30
G1 X4.6637 Y15.1651 F25
G3 X4.656 Y15.122 I0.1173 J-0.0432
G3 X4.7378 Y15.0047 I0.125 J0
G1 Z-0.85 F30
G1 X9.9602 Y13.0829 F25
G1 Z-0.25 F30
G1 X10.4295 Y12.9102 F25
G1 Z-0.85 F30
G1 X13.1302 Y11.9164 F25
G3 X13.2984 Y12.0337 I0.0432 J0.1173
G1 X13.2984 Y16.4404
G3 X13.1734 Y16.5654 I-0.125 J0
G1 X12.7193 Y16.5654
G1 Z-0.25 F30
G1 X12.2193 Y16.5654 F25
G1 Z-0.85 F30
G1 X5.2661 Y16.5654 F25
G3 X5.1488 Y16.4836 I0 J-0.125
G1 X5.0061 Y16.0957
G1 Z-0.25 F30
G1 X4.8334 Y15.6264 F25
G1 Z-0.85 F30
G1 X4.6637 Y15.1651 F25
G3 X4.656 Y15.122 I0.1173 J-0.0432
G3 X4.7378 Y15.0047 I0.125 J0

(pocket 5)
G0 Z0.3
G0 X14.9317 Y11.5675
G1 Z-0.15 F30
G1 X14.9195 Y11.5923 F25
G1 X14.901 Y11.6093
G1 X14.8765 Y11.6188
G1 X14.8516 Y11.6188
G1 X14.8273 Y11.6093
G1 X14.8078 Y11.5916
G1 X14.7964 Y11.5686
G1 X14.794 Y11.5423
G1 X14.801 Y11.517
G1 X14.8162 Y11.4971
G1 X14.8383 Y11.4832
G1 X14.8642 Y11.4785
G1 X14.8891 Y11.4831
G1 X14.9114 Y11.4971
G1 X14.9273 Y11.5179
G1 X14.9342 Y11.5423
G1 X14.9317 Y11.5675
G1 X15.0294 Y11.5956 F25
G1 X15.0009 Y11.6533 F25
G1 X14.9548 Y11.6956
G1 X14.8953 Y11.7188
G1 X14.8326 Y11.7188
G1 X14.7737 Y11.6956
G1 X14.7266 Y11.6529
G1 X14.6985 Y11.5962
G1 X14.6928 Y11.5332
G1 X14.7097 Y11.4718
G1 X14.7477 Y11.422
G1 X14.8015 Y11.3882
G1 X14.8642 Y11.3769
G1 X14.926 Y11.3881
G1 X14.9799 Y11.422
G1 X15.0182 Y11.4723
G1 X15.0357 Y11.5332
G1 X15.0294 Y11.5956
G0 Z0.3
G0 X14.9317 Y11.5675
G1 Z-0.3 F30
G1 X14.9195 Y11.5923 F25
G1 X14.901 Y11.6093
G1 X14.8765 Y11.6188
G1 X14.8516 Y11.6188
G1 X14.8273 Y11.6093
G1 X14.8078 Y11.5916
G1 X14.7964 Y11.5686
G1 X14.794 Y11.5423
G1 X14.801 Y11.517
G1 X14.8162 Y11.4971
G1 X14.8383 Y11.4832
G1 X14.8642 Y11.4785
G1 X14.8891 Y11.4831
G1 X14.9114 Y11.4971
G1 X14.9273 Y11.5179
G1 X14.9342 Y11.5423
G1 X14.9317 Y11.5675
G1 X15.0294 Y11.5956 F25
G1 X15.0009 Y11.6533 F25
G1 X14.9548 Y11.6956
G1 X14.8953 Y11.7188
G1 X14.8326 Y11.7188
G1 X14.7737 Y11.6956
G1 X14.7266 Y11.6529
G1 X14.6985 Y11.5962
G1 X14.6928 Y11.5332
G1 X14.7097 Y11.4718
G1 X14.7477 Y11.422
G1 X14.8015 Y11.3882
G1 X14.8642 Y11.3769
G1 X14.926 Y11.3881
G1 X14.9799 Y11.422
G1 X15.0182 Y11.4723
G1 X15.0357 Y11.5332
G1 X15.0294 Y11.5956
G0 Z0.3
G0 X14.9317 Y11.5675
G1 Z-0.45 F30
G1 X14.9195 Y11.5923 F25
G1 X14.901 Y11.6093
G1 X14.8765 Y11.6188
G1 X14.8516 Y11.6188
G1 X14.8273 Y11.6093
G1 X14.8078 Y11.5916
G1 X14.7964 Y11.5686
G1 X14.794 Y11.5423
G1 X14.801 Y11.517
G1 X14.8162 Y11.4971
G1 X14.8383 Y11.4832
G1 X14.8642 Y11.4785
G1 X14.8891 Y11.4831
G1 X14.9114 Y11.4971
G1 X14.9273 Y11.5179
G1 X14.9342 Y11.5423
G1 X14.9317 Y11.5675
G1 X15.0294 Y11.5956 F25
G1 X15.0009 Y11.6533 F25
G1 X14.9548 Y11.6956
G1 X14.8953 Y11.7188
G1 X14.8326 Y11.7188
G1 X14.7737 Y11.6956
G1 X14.7266 Y11.6529
G1 X14.6985 Y11.5962
G1 X14.6928 Y11.5332
G1 X14.7097 Y11.4718
G1 X14.7477 Y11.422
G1 X14.8015 Y11.3882
G1 X14.8642 Y11.3769
G1 X14.926 Y11.3881
G1 X14.9799 Y11.422
G1 X15.0182 Y11.4723
G1 X15.0357 Y11.5332
G1 X15.0294 Y11.5956
G0 Z0.3
G0 X14.9317 Y11.5675
G1 Z-0.6 F30
G1 X14.9195 Y11.5923 F25
G1 X14.901 Y11.6093
G1 X14.8765 Y11.6188
G1 X14.8516 Y11.6188
G1 X14.8273 Y11.6093
G1 X14.8078 Y11.5916
G1 X14.7964 Y11.5686
G1 X14.794 Y11.5423
G1 X14.801 Y11.517
G1 X14.8162 Y11.4971
G1 X14.8383 Y11.4832
G1 X14.8642 Y11.4785
G1 X14.8891 Y11.4831
G1 X14.9114 Y11.4971
G1 X14.9273 Y11.5179
G1 X14.9342 Y11.5423
G1 X14.9317 Y11.5675
G1 X15.0294 Y11.5956 F25
G1 X15.0009 Y11.6533 F25
G1 X14.9548 Y11.6956
G1 X14.8953 Y11.7188
G1 X14.8326 Y11.7188
G1 X14.7737 Y11.6956
G1 X14.7266 Y11.6529
G1 X14.6985 Y11.5962
G1 X14.6928 Y11.5332
G1 X14.7097 Y11.4718
G1 X14.7477 Y11.422
G1 X14.8015 Y11.3882
G1 X14.8642 Y11.3769
G1 X14.926 Y11.3881
G1 X14.9799 Y11.422
G1 X15.0182 Y11.4723
G1 X15.0357 Y11.5332
G1 X15.0294 Y11.5956
G0 Z0.3
G0 X14.9317 Y11.5675
G1 Z-0.75 F30
G1 X14.9195 Y11.5923 F25
G1 X14.901 Y11.6093
G1 X14.8765 Y11.6188
G1 X14.8516 Y11.6188
G1 X14.8273 Y11.6093
G1 X14.8078 Y11.5916
G1 X14.7964 Y11.5686
G1 X14.794 Y11.5423
G1 X14.801 Y11.517
G1 X14.8162 Y11.4971
G1 X14.8383 Y11.4832
G1 X14.8642 Y11.4785
G1 X14.8891 Y11.4831
G1 X14.9114 Y11.4971
G1 X14.9273 Y11.5179
G1 X14.9342 Y11.5423
G1 X14.9317 Y11.5675
G1 X15.0294 Y11.5956 F25
G1 X15.0009 Y11.6533 F25
G1 X14.9548 Y11.6956
G1 X14.8953 Y11.7188
G1 X14.8326 Y11.7188
G1 X14.7737 Y11.6956
G1 X14.7266 Y11.6529
G1 X14.6985 Y11.5962
G1 X14.6928 Y11.5332
G1 X14.7097 Y11.4718
G1 X14.7477 Y11.422
G1 X14.8015 Y11.3882
G1 X14.8642 Y11.3769
G1 X14.926 Y11.3881
G1 X14.9799 Y11.422
G1 X15.0182 Y11.4723
G1 X15.0357 Y11.5332
G1 X15.0294 Y11.5956
G0 Z0.3
G0 X14.9317 Y11.5675
G1 Z-0.85 F30
G1 X14.9195 Y11.5923 F25
G1 X14.901 Y11.6093
G1 X14.8765 Y11.6188
G1 X14.8516 Y11.6188
G1 X14.8273 Y11.6093
G1 X14.8078 Y11.5916
G1 X14.7964 Y11.5686
G1 X14.794 Y11.5423
G1 X14.801 Y11.517
G1 X14.8162 Y11.4971
G1 X14.8383 Y11.4832
G1 X14.8642 Y11.4785
G1 X14.8891 Y11.4831
G1 X14.9114 Y11.4971
G1 X14.9273 Y11.5179
G1 X14.9342 Y11.5423
G1 X14.9317 Y11.5675
G1 X15.0294 Y11.5956 F25
G1 X15.0009 Y11.6533 F25
G1 X14.9548 Y11.6956
G1 X14.8953 Y11.7188
G1 X14.8326 Y11.7188
G1 X14.7737 Y11.6956
G1 X14.7266 Y11.6529
G1 X14.6985 Y11.5962
G1 X14.6928 Y11.5332
G1 X14.7097 Y11.4718
G1 X14.7477 Y11.422
G1 X14.8015 Y11.3882
G1 X14.8642 Y11.3769
G1 X14.926 Y11.3881
G1 X14.9799 Y11.422
G1 X15.0182 Y11.4723
G1 X15.0357 Y11.5332
G1 X15.0294 Y11.5956

(pocket 6)
G0 Z0.3
G0 X23.7757 Y11.7385
G1 Z-0.15 F30
G1 X23.7634 Y11.7138 F25
G1 X23.7609 Y11.6885
G1 X23.7679 Y11.6641
G1 X23.7837 Y11.6433
G1 X23.806 Y11.6293
G1 X23.831 Y11.6248
G1 X23.8568 Y11.6294
G1 X23.8789 Y11.6433
G1 X23.8941 Y11.6632
G1 X23.9011 Y11.6885
G1 X23.8987 Y11.7148
G1 X23.8874 Y11.7378
G1 X23.8679 Y11.7555
G1 X23.8436 Y11.7651
G1 X23.8187 Y11.7651
G1 X23.7942 Y11.7555
G1 X23.7757 Y11.7385
G1 X23.6943 Y11.7995 F25
G1 X23.6657 Y11.7418 F25
G1 X23.6595 Y11.6794
G1 X23.6769 Y11.6185
G1 X23.7152 Y11.5682
G1 X23.7692 Y11.5344
G1 X23.8309 Y11.5231
G1 X23.8936 Y11.5344
G1 X23.9475 Y11.5682
G1 X23.9854 Y11.618
G1 X24.0023 Y11.6794
G1 X23.9967 Y11.7424
G1 X23.9686 Y11.7992
G1 X23.9215 Y11.8419
G1 X23.8626 Y11.8651
G1 X23.7999 Y11.8651
G1 X23.7403 Y11.8419
G1 X23.6943 Y11.7995
G0 Z0.3
G0 X23.7757 Y11.7385
G1 Z-0.3 F30
G1 X23.7634 Y11.7138 F25
G1 X23.7609 Y11.6885
G1 X23.7679 Y11.6641
G1 X23.7837 Y11.6433
G1 X23.806 Y11.6293
G1 X23.831 Y11.6248
G1 X23.8568 Y11.6294
G1 X23.8789 Y11.6433
G1 X23.8941 Y11.6632
G1 X23.9011 Y11.6885
G1 X23.8987 Y11.7148
G1 X23.8874 Y11.7378
G1 X23.8679 Y11.7555
G1 X23.8436 Y11.7651
G1 X23.8187 Y11.7651
G1 X23.7942 Y11.7555
G1 X23.7757 Y11.7385
G1 X23.6943 Y11.7995 F25
G1 X23.6657 Y11.7418 F25
G1 X23.6595 Y11.6794
G1 X23.6769 Y11.6185
G1 X23.7152 Y11.5682
G1 X23.7692 Y11.5344
G1 X23.8309 Y11.5231
G1 X23.8936 Y11.5344
G1 X23.9475 Y11.5682
G1 X23.9854 Y11.618
G1 X24.0023 Y11.6794
G1 X23.9967 Y11.7424
G1 X23.9686 Y11.7992
G1 X23.9215 Y11.8419
G1 X23.8626 Y11.8651
G1 X23.7999 Y11.8651
G1 X23.7403 Y11.8419
G1 X23.6943 Y11.7995
G0 Z0.3
G0 X23.7757 Y11.7385
G1 Z-0.45 F30
G1 X23.7634 Y11.7138 F25
G1 X23.7609 Y11.6885
G1 X23.7679 Y11.6641
G1 X23.7837 Y11.6433
G1 X23.806 Y11.6293
G1 X23.831 Y11.6248
G1 X23.8568 Y11.6294
G1 X23.8789 Y11.6433
G1 X23.8941 Y11.6632
G1 X23.9011 Y11.6885
G1 X23.8987 Y11.7148
G1 X23.8874 Y11.7378
G1 X23.8679 Y11.7555
G1 X23.8436 Y11.7651
G1 X23.8187 Y11.7651
G1 X23.7942 Y11.7555
G1 X23.7757 Y11.7385
G1 X23.6943 Y11.7995 F25
G1 X23.6657 Y11.7418 F25
G1 X23.6595 Y11.6794
G1 X23.6769 Y11.6185
G1 X23.7152 Y11.5682
G1 X23.7692 Y11.5344
G1 X23.8309 Y11.5231
G1 X23.8936 Y11.5344
G1 X23.9475 Y11.5682
G1 X23.9854 Y11.618
G1 X24.0023 Y11.6794
G1 X23.9967 Y11.7424
G1 X23.9686 Y11.7992
G1 X23.9215 Y11.8419
G1 X23.8626 Y11.8651
G1 X23.7999 Y11.8651
G1 X23.7403 Y11.8419
G1 X23.6943 Y11.7995
G0 Z0.3
G0 X23.7757 Y11.7385
G1 Z-0.6 F30
G1 X23.7634 Y11.7138 F25
G1 X23.7609 Y11.6885
G1 X23.7679 Y11.6641
G1 X23.7837 Y11.6433
G1 X23.806 Y11.6293
G1 X23.831 Y11.6248
G1 X23.8568 Y11.6294
G1 X23.8789 Y11.6433
G1 X23.8941 Y11.6632
G1 X23.9011 Y11.6885
G1 X23.8987 Y11.7148
G1 X23.8874 Y11.7378
G1 X23.8679 Y11.7555
G1 X23.8436 Y11.7651
G1 X23.8187 Y11.7651
G1 X23.7942 Y11.7555
G1 X23.7757 Y11.7385
G1 X23.6943 Y11.7995 F25
G1 X23.6657 Y11.7418 F25
G1 X23.6595 Y11.6794
G1 X23.6769 Y11.6185
G1 X23.7152 Y11.5682
G1 X23.7692 Y11.5344
G1 X23.8309 Y11.5231
G1 X23.8936 Y11.5344
G1 X23.9475 Y11.5682
G1 X23.9854 Y11.618
G1 X24.0023 Y11.6794
G1 X23.9967 Y11.7424
G1 X23.9686 Y11.7992
G1 X23.9215 Y11.8419
G1 X23.8626 Y11.8651
G1 X23.7999 Y11.8651
G1 X23.7403 Y11.8419
G1 X23.6943 Y11.7995
G0 Z0.3
G0 X23.7757 Y11.7385
G1 Z-0.75 F30
G1 X23.7634 Y11.7138 F25
G1 X23.7609 Y11.6885
G1 X23.7679 Y11.6641
G1 X23.7837 Y11.6433
G1 X23.806 Y11.6293
G1 X23.831 Y11.6248
G1 X23.8568 Y11.6294
G1 X23.8789 Y11.6433
G1 X23.8941 Y11.6632
G1 X23.9011 Y11.6885
G1 X23.8987 Y11.7148
G1 X23.8874 Y11.7378
G1 X23.8679 Y11.7555
G1 X23.8436 Y11.7651
G1 X23.8187 Y11.7651
G1 X23.7942 Y11.7555
G1 X23.7757 Y11.7385
G1 X23.6943 Y11.7995 F25
G1 X23.6657 Y11.7418 F25
G1 X23.6595 Y11.6794
G1 X23.6769 Y11.6185
G1 X23.7152 Y11.5682
G1 X23.7692 Y11.5344
G1 X23.8309 Y11.5231
G1 X23.8936 Y11.5344
G1 X23.9475 Y11.5682
G1 X23.9854 Y11.618
G1 X24.0023 Y11.6794
G1 X23.9967 Y11.7424
G1 X23.9686 Y11.7992
G1 X23.9215 Y11.8419
G1 X23.8626 Y11.8651
G1 X23.7999 Y11.8651
G1 X23.7403 Y11.8419
G1 X23.6943 Y11.7995
G0 Z0.3
G0 X23.7757 Y11.7385
G1 Z-0.85 F30
G1 X23.7634 Y11.7138 F25
G1 X23.7609 Y11.6885
G1 X23.7679 Y11.6641
G1 X23.7837 Y11.6433
G1 X23.806 Y11.6293
G1 X23.831 Y11.6248
G1 X23.8568 Y11.6294
G1 X23.8789 Y11.6433
G1 X23.8941 Y11.6632
G1 X23.9011 Y11.6885
G1 X23.8987 Y11.7148
G1 X23.8874 Y11.7378
G1 X23.8679 Y11.7555
G1 X23.8436 Y11.7651
G1 X23.8187 Y11.7651
G1 X23.7942 Y11.7555
G1 X23.7757 Y11.7385
G1 X23.6943 Y11.7995 F25
G1 X23.6657 Y11.7418 F25
G1 X23.6595 Y11.6794
G1 X23.6769 Y11.6185
G1 X23.7152 Y11.5682
G1 X23.7692 Y11.5344
G1 X23.8309 Y11.5231
G1 X23.8936 Y11.5344
G1 X23.9475 Y11.5682
G1 X23.9854 Y11.618
G1 X24.0023 Y11.6794
G1 X23.9967 Y11.7424
G1 X23.9686 Y11.7992
G1 X23.9215 Y11.8419
G1 X23.8626 Y11.8651
G1 X23.7999 Y11.8651
G1 X23.7403 Y11.8419
G1 X23.6943 Y11.7995

(profile 7)
G0 Z0.3
G0 X14.14 Y16.3386
G1 Z-0.15 F30
G1 X14.14 Y13.832 F25
G1 X14.14 Y13.332
G1 X14.14 Y10.9507
G3 X14.265 Y10.8257 I0.125 J0
G1 X17.9209 Y10.8257
G1 X18.4209 Y10.8257
G1 X19.0056 Y10.8257
G3 X19.1306 Y10.9507 I0 J0.125
G1 X19.1306 Y16.3386
G3 X19.0056 Y16.4636 I-0.125 J0
G1 X16.9068 Y16.4636
G1 X16.4068 Y16.4636
G1 X14.265 Y16.4636
G3 X14.14 Y16.3386 I0 J-0.125
G1 Z-0.3 F30
G1 X14.14 Y13.832 F25
G1 Z-0.25 F30
G1 X14.14 Y13.332 F25
G1 Z-0.3 F30
G1 X14.14 Y10.9507 F25
G3 X14.265 Y10.8257 I0.125 J0
G1 X17.9209 Y10.8257
G1 Z-0.25 F30
G1 X18.4209 Y10.8257 F25
G1 Z-0.3 F30
G1 X19.0056 Y10.8257 F25
G3 X19.1306 Y10.9507 I0 J0.125
G1 X19.1306 Y16.3386
G3 X19.0056 Y16.4636 I-0.125 J0
G1 X16.9068 Y16.4636
G1 Z-0.25 F30
G1 X16.4068 Y16.4636 F25
G1 Z-0.3 F30
G1 X14.265 Y16.4636 F25
G3 X14.14 Y16.3386 I0 J-0.125
G1 Z-0.45 F30
G1 X14.14 Y13.832 F25
G1 Z-0.25 F30
G1 X14.14 Y13.332 F25
G1 Z-0.45 F30
G1 X14.14 Y10.9507 F25
G3 X14.265 Y10.8257 I0.125 J0
G1 X17.9209 Y10.8257
G1 Z-0.25 F30
G1 X18.4209 Y10.8257 F25
G1 Z-0.45 F30
G1 X19.0056 Y10.8257 F25
G3 X19.1306 Y10.9507 I0 J0.125
G1 X19.1306 Y16.3386
G3 X19.0056 Y16.4636 I-0.125 J0
G1 X16.9068 Y16.4636
G1 Z-0.25 F30
G1 X16.4068 Y16.4636 F25
G1 Z-0.45 F30
G1 X14.265 Y16.4636 F25
G3 X14.14 Y16.3386 I0 J-0.125
G1 Z-0.6 F30
G1 X14.14 Y13.832 F25
G1 Z-0.25 F30
G1 X14.14 Y13.332 F25
G1 Z-0.6 F30
G1 X14.14 Y10.9507 F25
G3 X14.265 Y10.8257 I0.125 J0
G1 X17.9209 Y10.8257
G1 Z-0.25 F30
G1 X18.4209 Y10.8257 F25
G1 Z-0.6 F30
G1 X19.0056 Y10.8257 F25
G3 X19.1306 Y10.9507 I0 J0.125
G1 X19.1306 Y16.3386
G3 X19.0056 Y16.4636 I-0.125 J0
G1 X16.9068 Y16.4636
G1 Z-0.25 F30
G1 X16.4068 Y16.4636 F25
G1 Z-0.6 F30
G1 X14.265 Y16.4636 F25
G3 X14.14 Y16.3386 I0 J-0.125
G1 Z-0.75 F30
G1 X14.14 Y13.832 F25
G1 Z-0.25 F30
G1 X14.14 Y13.332 F25
G1 Z-0.75 F30
G1 X14.14 Y10.9507 F25
G3 X14.265 Y10.8257 I0.125 J0
G1 X17.9209 Y10.8257
G1 Z-0.25 F30
G1 X18.4209 Y10.8257 F25
G1 Z-0.75 F30
G1 X19.0056 Y10.8257 F25
G3 X19.1306 Y10.9507 I0 J0.125
G1 X19.1306 Y16.3386
G3 X19.0056 Y16.4636 I-0.125 J0
G1 X16.9068 Y16.4636
G1 Z-0.25 F30
G1 X16.4068 Y16.4636 F25
G1 Z-0.75 F30
G1 X14.265 Y16.4636 F25
G3 X14.14 Y16.3386 I0 J-0.125
G1 Z-0.85 F30
G1 X14.14 Y13.832 F25
G1 Z-0.25 F30
G1 X14.14 Y13.332 F25
G1 Z-0.85 F30
G1 X14.14 Y10.9507 F25
G3 X14.265 Y10.8257 I0.125 J0
G1 X17.9209 Y10.8257
G1 Z-0.25 F30
G1 X18.4209 Y10.8257 F25
G1 Z-0.85 F30
G1 X19.0056 Y10.8257 F25
G3 X19.1306 Y10.9507 I0 J0.125
G1 X19.1306 Y16.3386
G3 X19.0056 Y16.4636 I-0.125 J0
G1 X16.9068 Y16.4636
G1 Z-0.25 F30
G1 X16.4068 Y16.4636 F25
G1 Z-0.85 F30
G1 X14.265 Y16.4636 F25
G3 X14.14 Y16.3386 I0 J-0.125

(profile 8)
G0 Z0.3
G0 X19.5645 Y16.4849
G1 Z-0.15 F30
G1 X19.5645 Y14.7359 F25
G1 X19.5645 Y14.2359
G1 X19.5645 Y11.0971
G3 X19.6895 Y10.9721 I0.125 J0
G1 X22.1053 Y10.9721
G1 X22.6053 Y10.9721
G1 X24.4302 Y10.9721
G3 X24.5552 Y11.0971 I0 J0.125
G1 X24.5552 Y16.4849
G3 X24.4302 Y16.6099 I-0.125 J0
G1 X23.4677 Y16.6099
G1 X22.9677 Y16.6099
G1 X19.6895 Y16.6099
G3 X19.5645 Y16.4849 I0 J-0.125
G1 Z-0.3 F30
G1 X19.5645 Y14.7359 F25
G1 Z-0.25 F30
G1 X19.5645 Y14.2359 F25
G1 Z-0.3 F30
G1 X19.5645 Y11.0971 F25
G3 X19.6895 Y10.9721 I0.125 J0
G1 X22.1053 Y10.9721
G1 Z-0.25 F30
G1 X22.6053 Y10.9721 F25
G1 Z-0.3 F30
G1 X24.4302 Y10.9721 F25
G3 X24.5552 Y11.0971 I0 J0.125
G1 X24.5552 Y16.4849
G3 X24.4302 Y16.6099 I-0.125 J0
G1 X23.4677 Y16.6099
G1 Z-0.25 F30
G1 X22.9677 Y16.6099 F25
G1 Z-0.3 F30
G1 X19.6895 Y16.6099 F25
G3 X19.5645 Y16.4849 I0 J-0.125
G1 Z-0.45 F30
G1 X19.5645 Y14.7359 F25
G1 Z-0.25 F30
G1 X19.5645 Y14.2359 F25
G1 Z-0.45 F30
G1 X19.5645 Y11.0971 F25
G3 X19.6895 Y10.9721 I0.125 J0
G1 X22.1053 Y10.9721
G1 Z-0.25 F30
G1 X22.6053 Y10.9721 F25
G1 Z-0.45 F30
G1 X24.4302 Y10.9721 F25
G3 X24.5552 Y11.0971 I0 J0.125
G1 X24.5552 Y16.4849
G3 X24.4302 Y16.6099 I-0.125 J0
G1 X23.4677 Y16.6099
G1 Z-0.25 F30
G1 X22.9677 Y16.6099 F25
G1 Z-0.45 F30
G1 X19.6895 Y16.6099 F25
G3 X19.5645 Y16.4849 I0 J-0.125
G1 Z-0.6 F30
G1 X19.5645 Y14.7359 F25
G1 Z-0.25 F30
G1 X19.5645 Y14.2359 F25
G1 Z-0.6 F30
G1 X19.5645 Y11.0971 F25
G3 X19.6895 Y10.9721 I0.125 J0
G1 X22.1053 Y10.9721
G1 Z-0.25 F30
G1 X22.6053 Y10.9721 F25
G1 Z-0.6 F30
G1 X24.4302 Y10.9721 F25
G3 X24.5552 Y11.0971 I0 J0.125
G1 X24.5552 Y16.4849
G3 X24.4302 Y16.6099 I-0.125 J0
G1 X23.4677 Y16.6099
G1 Z-0.25 F30
G1 X22.9677 Y16.6099 F25
G1 Z-0.6 F30
G1 X19.6895 Y16.6099 F25
G3 X19.5645 Y16.4849 I0 J-0.125
G1 Z-0.75 F30
G1 X19.5645 Y14.7359 F25
G1 Z-0.25 F30
G1 X19.5645 Y14.2359 F25
G1 Z-0.75 F30
G1 X19.5645 Y11.0971 F25
G3 X19.6895 Y10.9721 I0.125 J0
G1 X22.1053 Y10.9721
G1 Z-0.25 F30
G1 X22.6053 Y10.9721 F25
G1 Z-0.75 F30
G1 X24.4302 Y10.9721 F25
G3 X24.5552 Y11.0971 I0 J0.125
G1 X24.5552 Y16.4849
G3 X24.4302 Y16.6099 I-0.125 J0
G1 X23.4677 Y16.6099
G1 Z-0.25 F30
G1 X22.9677 Y16.6099 F25
G1 Z-0.75 F30
G1 X19.6895 Y16.6099 F25
G3 X19.5645 Y16.4849 I0 J-0.125
G1 Z-0.85 F30
G1 X19.5645 Y14.7359 F25
G1 Z-0.25 F30
G1 X19.5645 Y14.2359 F25
G1 Z-0.85 F30
G1 X19.5645 Y11.0971 F25
G3 X19.6895 Y10.9721 I0.125 J0
G1 X22.1053 Y10.9721
G1 Z-0.25 F30
G1 X22.6053 Y10.9721 F25
G1 Z-0.85 F30
G1 X24.4302 Y10.9721 F25
G3 X24.5552 Y11.0971 I0 J0.125
G1 X24.5552 Y16.4849
G3 X24.4302 Y16.6099 I-0.125 J0
G1 X23.4677 Y16.6099
G1 Z-0.25 F30
G1 X22.9677 Y16.6099 F25
G1 Z-0.85 F30
G1 X19.6895 Y16.6099 F25
G3 X19.5645 Y16.4849 I0 J-0.125

(profile 9)
G0 Z0.3
G0 X23.1428 Y21.0038
G1 Z-0.15 F30
G1 X27.2071 Y17.7297 F25
G1 X27.5965 Y17.416
G1 X29.4794 Y15.8992
G3 X29.6381 Y15.9008 I0.0784 J0.0973
G1 X30.8064 Y16.8811
G3 X30.8511 Y16.9769 I-0.0803 J0.0958
G3 X30.8509 Y16.9835 I-0.125 J0
G1 X30.6374 Y21.0281
G1 X30.6111 Y21.5274
G1 X30.4229 Y25.092
G3 X30.3939 Y25.1658 I-0.1248 J-0.0066
G1 X29.4317 Y26.3124
G3 X29.2556 Y26.3278 I-0.0958 J-0.0803
G1 X24.5813 Y22.4056
G1 X24.1983 Y22.0842
G1 X23.1408 Y21.1969
G3 X23.0962 Y21.1011 I0.0803 J-0.0958
G3 X23.1428 Y21.0038 I0.125 J0
G1 Z-0.3 F30
G1 X27.2071 Y17.7297 F25
G1 Z-0.25 F30
G1 X27.5965 Y17.416 F25
G1 Z-0.3 F30
G1 X29.4794 Y15.8992 F25
G3 X29.6381 Y15.9008 I0.0784 J0.0973
G1 X30.8064 Y16.8811
G3 X30.8511 Y16.9769 I-0.0803 J0.0958
G3 X30.8509 Y16.9835 I-0.125 J0
G1 X30.6374 Y21.0281
G1 Z-0.25 F30
G1 X30.6111 Y21.5274 F25
G1 Z-0.3 F30
G1 X30.4229 Y25.092 F25
G3 X30.3939 Y25.1658 I-0.1248 J-0.0066
G1 X29.4317 Y26.3124
G3 X29.2556 Y26.3278 I-0.0958 J-0.0803
G1 X24.5813 Y22.4056
G1 Z-0.25 F30
G1 X24.1983 Y22.0842 F25
G1 Z-0.3 F30
G1 X23.1408 Y21.1969 F25
G3 X23.0962 Y21.1011 I0.0803 J-0.0958
G3 X23.1428 Y21.0038 I0.125 J0
G1 Z-0.45 F30
G1 X27.2071 Y17.7297 F25
G1 Z-0.25 F30
G1 X27.5965 Y17.416 F25
G1 Z-0.45 F30
G1 X29.4794 Y15.8992 F25
G3 X29.6381 Y15.9008 I0.0784 J0.0973
G1 X30.8064 Y16.8811
G3 X30.8511 Y16.9769 I-0.0803 J0.0958
G3 X30.8509 Y16.9835 I-0.125 J0
G1 X30.6374 Y21.0281
G1 Z-0.25 F30
G1 X30.6111 Y21.5274 F25
G1 Z-0.45 F30
G1 X30.4229 Y25.092 F25
G3 X30.3939 Y25.1658 I-0.1248 J-0.0066
G1 X29.4317 Y26.3124
G3 X29.2556 Y26.3278 I-0.0958 J-0.0803
G1 X24.5813 Y22.4056
G1 Z-0.25 F30
G1 X24.1983 Y22.0842 F25
G1 Z-0.45 F30
G1 X23.1408 Y21.1969 F25
G3 X23.0962 Y21.1011 I0.0803 J-0.0958
G3 X23.1428 Y21.0038 I0.125 J0
G1 Z-0.6 F30
G1 X27.2071 Y17.7297 F25
G1 Z-0.25 F30
G1 X27.5965 Y17.416 F25
G1 Z-0.6 F30
G1 X29.4794 Y15.8992 F25
G3 X29.6381 Y15.9008 I0.0784 J0.0973
G1 X30.8064 Y16.8811
G3 X30.8511 Y16.9769 I-0.0803 J0.0958
G3 X30.8509 Y16.9835 I-0.125 J0
G1 X30.6374 Y21.0281
G1 Z-0.25 F30
G1 X30.6111 Y21.5274 F25
G1 Z-0.6 F30
G1 X30.4229 Y25.092 F25
G3 X30.3939 Y25.1658 I-0.1248 J-0.0066
G1 X29.4317 Y26.3124
G3 X29.2556 Y26.3278 I-0.0958 J-0.0803
G1 X24.5813 Y22.4056
G1 Z-0.25 F30
G1 X24.1983 Y22.0842 F25
G1 Z-0.6 F30
G1 X23.1408 Y21.1969 F25
G3 X23.0962 Y21.1011 I0.0803 J-0.0958
G3 X23.1428 Y21.0038 I0.125 J0
G1 Z-0.75 F30
G1 X27.2071 Y17.7297 F25
G1 Z-0.25 F30
G1 X27.5965 Y17.416 F25
G1 Z-0.75 F30
G1 X29.4794 Y15.8992 F25
G3 X29.6381 Y15.9008 I0.0784 J0.0973
G1 X30.8064 Y16.8811
G3 X30.8511 Y16.9769 I-0.0803 J0.0958
G3 X30.8509 Y16.9835 I-0.125 J0
G1 X30.6374 Y21.0281
G1 Z-0.25 F30
G1 X30.6111 Y21.5274 F25
G1 Z-0.75 F30
G1 X30.4229 Y25.092 F25
G3 X30.3939 Y25.1658 I-0.1248 J-0.0066
G1 X29.4317 Y26.3124
G3 X29.2556 Y26.3278 I-0.0958 J-0.0803
G1 X24.5813 Y22.4056
G1 Z-0.25 F30
G1 X24.1983 Y22.0842 F25
G1 Z-0.75 F30
G1 X23.1408 Y21.1969 F25
G3 X23.0962 Y21.1011 I0.0803 J-0.0958
G3 X23.1428 Y21.0038 I0.125 J0
G1 Z-0.85 F30
G1 X27.2071 Y17.7297 F25
G1 Z-0.25 F30
G1 X27.5965 Y17.416 F25
G1 Z-0.85 F30
G1 X29.4794 Y15.8992 F25
G3 X29.6381 Y15.9008 I0.0784 J0.0973
G1 X30.8064 Y16.8811
G3 X30.8511 Y16.9769 I-0.0803 J0.0958
G3 X30.8509 Y16.9835 I-0.125 J0
G1 X30.6374 Y21.0281
G1 Z-0.25 F30
G1 X30.6111 Y21.5274 F25
G1 Z-0.85 F30
G1 X30.4229 Y25.092 F25
G3 X30.3939 Y25.1658 I-0.1248 J-0.0066
G1 X29.4317 Y26.3124
G3 X29.2556 Y26.3278 I-0.0958 J-0.0803
G1 X24.5813 Y22.4056
G1 Z-0.25 F30
G1 X24.1983 Y22.0842 F25
G1 Z-0.85 F30
G1 X23.1408 Y21.1969 F25
G3 X23.0962 Y21.1011 I0.0803 J-0.0958
G3 X23.1428 Y21.0038 I0.125 J0

(profile 10)
G0 Z0.3
G0 X30.794 Y1.5003
G1 Z-0.15 F30
G1 X30.9493 Y2.9041 F25
G1 X31.0042 Y3.4011
G1 X31.5875 Y8.673
G1 X31.6425 Y9.1699
G1 X31.7078 Y9.7599
G3 X31.7085 Y9.7737 I-0.1242 J0.0137
G3 X31.6719 Y9.8621 I-0.125 J0
G1 X30.5996 Y10.9343
G3 X30.4379 Y10.9471 I-0.0884 J-0.0884
G1 X26.3523 Y7.9843
G1 X25.9476 Y7.6908
G1 X23.8936 Y6.2012
G3 X23.842 Y6.1 I0.0734 J-0.1012
G3 X23.8786 Y6.0116 I0.125 J0
G1 X27.9335 Y1.9567
G1 X28.287 Y1.6032
G1 X29.5229 Y0.3673
G3 X29.6997 Y0.3673 I0.0884 J0.0884
G1 X30.7581 Y1.4257
G3 X30.794 Y1.5003 I-0.0884 J0.0884
G1 Z-0.3 F30
G1 X30.9493 Y2.9041 F25
G1 Z-0.25 F30
G1 X31.0042 Y3.4011 F25
G1 Z-0.3 F30
G1 X31.5875 Y8.673 F25
G1 Z-0.25 F30
G1 X31.6425 Y9.1699 F25
G1 Z-0.3 F30
G1 X31.7078 Y9.7599 F25
G3 X31.7085 Y9.7737 I-0.1242 J0.0137
G3 X31.6719 Y9.8621 I-0.125 J0
G1 X30.5996 Y10.9343
G3 X30.4379 Y10.9471 I-0.0884 J-0.0884
G1 X26.3523 Y7.9843
G1 Z-0.25 F30
G1 X25.9476 Y7.6908 F25
G1 Z-0.3 F30
G1 X23.8936 Y6.2012 F25
G3 X23.842 Y6.1 I0.0734 J-0.1012
G3 X23.8786 Y6.0116 I0.125 J0
G1 X27.9335 Y1.9567
G1 Z-0.25 F30
G1 X28.287 Y1.6032 F25
G1 Z-0.3 F30
G1 X29.5229 Y0.3673 F25
G3 X29.6997 Y0.3673 I0.0884 J0.0884
G1 X30.7581 Y1.4257
G3 X30.794 Y1.5003 I-0.0884 J0.0884
G1 Z-0.45 F30
G1 X30.9493 Y2.9041 F25
G1 Z-0.25 F30
G1 X31.0042 Y3.4011 F25
G1 Z-0.45 F30
G1 X31.5875 Y8.673 F25
G1 Z-0.25 F30
G1 X31.6425 Y9.1699 F25
G1 Z-0.45 F30
G1 X31.7078 Y9.7599 F25
G3 X31.7085 Y9.7737 I-0.1242 J0.0137
G3 X31.6719 Y9.8621 I-0.125 J0
G1 X30.5996 Y10.9343
G3 X30.4379 Y10.9471 I-0.0884 J-0.0884
G1 X26.3523 Y7.9843
G1 Z-0.25 F30
G1 X25.9476 Y7.6908 F25
G1 Z-0.45 F30
G1 X23.8936 Y6.2012 F25
G3 X23.842 Y6.1 I0.0734 J-0.1012
G3 X23.8786 Y6.0116 I0.125 J0
G1 X27.9335 Y1.9567
G1 Z-0.25 F30
G1 X28.287 Y1.6032 F25
G1 Z-0.45 F30
G1 X29.5229 Y0.3673 F25
G3 X29.6997 Y0.3673 I0.0884 J0.0884
G1 X30.7581 Y1.4257
G3 X30.794 Y1.5003 I-0.0884 J0.0884
G1 Z-0.6 F30
G1 X30.9493 Y2.9041 F25
G1 Z-0.25 F30
G1 X31.0042 Y3.4011 F25
G1 Z-0.6 F30
G1 X31.5875 Y8.673 F25
G1 Z-0.25 F30
G1 X31.6425 Y9.1699 F25
G1 Z-0.6 F30
G1 X31.7078 Y9.7599 F25
G3 X31.7085 Y9.7737 I-0.1242 J0.0137
G3 X31.6719 Y9.8621 I-0.125 J0
G1 X30.5996 Y10.9343
G3 X30.4379 Y10.9471 I-0.0884 J-0.0884
G1 X26.3523 Y7.9843
G1 Z-0.25 F30
G1 X25.9476 Y7.6908 F25
G1 Z-0.6 F30
G1 X23.8936 Y6.2012 F25
G3 X23.842 Y6.1 I0.0734 J-0.1012
G3 X23.8786 Y6.0116 I0.125 J0
G1 X27.9335 Y1.9567
G1 Z-0.25 F30
G1 X28.287 Y1.6032 F25
G1 Z-0.6 F30
G1 X29.5229 Y0.3673 F25
G3 X29.6997 Y0.3673 I0.0884 J0.0884
G1 X30.7581 Y1.4257
G3 X30.794 Y1.5003 I-0.0884 J0.0884
G1 Z-0.75 F30
G1 X30.9493 Y2.9041 F25
G1 Z-0.25 F30
G1 X31.0042 Y3.4011 F25
G1 Z-0.75 F30
G1 X31.5875 Y8.673 F25
G1 Z-0.25 F30
G1 X31.6425 Y9.1699 F25
G1 Z-0.75 F30
G1 X31.7078 Y9.7599 F25
G3 X31.7085 Y9.7737 I-0.1242 J0.0137
G3 X31.6719 Y9.8621 I-0.125 J0
G1 X30.5996 Y10.9343
G3 X30.4379 Y10.9471 I-0.0884 J-0.0884
G1 X26.3523 Y7.9843
G1 Z-0.25 F30
G1 X25.9476 Y7.6908 F25
G1 Z-0.75 F30
G1 X23.8936 Y6.2012 F25
G3 X23.842 Y6.1 I0.0734 J-0.1012
G3 X23.8786 Y6.0116 I0.125 J0
G1 X27.9335 Y1.9567
G1 Z-0.25 F30
G1 X28.287 Y1.6032 F25
G1 Z-0.75 F30
G1 X29.5229 Y0.3673 F25
G3 X29.6997 Y0.3673 I0.0884 J0.0884
G1 X30.7581 Y1.4257
G3 X30.794 Y1.5003 I-0.0884 J0.0884
G1 Z-0.85 F30
G1 X30.9493 Y2.9041 F25
G1 Z-0.25 F30
G1 X31.0042 Y3.4011 F25
G1 Z-0.85 F30
G1 X31.5875 Y8.673 F25
G1 Z-0.25 F30
G1 X31.6425 Y9.1699 F25
G1 Z-0.85 F30
G1 X31.7078 Y9.7599 F25
G3 X31.7085 Y9.7737 I-0.1242 J0.0137
G3 X31.6719 Y9.8621 I-0.125 J0
G1 X30.5996 Y10.9343
G3 X30.4379 Y10.9471 I-0.0884 J-0.0884
G1 X26.3523 Y7.9843
G1 Z-0.25 F30
G1 X25.9476 Y7.6908 F25
G1 Z-0.85 F30
G1 X23.8936 Y6.2012 F25
G3 X23.842 Y6.1 I0.0734 J-0.1012
G3 X23.8786 Y6.0116 I0.125 J0
G1 X27.9335 Y1.9567
G1 Z-0.25 F30
G1 X28.287 Y1.6032 F25
G1 Z-0.85 F30
G1 X29.5229 Y0.3673 F25
G3 X29.6997 Y0.3673 I0.0884 J0.0884
G1 X30.7581 Y1.4257
G3 X30.794 Y1.5003 I-0.0884 J0.0884

(profile 11)
G0 Z0.3
G0 X38.8657 Y19.4065
G1 Z-0.15 F30
G1 X34.0588 Y23.2788 F25
G1 X33.6694 Y23.5925
G1 X32.5291 Y24.5111
G3 X32.3704 Y24.5095 I-0.0784 J-0.0973
G1 X31.2021 Y23.5292
G3 X31.1574 Y23.4334 I0.0803 J-0.0958
G3 X31.1576 Y23.4268 I0.125 J0
G1 X31.4921 Y17.088
G1 X31.5185 Y16.5887
G1 X31.5855 Y15.3183
G3 X31.6146 Y15.2445 I0.1248 J0.0066
G1 X32.5767 Y14.0979
G3 X32.7528 Y14.0825 I0.0958 J0.0803
G1 X36.933 Y17.5901
G1 X37.3161 Y17.9115
G1 X38.8676 Y19.2134
G3 X38.9123 Y19.3092 I-0.0803 J0.0958
G3 X38.8657 Y19.4065 I-0.125 J0
G1 Z-0.3 F30
G1 X34.0588 Y23.2788 F25
G1 Z-0.25 F30
G1 X33.6694 Y23.5925 F25
G1 Z-0.3 F30
G1 X32.5291 Y24.5111 F25
G3 X32.3704 Y24.5095 I-0.0784 J-0.0973
G1 X31.2021 Y23.5292
G3 X31.1574 Y23.4334 I0.0803 J-0.0958
G3 X31.1576 Y23.4268 I0.125 J0
G1 X31.4921 Y17.088
G1 Z-0.25 F30
G1 X31.5185 Y16.5887 F25
G1 Z-0.3 F30
G1 X31.5855 Y15.3183 F25
G3 X31.6146 Y15.2445 I0.1248 J0.0066
G1 X32.5767 Y14.0979
G3 X32.7528 Y14.0825 I0.0958 J0.0803
G1 X36.933 Y17.5901
G1 Z-0.25 F30
G1 X37.3161 Y17.9115 F25
G1 Z-0.3 F30
G1 X38.8676 Y19.2134 F25
G3 X38.9123 Y19.3092 I-0.0803 J0.0958
G3 X38.8657 Y19.4065 I-0.125 J0
G1 Z-0.45 F30
G1 X34.0588 Y23.2788 F25
G1 Z-0.25 F30
G1 X33.6694 Y23.5925 F25
G1 Z-0.45 F30
G1 X32.5291 Y24.5111 F25
G3 X32.3704 Y24.5095 I-0.0784 J-0.0973
G1 X31.2021 Y23.5292
G3 X31.1574 Y23.4334 I0.0803 J-0.0958
G3 X31.1576 Y23.4268 I0.125 J0
G1 X31.4921 Y17.088
G1 Z-0.25 F30
G1 X31.5185 Y16.5887 F25
G1 Z-0.45 F30
G1 X31.5855 Y15.3183 F25
G3 X31.6146 Y15.2445 I0.1248 J0.0066
G1 X32.5767 Y14.0979
G3 X32.7528 Y14.0825 I0.0958 J0.0803
G1 X36.933 Y17.5901
G1 Z-0.25 F30
G1 X37.3161 Y17.9115 F25
G1 Z-0.45 F30
G1 X38.8676 Y19.2134 F25
G3 X38.9123 Y19.3092 I-0.0803 J0.0958
G3 X38.8657 Y19.4065 I-0.125 J0
G1 Z-0.6 F30
G1 X34.0588 Y23.2788 F25
G1 Z-0.25 F30
G1 X33.6694 Y23.5925 F25
G1 Z-0.6 F30
G1 X32.5291 Y24.5111 F25
G3 X32.3704 Y24.5095 I-0.0784 J-0.0973
G1 X31.2021 Y23.5292
G3 X31.1574 Y23.4334 I0.0803 J-0.0958
G3 X31.1576 Y23.4268 I0.125 J0
G1 X31.4921 Y17.088
G1 Z-0.25 F30
G1 X31.5185 Y16.5887 F25
G1 Z-0.6 F30
G1 X31.5855 Y15.3183 F25
G3 X31.6146 Y15.2445 I0.1248 J0.0066
G1 X32.5767 Y14.0979
G3 X32.7528 Y14.0825 I0.0958 J0.0803
G1 X36.933 Y17.5901
G1 Z-0.25 F30
G1 X37.3161 Y17.9115 F25
G1 Z-0.6 F30
G1 X38.8676 Y19.2134 F25
G3 X38.9123 Y19.3092 I-0.0803 J0.0958
G3 X38.8657 Y19.4065 I-0.125 J0
G1 Z-0.75 F30
G1 X34.0588 Y23.2788 F25
G1 Z-0.25 F30
G1 X33.6694 Y23.5925 F25
G1 Z-0.75 F30
G1 X32.5291 Y24.5111 F25
G3 X32.3704 Y24.5095 I-0.0784 J-0.0973
G1 X31.2021 Y23.5292
G3 X31.1574 Y23.4334 I0.0803 J-0.0958
G3 X31.1576 Y23.4268 I0.125 J0
G1 X31.4921 Y17.088
G1 Z-0.25 F30
G1 X31.5185 Y16.5887 F25
G1 Z-0.75 F30
G1 X31.5855 Y15.3183 F25
G3 X31.6146 Y15.2445 I0.1248 J0.0066
G1 X32.5767 Y14.0979
G3 X32.7528 Y14.0825 I0.0958 J0.0803
G1 X36.933 Y17.5901
G1 Z-0.25 F30
G1 X37.3161 Y17.9115 F25
G1 Z-0.75 F30
G1 X38.8676 Y19.2134 F25
G3 X38.9123 Y19.3092 I-0.0803 J0.0958
G3 X38.8657 Y19.4065 I-0.125 J0
G1 Z-0.85 F30
G1 X34.0588 Y23.2788 F25
G1 Z-0.25 F30
G1 X33.6694 Y23.5925 F25
G1 Z-0.85 F30
G1 X32.5291 Y24.5111 F25
G3 X32.3704 Y24.5095 I-0.0784 J-0.0973
G1 X31.2021 Y23.5292
G3 X31.1574 Y23.4334 I0.0803 J-0.0958
G3 X31.1576 Y23.4268 I0.125 J0
G1 X31.4921 Y17.088
G1 Z-0.25 F30
G1 X31.5185 Y16.5887 F25
G1 Z-0.85 F30
G1 X31.5855 Y15.3183 F25
G3 X31.6146 Y15.2445 I0.1248 J0.0066
G1 X32.5767 Y14.0979
G3 X32.7528 Y14.0825 I0.0958 J0.0803
G1 X36.933 Y17.5901
G1 Z-0.25 F30
G1 X37.3161 Y17.9115 F25
G1 Z-0.85 F30
G1 X38.8676 Y19.2134 F25
G3 X38.9123 Y19.3092 I-0.0803 J0.0958
G3 X38.8657 Y19.4065 I-0.125 J0

(profile 12)
G0 Z0.3
G0 X32.5481 Y11.8237
G1 Z-0.15 F30
G1 X32.43 Y10.756 F25
G1 X32.375 Y10.259
G1 X31.6343 Y3.5641
G3 X31.6335 Y3.5504 I0.1242 J-0.0137
G3 X31.6701 Y3.462 I0.125 J0
G1 X32.7424 Y2.3897
G3 X32.9042 Y2.3769 I0.0884 J0.0884
G1 X34.1158 Y3.2556
G1 X34.5206 Y3.5491
G1 X39.4485 Y7.1229
G3 X39.5001 Y7.224 I-0.0734 J0.1012
G3 X39.4635 Y7.3124 I-0.125 J0
G1 X38.6162 Y8.1597
G1 X38.2626 Y8.5133
G1 X33.8191 Y12.9568
G3 X33.6423 Y12.9568 I-0.0884 J-0.0884
G1 X32.5839 Y11.8984
G3 X32.5481 Y11.8237 I0.0884 J-0.0884
G1 Z-0.3 F30
G1 X32.43 Y10.756 F25
G1 Z-0.25 F30
G1 X32.375 Y10.259 F25
G1 Z-0.3 F30
G1 X31.6343 Y3.5641 F25
G3 X31.6335 Y3.5504 I0.1242 J-0.0137
G3 X31.6701 Y3.462 I0.125 J0
G1 X32.7424 Y2.3897
G3 X32.9042 Y2.3769 I0.0884 J0.0884
G1 X34.1158 Y3.2556
G1 Z-0.25 F30
G1 X34.5206 Y3.5491 F25
G1 Z-0.3 F30
G1 X39.4485 Y7.1229 F25
G3 X39.5001 Y7.224 I-0.0734 J0.1012
G3 X39.4635 Y7.3124 I-0.125 J0
G1 X38.6162 Y8.1597
G1 Z-0.25 F30
G1 X38.2626 Y8.5133 F25
G1 Z-0.3 F30
G1 X33.8191 Y12.9568 F25
G3 X33.6423 Y12.9568 I-0.0884 J-0.0884
G1 X32.5839 Y11.8984
G3 X32.5481 Y11.8237 I0.0884 J-0.0884
G1 Z-0.45 F30
G1 X32.43 Y10.756 F25
G1 Z-0.25 F30
G1 X32.375 Y10.259 F25
G1 Z-0.45 F30
G1 X31.6343 Y3.5641 F25
G3 X31.6335 Y3.5504 I0.1242 J-0.0137
G3 X31.6701 Y3.462 I0.125 J0
G1 X32.7424 Y2.3897
G3 X32.9042 Y2.3769 I0.0884 J0.0884
G1 X34.1158 Y3.2556
G1 Z-0.25 F30
G1 X34.5206 Y3.5491 F25
G1 Z-0.45 F30
G1 X39.4485 Y7.1229 F25
G3 X39.5001 Y7.224 I-0.0734 J0.1012
G3 X39.4635 Y7.3124 I-0.125 J0
G1 X38.6162 Y8.1597
G1 Z-0.25 F30
G1 X38.2626 Y8.5133 F25
G1 Z-0.45 F30
G1 X33.8191 Y12.9568 F25
G3 X33.6423 Y12.9568 I-0.0884 J-0.0884
G1 X32.5839 Y11.8984
G3 X32.5481 Y11.8237 I0.0884 J-0.0884
G1 Z-0.6 F30
G1 X32.43 Y10.756 F25
G1 Z-0.25 F30
G1 X32.375 Y10.259 F25
G1 Z-0.6 F30
G1 X31.6343 Y3.5641 F25
G3 X31.6335 Y3.5504 I0.1242 J-0.0137
G3 X31.6701 Y3.462 I0.125 J0
G1 X32.7424 Y2.3897
G3 X32.9042 Y2.3769 I0.0884 J0.0884
G1 X34.1158 Y3.2556
G1 Z-0.25 F30
G1 X34.5206 Y3.5491 F25
G1 Z-0.6 F30
G1 X39.4485 Y7.1229 F25
G3 X39.5001 Y7.224 I-0.0734 J0.1012
G3 X39.4635 Y7.3124 I-0.125 J0
G1 X38.6162 Y8.1597
G1 Z-0.25 F30
G1 X38.2626 Y8.5133 F25
G1 Z-0.6 F30
G1 X33.8191 Y12.9568 F25
G3 X33.6423 Y12.9568 I-0.0884 J-0.0884
G1 X32.5839 Y11.8984
G3 X32.5481 Y11.8237 I0.0884 J-0.0884
G1 Z-0.75 F30
G1 X32.43 Y10.756 F25
G1 Z-0.25 F30
G1 X32.375 Y10.259 F25
G1 Z-0.75 F30
G1 X31.6343 Y3.5641 F25
G3 X31.6335 Y3.5504 I0.1242 J-0.0137
G3 X31.6701 Y3.462 I0.125 J0
G1 X32.7424 Y2.3897
G3 X32.9042 Y2.3769 I0.0884 J0.0884
G1 X34.1158 Y3.2556
G1 Z-0.25 F30
G1 X34.5206 Y3.5491 F25
G1 Z-0.75 F30
G1 X39.4485 Y7.1229 F25
G3 X39.5001 Y7.224 I-0.0734 J0.1012
G3 X39.4635 Y7.3124 I-0.125 J0
G1 X38.6162 Y8.1597
G1 Z-0.25 F30
G1 X38.2626 Y8.5133 F25
G1 Z-0.75 F30
G1 X33.8191 Y12.9568 F25
G3 X33.6423 Y12.9568 I-0.0884 J-0.0884
G1 X32.5839 Y11.8984
G3 X32.5481 Y11.8237 I0.0884 J-0.0884
G1 Z-0.85 F30
G1 X32.43 Y10.756 F25
G1 Z-0.25 F30
G1 X32.375 Y10.259 F25
G1 Z-0.85 F30
G1 X31.6343 Y3.5641 F25
G3 X31.6335 Y3.5504 I0.1242 J-0.0137
G3 X31.6701 Y3.462 I0.125 J0
G1 X32.7424 Y2.3897
G3 X32.9042 Y2.3769 I0.0884 J0.0884
G1 X34.1158 Y3.2556
G1 Z-0.25 F30
G1 X34.5206 Y3.5491 F25
G1 Z-0.85 F30
G1 X39.4485 Y7.1229 F25
G3 X39.5001 Y7.224 I-0.0734 J0.1012
G3 X39.4635 Y7.3124 I-0.125 J0
G1 X38.6162 Y8.1597
G1 Z-0.25 F30
G1 X38.2626 Y8.5133 F25
G1 Z-0.85 F30
G1 X33.8191 Y12.9568 F25
G3 X33.6423 Y12.9568 I-0.0884 J-0.0884
G1 X32.5839 Y11.8984
G3 X32.5481 Y11.8237 I0.0884 J-0.0884

(profile 13)
G0 Z0.3
G0 X40.9454 Y9.2303
G1 Z-0.15 F30
G1 X41.0728 Y10.3821 F25
G1 X41.1278 Y10.879
G1 X41.8592 Y17.4899
G3 X41.86 Y17.5037 I-0.1242 J0.0137
G3 X41.8233 Y17.5921 I-0.125 J0
G1 X40.7511 Y18.6643
G3 X40.5893 Y18.6771 I-0.0884 J-0.0884
G1 X39.7654 Y18.0796
G1 X39.3606 Y17.7861
G1 X34.045 Y13.9312
G3 X33.9934 Y13.83 I0.0734 J-0.1012
G3 X34.03 Y13.7416 I0.125 J0
G1 X34.7777 Y12.9939
G1 X35.1313 Y12.6404
G1 X39.6744 Y8.0973
G3 X39.8511 Y8.0973 I0.0884 J0.0884
G1 X40.9095 Y9.1557
G3 X40.9454 Y9.2303 I-0.0884 J0.0884
G1 Z-0.3 F30
G1 X41.0728 Y10.3821 F25
G1 Z-0.25 F30
G1 X41.1278 Y10.879 F25
G1 Z-0.3 F30
G1 X41.8592 Y17.4899 F25
G3 X41.86 Y17.5037 I-0.1242 J0.0137
G3 X41.8233 Y17.5921 I-0.125 J0
G1 X40.7511 Y18.6643
G3 X40.5893 Y18.6771 I-0.0884 J-0.0884
G1 X39.7654 Y18.0796
G1 Z-0.25 F30
G1 X39.3606 Y17.7861 F25
G1 Z-0.3 F30
G1 X34.045 Y13.9312 F25
G3 X33.9934 Y13.83 I0.0734 J-0.1012
G3 X34.03 Y13.7416 I0.125 J0
G1 X34.7777 Y12.9939
G1 Z-0.25 F30
G1 X35.1313 Y12.6404 F25
G1 Z-0.3 F30
G1 X39.6744 Y8.0973 F25
G3 X39.8511 Y8.0973 I0.0884 J0.0884
G1 X40.9095 Y9.1557
G3 X40.9454 Y9.2303 I-0.0884 J0.0884
G1 Z-0.45 F30
G1 X41.0728 Y10.3821 F25
G1 Z-0.25 F30
G1 X41.1278 Y10.879 F25
G1 Z-0.45 F30
G1 X41.8592 Y17.4899 F25
G3 X41.86 Y17.5037 I-0.1242 J0.0137
G3 X41.8233 Y17.5921 I-0.125 J0
G1 X40.7511 Y18.6643
G3 X40.5893 Y18.6771 I-0.0884 J-0.0884
G1 X39.7654 Y18.0796
G1 Z-0.25 F30
G1 X39.3606 Y17.7861 F25
G1 Z-0.45 F30
G1 X34.045 Y13.9312 F25
G3 X33.9934 Y13.83 I0.0734 J-0.1012
G3 X34.03 Y13.7416 I0.125 J0
G1 X34.7777 Y12.9939
G1 Z-0.25 F30
G1 X35.1313 Y12.6404 F25
G1 Z-0.45 F30
G1 X39.6744 Y8.0973 F25
G3 X39.8511 Y8.0973 I0.0884 J0.0884
G1 X40.9095 Y9.1557
G3 X40.9454 Y9.2303 I-0.0884 J0.0884
G1 Z-0.6 F30
G1 X41.0728 Y10.3821 F25
G1 Z-0.25 F30
G1 X41.1278 Y10.879 F25
G1 Z-0.6 F30
G1 X41.8592 Y17.4899 F25
G3 X41.86 Y17.5037 I-0.1242 J0.0137
G3 X41.8233 Y17.5921 I-0.125 J0
G1 X40.7511 Y18.6643
G3 X40.5893 Y18.6771 I-0.0884 J-0.0884
G1 X39.7654 Y18.0796
G1 Z-0.25 F30
G1 X39.3606 Y17.7861 F25
G1 Z-0.6 F30
G1 X34.045 Y13.9312 F25
G3 X33.9934 Y13.83 I0.0734 J-0.1012
G3 X34.03 Y13.7416 I0.125 J0
G1 X34.7777 Y12.9939
G1 Z-0.25 F30
G1 X35.1313 Y12.6404 F25
G1 Z-0.6 F30
G1 X39.6744 Y8.0973 F25
G3 X39.8511 Y8.0973 I0.0884 J0.0884
G1 X40.9095 Y9.1557
G3 X40.9454 Y9.2303 I-0.0884 J0.0884
G1 Z-0.75 F30
G1 X41.0728 Y10.3821 F25
G1 Z-0.25 F30
G1 X41.1278 Y10.879 F25
G1 Z-0.75 F30
G1 X41.8592 Y17.4899 F25
G3 X41.86 Y17.5037 I-0.1242 J0.0137
G3 X41.8233 Y17.5921 I-0.125 J0
G1 X40.7511 Y18.6643
G3 X40.5893 Y18.6771 I-0.0884 J-0.0884
G1 X39.7654 Y18.0796
G1 Z-0.25 F30
G1 X39.3606 Y17.7861 F25
G1 Z-0.75 F30
G1 X34.045 Y13.9312 F25
G3 X33.9934 Y13.83 I0.0734 J-0.1012
G3 X34.03 Y13.7416 I0.125 J0
G1 X34.7777 Y12.9939
G1 Z-0.25 F30
G1 X35.1313 Y12.6404 F25
G1 Z-0.75 F30
G1 X39.6744 Y8.0973 F25
G3 X39.8511 Y8.0973 I0.0884 J0.0884
G1 X40.9095 Y9.1557
G3 X40.9454 Y9.2303 I-0.0884 J0.0884
G1 Z-0.85 F30
G1 X41.0728 Y10.3821 F25
G1 Z-0.25 F30
G1 X41.1278 Y10.879 F25
G1 Z-0.85 F30
G1 X41.8592 Y17.4899 F25
G3 X41.86 Y17.5037 I-0.1242 J0.0137
G3 X41.8233 Y17.5921 I-0.125 J0
G1 X40.7511 Y18.6643
G3 X40.5893 Y18.6771 I-0.0884 J-0.0884
G1 X39.7654 Y18.0796
G1 Z-0.25 F30
G1 X39.3606 Y17.7861 F25
G1 Z-0.85 F30
G1 X34.045 Y13.9312 F25
G3 X33.9934 Y13.83 I0.0734 J-0.1012
G3 X34.03 Y13.7416 I0.125 J0
G1 X34.7777 Y12.9939
G1 Z-0.25 F30
G1 X35.1313 Y12.6404 F25
G1 Z-0.85 F30
G1 X39.6744 Y8.0973 F25
G3 X39.8511 Y8.0973 I0.0884 J0.0884
G1 X40.9095 Y9.1557
G3 X40.9454 Y9.2303 I-0.0884 J0.0884

(profile 14)
G0 Z0.3
G0 X41.1454 Y8.1499
G1 Z-0.15 F30
G1 X40.2056 Y7.2522 F25
G1 X39.844 Y6.9069
G1 X35.1362 Y2.41
G3 X35.0975 Y2.3197 I0.0863 J-0.0904
G3 X35.098 Y2.3088 I0.125 J0
G1 X35.1378 Y1.8538
G1 X35.1814 Y1.3557
G1 X35.2302 Y0.7981
G3 X35.3459 Y0.6843 I0.1245 J0.0109
G1 X43.4097 Y0.1133
G3 X43.5435 Y0.238 I0.0088 J0.1247
G3 X43.543 Y0.2489 I-0.125 J0
G1 X43.4288 Y1.5549
G1 X43.3852 Y2.053
G1 X42.8473 Y8.2008
G3 X42.7119 Y8.3145 I-0.1245 J-0.0109
G1 X41.2208 Y8.184
G3 X41.1454 Y8.1499 I0.0109 J-0.1245
G1 Z-0.3 F30
G1 X40.2056 Y7.2522 F25
G1 Z-0.25 F30
G1 X39.844 Y6.9069 F25
G1 Z-0.3 F30
G1 X35.1362 Y2.41 F25
G3 X35.0975 Y2.3197 I0.0863 J-0.0904
G3 X35.098 Y2.3088 I0.125 J0
G1 X35.1378 Y1.8538
G1 Z-0.25 F30
G1 X35.1814 Y1.3557 F25
G1 Z-0.3 F30
G1 X35.2302 Y0.7981 F25
G3 X35.3459 Y0.6843 I0.1245 J0.0109
G1 X43.4097 Y0.1133
G3 X43.5435 Y0.238 I0.0088 J0.1247
G3 X43.543 Y0.2489 I-0.125 J0
G1 X43.4288 Y1.5549
G1 Z-0.25 F30
G1 X43.3852 Y2.053 F25
G1 Z-0.3 F30
G1 X42.8473 Y8.2008 F25
G3 X42.7119 Y8.3145 I-0.1245 J-0.0109
G1 X41.2208 Y8.184
G3 X41.1454 Y8.1499 I0.0109 J-0.1245
G1 Z-0.45 F30
G1 X40.2056 Y7.2522 F25
G1 Z-0.25 F30
G1 X39.844 Y6.9069 F25
G1 Z-0.45 F30
G1 X35.1362 Y2.41 F25
G3 X35.0975 Y2.3197 I0.0863 J-0.0904
G3 X35.098 Y2.3088 I0.125 J0
G1 X35.1378 Y1.8538
G1 Z-0.25 F30
G1 X35.1814 Y1.3557 F25
G1 Z-0.45 F30
G1 X35.2302 Y0.7981 F25
G3 X35.3459 Y0.6843 I0.1245 J0.0109
G1 X43.4097 Y0.1133
G3 X43.5435 Y0.238 I0.0088 J0.1247
G3 X43.543 Y0.2489 I-0.125 J0
G1 X43.4288 Y1.5549
G1 Z-0.25 F30
G1 X43.3852 Y2.053 F25
G1 Z-0.45 F30
G1 X42.8473 Y8.2008 F25
G3 X42.7119 Y8.3145 I-0.1245 J-0.0109
G1 X41.2208 Y8.184
G3 X41.1454 Y8.1499 I0.0109 J-0.1245
G1 Z-0.6 F30
G1 X40.2056 Y7.2522 F25
G1 Z-0.25 F30
G1 X39.844 Y6.9069 F25
G1 Z-0.6 F30
G1 X35.1362 Y2.41 F25
G3 X35.0975 Y2.3197 I0.0863 J-0.0904
G3 X35.098 Y2.3088 I0.125 J0
G1 X35.1378 Y1.8538
G1 Z-0.25 F30
G1 X35.1814 Y1.3557 F25
G1 Z-0.6 F30
G1 X35.2302 Y0.7981 F25
G3 X35.3459 Y0.6843 I0.1245 J0.0109
G1 X43.4097 Y0.1133
G3 X43.5435 Y0.238 I0.0088 J0.1247
G3 X43.543 Y0.2489 I-0.125 J0
G1 X43.4288 Y1.5549
G1 Z-0.25 F30
G1 X43.3852 Y2.053 F25
G1 Z-0.6 F30
G1 X42.8473 Y8.2008 F25
G3 X42.7119 Y8.3145 I-0.1245 J-0.0109
G1 X41.2208 Y8.184
G3 X41.1454 Y8.1499 I0.0109 J-0.1245
G1 Z-0.75 F30
G1 X40.2056 Y7.2522 F25
G1 Z-0.25 F30
G1 X39.844 Y6.9069 F25
G1 Z-0.75 F30
G1 X35.1362 Y2.41 F25
G3 X35.0975 Y2.3197 I0.0863 J-0.0904
G3 X35.098 Y2.3088 I0.125 J0
G1 X35.1378 Y1.8538
G1 Z-0.25 F30
G1 X35.1814 Y1.3557 F25
G1 Z-0.75 F30
G1 X35.2302 Y0.7981 F25
G3 X35.3459 Y0.6843 I0.1245 J0.0109
G1 X43.4097 Y0.1133
G3 X43.5435 Y0.238 I0.0088 J0.1247
G3 X43.543 Y0.2489 I-0.125 J0
G1 X43.4288 Y1.5549
G1 Z-0.25 F30
G1 X43.3852 Y2.053 F25
G1 Z-0.75 F30
G1 X42.8473 Y8.2008 F25
G3 X42.7119 Y8.3145 I-0.1245 J-0.0109
G1 X41.2208 Y8.184
G3 X41.1454 Y8.1499 I0.0109 J-0.1245
G1 Z-0.85 F30
G1 X40.2056 Y7.2522 F25
G1 Z-0.25 F30
G1 X39.844 Y6.9069 F25
G1 Z-0.85 F30
G1 X35.1362 Y2.41 F25
G3 X35.0975 Y2.3197 I0.0863 J-0.0904
G3 X35.098 Y2.3088 I0.125 J0
G1 X35.1378 Y1.8538
G1 Z-0.25 F30
G1 X35.1814 Y1.3557 F25
G1 Z-0.85 F30
G1 X35.2302 Y0.7981 F25
G3 X35.3459 Y0.6843 I0.1245 J0.0109
G1 X43.4097 Y0.1133
G3 X43.5435 Y0.238 I0.0088 J0.1247
G3 X43.543 Y0.2489 I-0.125 J0
G1 X43.4288 Y1.5549
G1 Z-0.25 F30
G1 X43.3852 Y2.053 F25
G1 Z-0.85 F30
G1 X42.8473 Y8.2008 F25
G3 X42.7119 Y8.3145 I-0.1245 J-0.0109
G1 X41.2208 Y8.184
G3 X41.1454 Y8.1499 I0.0109 J-0.1245

(profile 15)
G0 Z0.3
G0 X47.4881 Y11.7546
G1 Z-0.15 F30
G1 X44.3999 Y3.3622 F25
G3 X44.3922 Y3.319 I0.1173 J-0.0432
G3 X44.5172 Y3.194 I0.125 J0
G1 X45.8697 Y3.194
G1 X46.3697 Y3.194
G1 X48.9239 Y3.194
G3 X49.0489 Y3.319 I0 J0.125
G1 X49.0489 Y11.2262
G3 X48.967 Y11.3435 I-0.125 J0
G1 X48.5351 Y11.5025
G1 X48.0659 Y11.6751
G1 X47.6486 Y11.8287
G3 X47.4881 Y11.7546 I-0.0432 J-0.1173
G1 Z-0.3 F30
G1 X44.3999 Y3.3622 F25
G3 X44.3922 Y3.319 I0.1173 J-0.0432
G3 X44.5172 Y3.194 I0.125 J0
G1 X45.8697 Y3.194
G1 Z-0.25 F30
G1 X46.3697 Y3.194 F25
G1 Z-0.3 F30
G1 X48.9239 Y3.194 F25
G3 X49.0489 Y3.319 I0 J0.125
G1 X49.0489 Y11.2262
G3 X48.967 Y11.3435 I-0.125 J0
G1 X48.5351 Y11.5025
G1 Z-0.25 F30
G1 X48.0659 Y11.6751 F25
G1 Z-0.3 F30
G1 X47.6486 Y11.8287 F25
G3 X47.4881 Y11.7546 I-0.0432 J-0.1173
G1 Z-0.45 F30
G1 X44.3999 Y3.3622 F25
G3 X44.3922 Y3.319 I0.1173 J-0.0432
G3 X44.5172 Y3.194 I0.125 J0
G1 X45.8697 Y3.194
G1 Z-0.25 F30
G1 X46.3697 Y3.194 F25
G1 Z-0.45 F30
G1 X48.9239 Y3.194 F25
G3 X49.0489 Y3.319 I0 J0.125
G1 X49.0489 Y11.2262
G3 X48.967 Y11.3435 I-0.125 J0
G1 X48.5351 Y11.5025
G1 Z-0.25 F30
G1 X48.0659 Y11.6751 F25
G1 Z-0.45 F30
G1 X47.6486 Y11.8287 F25
G3 X47.4881 Y11.7546 I-0.0432 J-0.1173
G1 Z-0.6 F30
G1 X44.3999 Y3.3622 F25
G3 X44.3922 Y3.319 I0.1173 J-0.0432
G3 X44.5172 Y3.194 I0.125 J0
G1 X45.8697 Y3.194
G1 Z-0.25 F30
G1 X46.3697 Y3.194 F25
G1 Z-0.6 F30
G1 X48.9239 Y3.194 F25
G3 X49.0489 Y3.319 I0 J0.125
G1 X49.0489 Y11.2262
G3 X48.967 Y11.3435 I-0.125 J0
G1 X48.5351 Y11.5025
G1 Z-0.25 F30
G1 X48.0659 Y11.6751 F25
G1 Z-0.6 F30
G1 X47.6486 Y11.8287 F25
G3 X47.4881 Y11.7546 I-0.0432 J-0.1173
G1 Z-0.75 F30
G1 X44.3999 Y3.3622 F25
G3 X44.3922 Y3.319 I0.1173 J-0.0432
G3 X44.5172 Y3.194 I0.125 J0
G1 X45.8697 Y3.194
G1 Z-0.25 F30
G1 X46.3697 Y3.194 F25
G1 Z-0.75 F30
G1 X48.9239 Y3.194 F25
G3 X49.0489 Y3.319 I0 J0.125
G1 X49.0489 Y11.2262
G3 X48.967 Y11.3435 I-0.125 J0
G1 X48.5351 Y11.5025
G1 Z-0.25 F30
G1 X48.0659 Y11.6751 F25
G1 Z-0.75 F30
G1 X47.6486 Y11.8287 F25
G3 X47.4881 Y11.7546 I-0.0432 J-0.1173
G1 Z-0.85 F30
G1 X44.3999 Y3.3622 F25
G3 X44.3922 Y3.319 I0.1173 J-0.0432
G3 X44.5172 Y3.194 I0.125 J0
G1 X45.8697 Y3.194
G1 Z-0.25 F30
G1 X46.3697 Y3.194 F25
G1 Z-0.85 F30
G1 X48.9239 Y3.194 F25
G3 X49.0489 Y3.319 I0 J0.125
G1 X49.0489 Y11.2262
G3 X48.967 Y11.3435 I-0.125 J0
G1 X48.5351 Y11.5025
G1 Z-0.25 F30
G1 X48.0659 Y11.6751 F25
G1 Z-0.85 F30
G1 X47.6486 Y11.8287 F25
G3 X47.4881 Y11.7546 I-0.0432 J-0.1173

(profile 16)
G0 Z0.3
G0 X45.1434 Y7.7609
G1 Z-0.15 F30
G1 X48.2316 Y16.1533 F25
