; Generated by Kiri:Moto 2.5.2
; Fri Jan 15 2021 07:13:48 GMT-0500 (Eastern Standard Time)
; Bed left:0 right:220 top:220 bottom:0
; Bed type: fixed
; Target: Creality.Ender.3
; --- process ---
; processName = default
; sliceHeight = 0.25
; sliceShells = 3
; sliceShellOrder = in-out
; sliceLayerStart = last
; sliceFillAngle = 45
; sliceFillOverlap = 0.3
; sliceFillSparse = 0.5
; sliceFillType = hex
; sliceSupportDensity = 0.25
; sliceSupportOffset = 1
; sliceSupportGap = 0
; sliceSupportSize = 5
; sliceSupportArea = 0.1
; sliceSupportExtra = 0
; sliceSupportAngle = 50
; sliceSupportNozzle = 0
; sliceSolidMinArea = 1
; sliceSolidLayers = 3
; sliceBottomLayers = 60
; sliceTopLayers = 3
; firstSliceHeight = 0.25
; firstLayerRate = 30
; firstLayerFillRate = 35
; firstLayerPrintMult = 1
; firstLayerNozzleTemp = 0
; firstLayerBedTemp = 0
; outputRaft = true
; outputRaftSpacing = 1
; outputTemp = 200
; outputFanMax = 255
; outputBedTemp = 60
; outputFeedrate = 50
; outputFinishrate = 50
; outputSeekrate = 80
; outputShellMult = 1.25
; outputFillMult = 1.25
; outputSparseMult = 1.25
; outputFanLayer = 1
; outputRetractDist = 3
; outputRetractSpeed = 40
; outputRetractDwell = 20
; outputBrimCount = 2
; outputBrimOffset = 2
; outputShortPoly = 100
; outputMinSpeed = 10
; outputCoastDist = 0
; outputWipeDistance = 0
; outputLayerRetract = true
; outputOriginCenter = false
; outputInvertX = false
; outputInvertY = false
; detectThinWalls = false
; sliceMinHeight = 0
; sliceAdaptive = true
; zHopDistance = 0.2
; antiBacklash = 1
; gcodePause = 
; --- startup ---
M107                     ; turn off filament cooling fan
G90                      ; set absolute positioning mode
M82                      ; set absolute positioning for extruder
M104 S200 T0     ; set extruder temperature
M140 S60 T0 ; set bed temperature
G28                      ; home axes
G92 X0 Y0 Z0 E0          ; reset all axes positions
G1 X0 Y0 Z0.25 F180      ; move XY to 0,0 and Z 0.25mm over bed
G92 E0                   ; zero the extruded
M190 S60 T0 ; wait for bed to reach target temp
M109 S200 T0     ; wait for extruder to reach target temp
G92 E0                   ; zero the extruded
G1 F225                  ; set feed speed
;; e-retract 3
G1 E-3.0000 F2400
;; --- layer 0 (0.400 @ 0.400) ---
G1 Z0.4000 F4800
G1 X118.8000 Y98.7544
G1 X118.0480 Y88.5756
G1 X117.0480 Y89.5756
;; e-engage 3
G1 E0.0000 F2400
G4 P20
G1 X118.6000 Y91.1277 E0.4587 F600
;; e-retract 3
G1 E-2.5413 F2400
;; z-hop start
G1 Z0.6000 F4800
G1 X129.8723 Y100.4000
G1 X128.8723 Y101.4000
;; z-hop end
G1 Z0.4000
;; e-engage 3
G1 E0.4587 F2400
G4 P20
G1 X130.4243 Y102.9520 E0.9174 F600
;; e-retract 3
G1 E-2.0826 F2400
;; z-hop start
G1 Z0.6000 F4800
G1 X131.4243 Y105.3461
G1 X130.4243 Y106.3461
;; z-hop end
G1 Z0.4000
;; e-engage 3
G1 E0.9174 F2400
G4 P20
G1 X125.4782 Y101.4000 E2.3792 F600
;; e-retract 3
G1 E-0.6208 F2400
;; z-hop start
G1 Z0.6000 F4800
G1 X119.6000 Y93.5218
G1 X118.6000 Y94.5218
;; z-hop end
G1 Z0.4000
;; e-engage 3
G1 E2.3792 F2400
G4 P20
G1 X113.6539 Y89.5756 E3.8410 F600
;; e-retract 3
G1 E0.8410 F2400
;; z-hop start
G1 Z0.6000 F4800
G1 X111.2597 Y88.5756
G1 X110.2597 Y89.5756
;; z-hop end
G1 Z0.4000
;; e-engage 3
G1 E3.8410 F2400
G4 P20
G1 X118.6000 Y97.9159 E6.3058 F600
;; e-retract 3
G1 E3.3058 F2400
;; z-hop start
G1 Z0.6000 F4800
G1 X123.0841 Y100.4000
G1 X122.0841 Y101.4000
;; z-hop end
G1 Z0.4000
;; e-engage 3
G1 E6.3058 F2400
G4 P20
G1 X130.4244 Y109.7402 E8.7707 F600
;; e-retract 3
G1 E5.7707 F2400
;; z-hop start
G1 Z0.6000 F4800
G1 X131.4244 Y112.1344
G1 X130.4244 Y113.1344
;; z-hop end
G1 Z0.4000
;; e-engage 3
G1 E8.7707 F2400
G4 P20
G1 X106.8657 Y89.5757 E15.7333 F600
;; e-retract 3
G1 E12.7333 F2400
;; z-hop start
G1 Z0.6000 F4800
G1 X104.4716 Y88.5757
G1 X103.4716 Y89.5757
;; z-hop end
G1 Z0.4000
;; e-engage 3
G1 E15.7333 F2400
G4 P20
G1 X130.4244 Y116.5285 E23.6990 F600
;; e-retract 3
G1 E20.6990 F2400
;; z-hop start
G1 Z0.6000 F4800
G1 X130.1018 Y117.6000
G1 X129.1018 Y118.6000
;; z-hop end
G1 Z0.4000
;; e-engage 3
G1 E23.6990 F2400
G4 P20
G1 X101.4000 Y90.8982 E31.8860 F600
;; e-retract 3
G1 E28.8860 F2400
;; z-hop start
G1 Z0.6000 F4800
G1 X102.4000 Y93.2923
G1 X101.4000 Y94.2923
;; z-hop end
G1 Z0.4000
;; e-engage 3
G1 E31.8860 F2400
G4 P20
G1 X125.7077 Y118.6000 E39.0700 F600
;; e-retract 3
G1 E36.0700 F2400
;; z-hop start
G1 Z0.6000 F4800
G1 X123.3135 Y117.6000
G1 X122.3135 Y118.6000
;; z-hop end
G1 Z0.4000
;; e-engage 3
G1 E39.0700 F2400
G4 P20
G1 X101.4000 Y97.6865 E45.2508 F600
;; e-retract 3
G1 E42.2508 F2400
;; z-hop start
G1 Z0.6000 F4800
G1 X101.2784 Y98.9589
G1 X100.2784 Y99.9589
;; z-hop end
G1 Z0.4000
;; e-engage 3
G1 E45.2508 F2400
G4 P20
G1 X120.0411 Y119.7216 E51.0915 F600
;; e-retract 3
G1 E48.0915 F2400
;; z-hop start
G1 Z0.6000 F4800
G1 X119.6000 Y120.6747
G1 X118.6000 Y121.6747
;; z-hop end
G1 Z0.4000
;; e-engage 3
G1 E51.0915 F2400
G4 P20
G1 X98.3253 Y101.4000 E57.0835 F600
;; e-retract 3
G1 E54.0835 F2400
;; z-hop start
G1 Z0.6000 F4800
G1 X95.9312 Y100.4000
G1 X94.9312 Y101.4000
;; z-hop end
G1 Z0.4000
;; e-engage 3
G1 E57.0835 F2400
G4 P20
G1 X118.6000 Y125.0688 E64.0786 F600
;; e-retract 3
G1 E61.0786 F2400
;; z-hop start
G1 Z0.6000 F4800
G1 X119.6000 Y127.4629
G1 X118.6000 Y128.4629
;; z-hop end
G1 Z0.4000
;; e-engage 3
G1 E64.0786 F2400
G4 P20
G1 X91.5371 Y101.4000 E72.0768 F600
;; e-retract 3
G1 E69.0768 F2400
;; z-hop start
G1 Z0.6000 F4800
G1 X90.5756 Y101.8326
G1 X89.5756 Y102.8326
;; z-hop end
G1 Z0.4000
;; e-engage 3
G1 E72.0768 F2400
G4 P20
G1 X117.1674 Y130.4244 E80.2314 F600
;; e-retract 3
G1 E77.2314 F2400
;; z-hop start
G1 Z0.6000 F4800
G1 X114.7732 Y129.4244
G1 X113.7732 Y130.4244
;; z-hop end
G1 Z0.4000
;; e-engage 3
G1 E80.2314 F2400
G4 P20
G1 X89.5756 Y106.2267 E87.3828 F600
;; e-retract 3
G1 E84.3828 F2400
;; z-hop start
G1 Z0.6000 F4800
G1 X90.5756 Y108.6209
G1 X89.5756 Y109.6209
;; z-hop end
G1 Z0.4000
;; e-engage 3
G1 E87.3828 F2400
G4 P20
G1 X98.5548 Y118.6000 E90.0365 F600
;; e-retract 3
G1 E87.0365 F2400
;; z-hop start
G1 Z0.6000 F4800
G1 X102.4000 Y120.4453
G1 X101.4000 Y121.4453
;; z-hop end
G1 Z0.4000
;; e-engage 3
G1 E90.0365 F2400
G4 P20
G1 X110.3791 Y130.4244 E92.6902 F600
;; e-retract 3
G1 E89.6902 F2400
;; z-hop start
G1 Z0.6000 F4800
G1 X107.9850 Y129.4243
G1 X106.9850 Y130.4243
;; z-hop end
G1 Z0.4000
;; e-engage 3
G1 E92.6902 F2400
G4 P20
G1 X101.4000 Y124.8394 E94.3408 F600
;; e-retract 3
G1 E91.3408 F2400
;; z-hop start
G1 Z0.6000 F4800
G1 X96.1606 Y117.6000
G1 X95.1606 Y118.6000
;; z-hop end
G1 Z0.4000
;; e-engage 3
G1 E94.3408 F2400
G4 P20
G1 X89.5756 Y113.0150 E95.9914 F600
;; e-retract 3
G1 E92.9914 F2400
;; z-hop start
G1 Z0.6000 F4800
G1 X90.5756 Y115.4091
G1 X89.5756 Y116.4091
;; z-hop end
G1 Z0.4000
;; e-engage 3
G1 E95.9914 F2400
G4 P20
G1 X91.7665 Y118.6000 E96.6389 F600
;; e-retract 3
G1 E93.6389 F2400
;; z-hop start
G1 Z0.6000 F4800
G1 X102.4000 Y127.2335
G1 X101.4000 Y128.2335
;; z-hop end
G1 Z0.4000
;; e-engage 3
G1 E96.6389 F2400
G4 P20
G1 X103.5909 Y130.4243 E97.2864 F600
;; --- layer 1 (0.400 @ 0.800) ---
;; e-retract 3
G1 E94.2864 F2400
M106 S255
G1 Z0.8000 F4800
G1 X103.5909 Y130.4243
G1 X129.8723 Y100.4000
G1 X128.8723 Y101.4000
;; e-engage 3
G1 E97.2864 F2400
G4 P20
G1 X130.4243 Y102.9520 E97.7451 F900
;; e-retract 3
G1 E94.7451 F2400
;; z-hop start
G1 Z1.0000 F4800
G1 X118.0480 Y88.5756
G1 X117.0480 Y89.5756
;; z-hop end
G1 Z0.8000
;; e-engage 3
G1 E97.7451 F2400
G4 P20
G1 X118.6000 Y91.1277 E98.2038 F900
;; e-retract 3
G1 E95.2038 F2400
;; z-hop start
G1 Z1.0000 F4800
G1 X119.6000 Y93.5218
G1 X118.6000 Y94.5218
;; z-hop end
G1 Z0.8000
;; e-engage 3
G1 E98.2038 F2400
G4 P20
G1 X113.6539 Y89.5756 E99.6656 F900
;; e-retract 3
G1 E96.6656 F2400
;; z-hop start
G1 Z1.0000 F4800
G1 X131.4243 Y105.3461
G1 X130.4243 Y106.3461
;; z-hop end
G1 Z0.8000
;; e-engage 3
G1 E99.6656 F2400
G4 P20
G1 X125.4782 Y101.4000 E101.1274 F900
;; e-retract 3
G1 E98.1274 F2400
;; z-hop start
G1 Z1.0000 F4800
G1 X123.0841 Y100.4000
G1 X122.0841 Y101.4000
;; z-hop end
G1 Z0.8000
;; e-engage 3
G1 E101.1274 F2400
G4 P20
G1 X130.4244 Y109.7402 E103.5922 F900
;; e-retract 3
G1 E100.5922 F2400
;; z-hop start
G1 Z1.0000 F4800
G1 X111.2597 Y88.5756
G1 X110.2597 Y89.5756
;; z-hop end
G1 Z0.8000
;; e-engage 3
G1 E103.5922 F2400
G4 P20
G1 X118.6000 Y97.9159 E106.0571 F900
;; e-retract 3
G1 E103.0571 F2400
;; z-hop start
G1 Z1.0000 F4800
G1 X131.4244 Y112.1344
G1 X130.4244 Y113.1344
;; z-hop end
G1 Z0.8000
;; e-engage 3
G1 E106.0571 F2400
G4 P20
G1 X106.8657 Y89.5757 E113.0197 F900
;; e-retract 3
G1 E110.0197 F2400
;; z-hop start
G1 Z1.0000 F4800
G1 X104.4716 Y88.5757
G1 X103.4716 Y89.5757
;; z-hop end
G1 Z0.8000
;; e-engage 3
G1 E113.0197 F2400
G4 P20
G1 X130.4244 Y116.5285 E120.9854 F900
;; e-retract 3
G1 E117.9854 F2400
;; z-hop start
G1 Z1.0000 F4800
G1 X130.1018 Y117.6000
G1 X129.1018 Y118.6000
;; z-hop end
G1 Z0.8000
;; e-engage 3
G1 E120.9854 F2400
G4 P20
G1 X101.4000 Y90.8982 E129.1724 F900
;; e-retract 3
G1 E126.1724 F2400
;; z-hop start
G1 Z1.0000 F4800
G1 X102.4000 Y93.2923
G1 X101.4000 Y94.2923
;; z-hop end
G1 Z0.8000
;; e-engage 3
G1 E129.1724 F2400
G4 P20
G1 X125.7077 Y118.6000 E136.3564 F900
;; e-retract 3
G1 E133.3564 F2400
;; z-hop start
G1 Z1.0000 F4800
G1 X123.3135 Y117.6000
G1 X122.3135 Y118.6000
;; z-hop end
G1 Z0.8000
;; e-engage 3
G1 E136.3564 F2400
G4 P20
G1 X101.4000 Y97.6865 E142.5372 F900
;; e-retract 3
G1 E139.5372 F2400
;; z-hop start
G1 Z1.0000 F4800
G1 X101.2784 Y98.9589
G1 X100.2784 Y99.9589
;; z-hop end
G1 Z0.8000
;; e-engage 3
G1 E142.5372 F2400
G4 P20
G1 X120.0411 Y119.7216 E148.3779 F900
;; e-retract 3
G1 E145.3779 F2400
;; z-hop start
G1 Z1.0000 F4800
G1 X119.6000 Y120.6747
G1 X118.6000 Y121.6747
;; z-hop end
G1 Z0.8000
;; e-engage 3
G1 E148.3779 F2400
G4 P20
G1 X98.3253 Y101.4000 E154.3699 F900
;; e-retract 3
G1 E151.3699 F2400
;; z-hop start
G1 Z1.0000 F4800
G1 X95.9312 Y100.4000
G1 X94.9312 Y101.4000
;; z-hop end
G1 Z0.8000
;; e-engage 3
G1 E154.3699 F2400
G4 P20
G1 X118.6000 Y125.0688 E161.3650 F900
;; e-retract 3
G1 E158.3650 F2400
;; z-hop start
G1 Z1.0000 F4800
G1 X119.6000 Y127.4629
G1 X118.6000 Y128.4629
;; z-hop end
G1 Z0.8000
;; e-engage 3
G1 E161.3650 F2400
G4 P20
G1 X91.5371 Y101.4000 E169.3632 F900
;; e-retract 3
G1 E166.3632 F2400
;; z-hop start
G1 Z1.0000 F4800
G1 X90.5756 Y101.8326
G1 X89.5756 Y102.8326
;; z-hop end
G1 Z0.8000
;; e-engage 3
G1 E169.3632 F2400
G4 P20
G1 X117.1674 Y130.4244 E177.5178 F900
;; e-retract 3
G1 E174.5178 F2400
;; z-hop start
G1 Z1.0000 F4800
G1 X114.7732 Y129.4244
G1 X113.7732 Y130.4244
;; z-hop end
G1 Z0.8000
;; e-engage 3
G1 E177.5178 F2400
G4 P20
G1 X89.5756 Y106.2267 E184.6692 F900
;; e-retract 3
G1 E181.6692 F2400
;; z-hop start
G1 Z1.0000 F4800
G1 X90.5756 Y108.6209
G1 X89.5756 Y109.6209
;; z-hop end
G1 Z0.8000
;; e-engage 3
G1 E184.6692 F2400
G4 P20
G1 X98.5548 Y118.6000 E187.3229 F900
;; e-retract 3
G1 E184.3229 F2400
;; z-hop start
G1 Z1.0000 F4800
G1 X102.4000 Y120.4453
G1 X101.4000 Y121.4453
;; z-hop end
G1 Z0.8000
;; e-engage 3
G1 E187.3229 F2400
G4 P20
G1 X110.3791 Y130.4244 E189.9766 F900
;; e-retract 3
G1 E186.9766 F2400
;; z-hop start
G1 Z1.0000 F4800
G1 X107.9850 Y129.4243
G1 X106.9850 Y130.4243
;; z-hop end
G1 Z0.8000
;; e-engage 3
G1 E189.9766 F2400
G4 P20
G1 X101.4000 Y124.8394 E191.6272 F900
;; e-retract 3
G1 E188.6272 F2400
;; z-hop start
G1 Z1.0000 F4800
G1 X96.1606 Y117.6000
G1 X95.1606 Y118.6000
;; z-hop end
G1 Z0.8000
;; e-engage 3
G1 E191.6272 F2400
G4 P20
G1 X89.5756 Y113.0150 E193.2778 F900
;; e-retract 3
G1 E190.2778 F2400
;; z-hop start
G1 Z1.0000 F4800
G1 X90.5756 Y115.4091
G1 X89.5756 Y116.4091
;; z-hop end
G1 Z0.8000
;; e-engage 3
G1 E193.2778 F2400
G4 P20
G1 X91.7665 Y118.6000 E193.9253 F900
;; e-retract 3
G1 E190.9253 F2400
;; z-hop start
G1 Z1.0000 F4800
G1 X102.4000 Y127.2335
G1 X101.4000 Y128.2335
;; z-hop end
G1 Z0.8000
;; e-engage 3
G1 E193.9253 F2400
G4 P20
G1 X103.5909 Y130.4243 E194.5728 F900
;; --- layer 2 (0.200 @ 1.000) ---
;; e-retract 3
G1 E191.5728 F2400
G1 Z1.0000 F4800
G1 X103.5909 Y130.4243
G1 X90.5756 Y101.9521
G1 X89.5756 Y102.9521
;; e-engage 3
G1 E194.5728 F2400
G4 P20
G1 X91.1277 Y101.4000 E194.7161 F3000
;; e-retract 3
G1 E191.7161 F2400
;; z-hop start
G1 Z1.2000 F4800
G1 X102.4000 Y90.1277
G1 X101.4000 Y91.1277
;; z-hop end
G1 Z1.0000
;; e-engage 3
G1 E194.7161 F2400
G4 P20
G1 X102.9520 Y89.5757 E194.8595 F3000
;; e-retract 3
G1 E191.8595 F2400
;; z-hop start
G1 Z1.2000 F4800
G1 X105.6490 Y88.5757
G1 X104.6490 Y89.5757
;; z-hop end
G1 Z1.0000
;; e-engage 3
G1 E194.8595 F2400
G4 P20
G1 X101.4000 Y92.8247 E195.1595 F3000
;; e-retract 3
G1 E192.1595 F2400
;; z-hop start
G1 Z1.2000 F4800
G1 X93.8247 Y100.4000
G1 X92.8247 Y101.4000
;; z-hop end
G1 Z1.0000
;; e-engage 3
G1 E195.1595 F2400
G4 P20
G1 X89.5756 Y104.6491 E195.4596 F3000
;; e-retract 3
G1 E192.4596 F2400
;; z-hop start
G1 Z1.2000 F4800
G1 X90.5756 Y105.3462
G1 X89.5756 Y106.3462
;; z-hop end
G1 Z1.0000
;; e-engage 3
G1 E195.4596 F2400
G4 P20
G1 X94.5218 Y101.4000 E195.9164 F3000
;; e-retract 3
G1 E192.9164 F2400
;; z-hop start
G1 Z1.2000 F4800
G1 X102.4000 Y93.5218
G1 X101.4000 Y94.5218
;; z-hop end
G1 Z1.0000
;; e-engage 3
G1 E195.9164 F2400
G4 P20
G1 X106.3461 Y89.5757 E196.3732 F3000
;; e-retract 3
G1 E193.3732 F2400
;; z-hop start
G1 Z1.2000 F4800
G1 X109.0432 Y88.5757
G1 X108.0432 Y89.5757
;; z-hop end
G1 Z1.0000
;; e-engage 3
G1 E196.3732 F2400
G4 P20
G1 X101.4000 Y96.2188 E196.9868 F3000
;; e-retract 3
G1 E193.9868 F2400
;; z-hop start
G1 Z1.2000 F4800
G1 X97.2188 Y100.4000
G1 X96.2188 Y101.4000
;; z-hop end
G1 Z1.0000
;; e-engage 3
G1 E196.9868 F2400
G4 P20
G1 X89.5756 Y108.0432 E197.6003 F3000
;; e-retract 3
G1 E194.6003 F2400
;; z-hop start
G1 Z1.2000 F4800
G1 X90.5756 Y108.7403
G1 X89.5756 Y109.7403
;; z-hop end
G1 Z1.0000
;; e-engage 3
G1 E197.6003 F2400
G4 P20
G1 X97.9159 Y101.4000 E198.3706 F3000
;; e-retract 3
G1 E195.3706 F2400
;; z-hop start
G1 Z1.2000 F4800
G1 X102.4000 Y96.9159
G1 X101.4000 Y97.9159
;; z-hop end
G1 Z1.0000
;; e-engage 3
G1 E198.3706 F2400
G4 P20
G1 X109.7402 Y89.5756 E199.1409 F3000
;; e-retract 3
G1 E196.1409 F2400
;; z-hop start
G1 Z1.2000 F4800
G1 X112.4373 Y88.5756
G1 X111.4373 Y89.5756
;; z-hop end
G1 Z1.0000
;; e-engage 3
G1 E199.1409 F2400
G4 P20
G1 X89.5756 Y111.4373 E201.1600 F3000
;; e-retract 3
G1 E198.1600 F2400
;; z-hop start
G1 Z1.2000 F4800
G1 X90.5756 Y112.1344
G1 X89.5756 Y113.1344
;; z-hop end
G1 Z1.0000
;; e-engage 3
G1 E201.1600 F2400
G4 P20
G1 X113.1344 Y89.5756 E203.3358 F3000
;; e-retract 3
G1 E200.3358 F2400
;; z-hop start
G1 Z1.2000 F4800
G1 X115.8314 Y88.5756
G1 X114.8314 Y89.5756
;; z-hop end
G1 Z1.0000
;; e-engage 3
G1 E203.3358 F2400
G4 P20
G1 X89.5756 Y114.8315 E205.6683 F3000
;; e-retract 3
G1 E202.6683 F2400
;; z-hop start
G1 Z1.2000 F4800
G1 X90.5756 Y115.5285
G1 X89.5756 Y116.5285
;; z-hop end
G1 Z1.0000
;; e-engage 3
G1 E205.6683 F2400
G4 P20
G1 X116.5285 Y89.5756 E208.1576 F3000
;; e-retract 3
G1 E205.1576 F2400
;; z-hop start
G1 Z1.2000 F4800
G1 X119.2255 Y88.5756
G1 X118.2255 Y89.5756
;; z-hop end
G1 Z1.0000
;; e-engage 3
G1 E208.1576 F2400
G4 P20
G1 X89.5756 Y118.2256 E210.8036 F3000
G1 X90.8982 Y118.6000 F4800
G1 X118.6000 Y90.8982 E213.3621 F3000
;; e-retract 3
G1 E210.3621 F2400
;; z-hop start
G1 Z1.2000 F4800
G1 X119.6000 Y91.5953
G1 X118.6000 Y92.5953
;; z-hop end
G1 Z1.0000
;; e-engage 3
G1 E213.3621 F2400
G4 P20
G1 X92.5953 Y118.6000 E215.7638 F3000
;; e-retract 3
G1 E212.7638 F2400
;; z-hop start
G1 Z1.2000 F4800
G1 X95.2923 Y117.6000
G1 X94.2923 Y118.6000
;; z-hop end
G1 Z1.0000
;; e-engage 3
G1 E215.7638 F2400
G4 P20
G1 X118.6000 Y94.2923 E218.0088 F3000
;; e-retract 3
G1 E215.0088 F2400
;; z-hop start
G1 Z1.2000 F4800
G1 X119.6000 Y94.9894
G1 X118.6000 Y95.9894
;; z-hop end
G1 Z1.0000
;; e-engage 3
G1 E218.0088 F2400
G4 P20
G1 X95.9894 Y118.6000 E220.0970 F3000
;; e-retract 3
G1 E217.0970 F2400
;; z-hop start
G1 Z1.2000 F4800
G1 X98.6865 Y117.6000
G1 X97.6865 Y118.6000
;; z-hop end
G1 Z1.0000
;; e-engage 3
