; Generated by Kiri:Moto 2.5.2
; Thu Jan 14 2021 18:54:04 GMT-0500 (Eastern Standard Time)
; Bed left:0 right:220 top:220 bottom:0
; Bed type: fixed
; Target: Creality.Ender.3
; --- process ---
; processName = default
; sliceHeight = 0.25
; sliceShells = 3
; sliceShellOrder = in-out
; sliceLayerStart = last
; sliceFillAngle = 45
; sliceFillOverlap = 0.3
; sliceFillSparse = 0.5
; sliceFillType = hex
; sliceSupportDensity = 0.25
; sliceSupportOffset = 1
; sliceSupportGap = 0
; sliceSupportSize = 5
; sliceSupportArea = 0.1
; sliceSupportExtra = 0
; sliceSupportAngle = 50
; sliceSupportNozzle = 0
; sliceSolidMinArea = 1
; sliceSolidLayers = 3
; sliceBottomLayers = 3
; sliceTopLayers = 3
; firstSliceHeight = 0.25
; firstLayerRate = 30
; firstLayerFillRate = 35
; firstLayerPrintMult = 1
; firstLayerNozzleTemp = 0
; firstLayerBedTemp = 0
; outputRaft = false
; outputRaftSpacing = 0.2
; outputTemp = 200
; outputFanMax = 255
; outputBedTemp = 60
; outputFeedrate = 50
; outputFinishrate = 50
; outputSeekrate = 80
; outputShellMult = 1.25
; outputFillMult = 1.25
; outputSparseMult = 1.25
; outputFanLayer = 1
; outputRetractDist = 1.5
; outputRetractSpeed = 40
; outputRetractDwell = 20
; outputBrimCount = 2
; outputBrimOffset = 2
; outputShortPoly = 100
; outputMinSpeed = 10
; outputCoastDist = 0
; outputWipeDistance = 0
; outputLayerRetract = false
; outputOriginCenter = false
; outputInvertX = false
; outputInvertY = false
; detectThinWalls = false
; sliceMinHeight = 0
; sliceAdaptive = false
; zHopDistance = 0.2
; antiBacklash = 1
; gcodePause = 
; --- startup ---
M107                     ; turn off filament cooling fan
G90                      ; set absolute positioning mode
M82                      ; set absolute positioning for extruder
M104 S200 T0     ; set extruder temperature
M140 S60 T0 ; set bed temperature
G28                      ; home axes
G92 X0 Y0 Z0 E0          ; reset all axes positions
G1 X0 Y0 Z0.25 F180      ; move XY to 0,0 and Z 0.25mm over bed
G92 E0                   ; zero the extruded
M190 S60 T0 ; wait for bed to reach target temp
M109 S200 T0     ; wait for extruder to reach target temp
G92 E0                   ; zero the extruded
G1 F225                  ; set feed speed
;; e-retract 1.5
G1 E-1.5000 F2400
;; --- layer 0 (0.250 @ 0.250) ---
G1 Z0.2500 F4800
G1 X100.5091 Y100.8000
;; e-engage 1.5
G1 E0.0000 F2400
G4 P20
G1 X100.5091 Y119.2000 E0.7510 F1667
G1 X126.5579 Y119.2000 E1.8142
G1 X126.5579 Y100.8000 E2.5653
G1 X100.5091 Y100.8000 E3.6285
G1 X100.1091 Y100.4000 F4800
G1 X100.1091 Y119.6000 E4.4121 F1705
G1 X126.9579 Y119.6000 E5.5080
G1 X126.9579 Y100.4000 E6.2917
G1 X100.1091 Y100.4000 E7.3876
;; e-retract 1.5
G1 E5.8876 F2400
;; z-hop start
G1 Z0.4500 F4800
G1 X100.1091 Y100.4000
G1 X103.7091 Y104.0000
;; z-hop end
G1 Z0.2500
;; e-engage 1.5
G1 E7.3876 F2400
G4 P20
G1 X103.7091 Y116.0000 E7.8774 F1360
G1 X123.3579 Y116.0000 E8.6793
G1 X123.3579 Y104.0000 E9.1691
G1 X103.7091 Y104.0000 E9.9711
G1 X103.3091 Y103.6000 F4800
G1 X103.3091 Y116.4000 E10.4936 F1398
G1 X123.7579 Y116.4000 E11.3282
G1 X123.7579 Y103.6000 E11.8507
G1 X103.3091 Y103.6000 E12.6853
G1 X102.9091 Y103.2000 F4800
G1 X102.9091 Y116.8000 E13.2404 F1436
G1 X124.1579 Y116.8000 E14.1077
G1 X124.1579 Y103.2000 E14.6628
G1 X102.9091 Y103.2000 E15.5301
;; e-retract 1.5
G1 E14.0301 F2400
;; z-hop start
G1 Z0.4500 F4800
G1 X124.0779 Y103.8457
G1 X123.0779 Y104.8457
;; z-hop end
G1 Z0.2500
;; e-engage 1.5
G1 E15.5301 F2400
G4 P20
G1 X122.5122 Y104.2800 E15.5628 F2100
G1 X121.9465 Y104.2800 E15.5859
G1 X123.0779 Y105.4114 E15.6512
G1 X123.0779 Y105.9771 E15.6743
G1 X121.3808 Y104.2800 E15.7722
G1 X120.8152 Y104.2800 E15.7953
G1 X123.0779 Y106.5427 E15.9259
G1 X123.0779 Y107.1084 E15.9490
G1 X120.2495 Y104.2800 E16.1123
G1 X119.6838 Y104.2800 E16.1354
G1 X123.0779 Y107.6741 E16.3313
G1 X123.0779 Y108.2398 E16.3544
G1 X119.1181 Y104.2800 E16.5829
G1 X118.5524 Y104.2800 E16.6060
G1 X123.0779 Y108.8055 E16.8673
G1 X123.0779 Y109.3712 E16.8903
G1 X117.9867 Y104.2800 E17.1842
G1 X117.4210 Y104.2800 E17.2073
G1 X123.0779 Y109.9369 E17.5338
G1 X123.0779 Y110.5025 E17.5569
G1 X116.8554 Y104.2800 E17.9161
G1 X116.2897 Y104.2800 E17.9392
G1 X123.0779 Y111.0682 E18.3310
G1 X123.0779 Y111.6339 E18.3541
G1 X115.7240 Y104.2800 E18.7786
G1 X115.1583 Y104.2800 E18.8017
G1 X123.0779 Y112.1996 E19.2589
G1 X123.0779 Y112.7653 E19.2819
G1 X114.5926 Y104.2800 E19.7717
G1 X114.0269 Y104.2800 E19.7948
G1 X123.0779 Y113.3310 E20.3173
G1 X123.0779 Y113.8966 E20.3404
G1 X113.4612 Y104.2800 E20.8955
G1 X112.8956 Y104.2800 E20.9186
G1 X123.0779 Y114.4623 E21.5063
G1 X123.0779 Y115.0280 E21.5294
G1 X112.3299 Y104.2800 E22.1498
G1 X111.7642 Y104.2800 E22.1729
G1 X123.0779 Y115.5937 E22.8260
G1 X122.6385 Y115.7200 E22.8446
G1 X111.1985 Y104.2800 E23.5050
G1 X110.6328 Y104.2800 E23.5281
G1 X122.0728 Y115.7200 E24.1884
G1 X121.5071 Y115.7200 E24.2115
G1 X110.0671 Y104.2800 E24.8719
G1 X109.5014 Y104.2800 E24.8949
G1 X120.9414 Y115.7200 E25.5553
G1 X120.3758 Y115.7200 E25.5784
G1 X108.9358 Y104.2800 E26.2387
G1 X108.3701 Y104.2800 E26.2618
G1 X119.8101 Y115.7200 E26.9222
G1 X119.2444 Y115.7200 E26.9453
G1 X107.8044 Y104.2800 E27.6056
G1 X107.2387 Y104.2800 E27.6287
G1 X118.6787 Y115.7200 E28.2891
G1 X118.1130 Y115.7200 E28.3121
G1 X106.6730 Y104.2800 E28.9725
G1 X106.1073 Y104.2800 E28.9956
G1 X117.5473 Y115.7200 E29.6559
G1 X116.9816 Y115.7200 E29.6790
G1 X105.5416 Y104.2800 E30.3394
G1 X104.9760 Y104.2800 E30.3625
G1 X116.4160 Y115.7200 E31.0228
G1 X115.8503 Y115.7200 E31.0459
G1 X104.4103 Y104.2800 E31.7063
G1 X103.9891 Y104.4245 E31.7244
G1 X115.2846 Y115.7200 E32.3764
G1 X114.7189 Y115.7200 E32.3995
G1 X103.9891 Y104.9902 E33.0189
G1 X103.9891 Y105.5559 E33.0420
G1 X114.1532 Y115.7200 E33.6287
G1 X113.5875 Y115.7200 E33.6518
G1 X103.9891 Y106.1216 E34.2058
G1 X103.9891 Y106.6873 E34.2289
G1 X113.0218 Y115.7200 E34.7503
G1 X112.4562 Y115.7200 E34.7734
G1 X103.9891 Y107.2529 E35.2621
G1 X103.9891 Y107.8186 E35.2852
G1 X111.8905 Y115.7200 E35.7413
G1 X111.3248 Y115.7200 E35.7644
G1 X103.9891 Y108.3843 E36.1879
G1 X103.9891 Y108.9500 E36.2109
G1 X110.7591 Y115.7200 E36.6017
G1 X110.1934 Y115.7200 E36.6248
G1 X103.9891 Y109.5157 E36.9829
G1 X103.9891 Y110.0814 E37.0060
G1 X109.6277 Y115.7200 E37.3315
G1 X109.0621 Y115.7200 E37.3546
G1 X103.9891 Y110.6470 E37.6474
G1 X103.9891 Y111.2127 E37.6705
G1 X108.4964 Y115.7200 E37.9307
G1 X107.9307 Y115.7200 E37.9538
G1 X103.9891 Y111.7784 E38.1813
G1 X103.9891 Y112.3441 E38.2044
G1 X107.3650 Y115.7200 E38.3993
G1 X106.7993 Y115.7200 E38.4223
G1 X103.9891 Y112.9098 E38.5846
G1 X103.9891 Y113.4755 E38.6077
G1 X106.2336 Y115.7200 E38.7372
G1 X105.6679 Y115.7200 E38.7603
G1 X103.9891 Y114.0412 E38.8572
G1 X103.9891 Y114.6068 E38.8803
G1 X105.1023 Y115.7200 E38.9446
G1 X104.2628 Y115.4463 E38.9806
;; --- layer 1 (0.250 @ 0.500) ---
M106 S255
G1 Z0.5000 F4800
G1 X104.2628 Y115.4463
G1 X103.0940 Y116.0000
G1 X123.9730 Y116.0000 E39.8328 F2178
G1 X123.9730 Y104.0000 E40.3226
G1 X103.0940 Y104.0000 E41.1748
G1 X103.0940 Y116.0000 E41.6646
G1 X102.6940 Y116.4000 F4800
G1 X124.3730 Y116.4000 E42.5494 F2255
G1 X124.3730 Y103.6000 E43.0719
G1 X102.6940 Y103.6000 E43.9568
G1 X102.6940 Y116.4000 E44.4792
G1 X102.2940 Y116.8000 F4800
G1 X124.7730 Y116.8000 E45.3967 F2332
G1 X124.7730 Y103.2000 E45.9518
G1 X102.2940 Y103.2000 E46.8693
G1 X102.2940 Y116.8000 E47.4244
;; e-retract 1.5
G1 E45.9244 F2400
;; z-hop start
G1 Z0.7000 F4800
G1 X104.9397 Y103.2800
G1 X103.9397 Y104.2800
;; z-hop end
G1 Z0.5000
;; e-engage 1.5
G1 E47.4244 F2400
G4 P20
G1 X103.3740 Y104.8457 E47.4571 F3000
G1 X103.3740 Y105.4114 E47.4802
G1 X104.5054 Y104.2800 E47.5455
G1 X105.0711 Y104.2800 E47.5686
G1 X103.3740 Y105.9771 E47.6665
G1 X103.3740 Y106.5427 E47.6896
G1 X105.6367 Y104.2800 E47.8202
G1 X106.2024 Y104.2800 E47.8433
G1 X103.3740 Y107.1084 E48.0066
G1 X103.3740 Y107.6741 E48.0297
G1 X106.7681 Y104.2800 E48.2256
G1 X107.3338 Y104.2800 E48.2487
G1 X103.3740 Y108.2398 E48.4772
G1 X103.3740 Y108.8055 E48.5003
G1 X107.8995 Y104.2800 E48.7616
G1 X108.4652 Y104.2800 E48.7847
G1 X103.3740 Y109.3712 E49.0785
G1 X103.3740 Y109.9369 E49.1016
G1 X109.0309 Y104.2800 E49.4281
G1 X109.5965 Y104.2800 E49.4512
G1 X103.3740 Y110.5025 E49.8104
G1 X103.3740 Y111.0682 E49.8335
G1 X110.1622 Y104.2800 E50.2253
G1 X110.7279 Y104.2800 E50.2484
G1 X103.3740 Y111.6339 E50.6729
G1 X103.3740 Y112.1996 E50.6960
G1 X111.2936 Y104.2800 E51.1532
G1 X111.8593 Y104.2800 E51.1762
G1 X103.3740 Y112.7653 E51.6660
G1 X103.3740 Y113.3310 E51.6891
G1 X112.4250 Y104.2800 E52.2116
G1 X112.9907 Y104.2800 E52.2347
G1 X103.3740 Y113.8966 E52.7898
G1 X103.3740 Y114.4623 E52.8129
G1 X113.5563 Y104.2800 E53.4006
G1 X114.1220 Y104.2800 E53.4237
G1 X103.3740 Y115.0280 E54.0441
G1 X103.3740 Y115.5937 E54.0672
G1 X114.6877 Y104.2800 E54.7203
G1 X115.2534 Y104.2800 E54.7434
G1 X103.8134 Y115.7200 E55.4037
G1 X104.3791 Y115.7200 E55.4268
G1 X115.8191 Y104.2800 E56.0871
G1 X116.3848 Y104.2800 E56.1102
G1 X104.9448 Y115.7200 E56.7706
G1 X105.5105 Y115.7200 E56.7937
G1 X116.9505 Y104.2800 E57.4540
G1 X117.5161 Y104.2800 E57.4771
G1 X106.0761 Y115.7200 E58.1375
G1 X106.6418 Y115.7200 E58.1606
G1 X118.0818 Y104.2800 E58.8209
G1 X118.6475 Y104.2800 E58.8440
G1 X107.2075 Y115.7200 E59.5043
G1 X107.7732 Y115.7200 E59.5274
G1 X119.2132 Y104.2800 E60.1878
G1 X119.7789 Y104.2800 E60.2109
G1 X108.3389 Y115.7200 E60.8712
G1 X108.9046 Y115.7200 E60.8943
G1 X120.3446 Y104.2800 E61.5547
G1 X120.9103 Y104.2800 E61.5778
G1 X109.4703 Y115.7200 E62.2381
G1 X110.0359 Y115.7200 E62.2612
G1 X121.4759 Y104.2800 E62.9215
G1 X122.0416 Y104.2800 E62.9446
G1 X110.6016 Y115.7200 E63.6050
G1 X111.1673 Y115.7200 E63.6281
G1 X122.6073 Y104.2800 E64.2884
G1 X123.1730 Y104.2800 E64.3115
G1 X111.7330 Y115.7200 E64.9719
G1 X112.2987 Y115.7200 E64.9950
G1 X123.6930 Y104.3257 E65.6527
G1 X123.6930 Y104.8914 E65.6758
G1 X112.8644 Y115.7200 E66.3008
G1 X113.4301 Y115.7200 E66.3239
G1 X123.6930 Y105.4570 E66.9163
G1 X123.6930 Y106.0227 E66.9394
G1 X113.9957 Y115.7200 E67.4992
G1 X114.5614 Y115.7200 E67.5223
G1 X123.6930 Y106.5884 E68.0494
G1 X123.6930 Y107.1541 E68.0724
G1 X115.1271 Y115.7200 E68.5669
G1 X115.6928 Y115.7200 E68.5900
G1 X123.6930 Y107.7198 E69.0518
G1 X123.6930 Y108.2855 E69.0749
G1 X116.2585 Y115.7200 E69.5040
G1 X116.8242 Y115.7200 E69.5271
G1 X123.6930 Y108.8512 E69.9236
G1 X123.6930 Y109.4168 E69.9467
G1 X117.3898 Y115.7200 E70.3105
G1 X117.9555 Y115.7200 E70.3336
G1 X123.6930 Y109.9825 E70.6648
G1 X123.6930 Y110.5482 E70.6879
G1 X118.5212 Y115.7200 E70.9864
G1 X119.0869 Y115.7200 E71.0095
G1 X123.6930 Y111.1139 E71.2754
G1 X123.6930 Y111.6796 E71.2985
G1 X119.6526 Y115.7200 E71.5317
G1 X120.2183 Y115.7200 E71.5548
G1 X123.6930 Y112.2453 E71.7554
G1 X123.6930 Y112.8110 E71.7784
G1 X120.7840 Y115.7200 E71.9464
G1 X121.3496 Y115.7200 E71.9695
G1 X123.6930 Y113.3766 E72.1047
G1 X123.6930 Y113.9423 E72.1278
G1 X121.9153 Y115.7200 E72.2304
G1 X122.4810 Y115.7200 E72.2535
G1 X123.6930 Y114.5080 E72.3235
G1 X123.6930 Y115.0737 E72.3466
G1 X123.0467 Y115.7200 E72.3839
G1 X123.6527 Y115.6797 E72.4087
;; --- layer 2 (0.250 @ 0.750) ---
G1 Z0.7500 F4800
G1 X123.6527 Y115.6797
G1 X124.3405 Y116.0000
G1 X124.3405 Y104.0000 E72.8985 F2213
G1 X102.7265 Y104.0000 E73.7807
G1 X102.7265 Y116.0000 E74.2705
G1 X124.3405 Y116.0000 E75.1527
G1 X124.7405 Y116.4000 F4800
G1 X124.7405 Y103.6000 E75.6751 F2290
G1 X102.3265 Y103.6000 E76.5900
G1 X102.3265 Y116.4000 E77.1124
G1 X124.7405 Y116.4000 E78.0273
G1 X125.1405 Y116.8000 F4800
G1 X125.1405 Y103.2000 E78.5824 F2367
G1 X101.9265 Y103.2000 E79.5299
G1 X101.9265 Y116.8000 E80.0850
G1 X125.1405 Y116.8000 E81.0325
;; e-retract 1.5
G1 E79.5325 F2400
;; z-hop start
G1 Z0.9500 F4800
G1 X125.0605 Y103.8457
G1 X124.0605 Y104.8457
;; z-hop end
G1 Z0.7500
;; e-engage 1.5
G1 E81.0325 F2400
G4 P20
G1 X123.4948 Y104.2800 E81.0651 F3000
G1 X122.9291 Y104.2800 E81.0882
G1 X124.0605 Y105.4114 E81.1535
G1 X124.0605 Y105.9771 E81.1766
G1 X122.3634 Y104.2800 E81.2746
G1 X121.7978 Y104.2800 E81.2977
G1 X124.0605 Y106.5427 E81.4283
G1 X124.0605 Y107.1084 E81.4514
G1 X121.2321 Y104.2800 E81.6146
G1 X120.6664 Y104.2800 E81.6377
G1 X124.0605 Y107.6741 E81.8337
G1 X124.0605 Y108.2398 E81.8567
G1 X120.1007 Y104.2800 E82.0853
G1 X119.5350 Y104.2800 E82.1084
G1 X124.0605 Y108.8055 E82.3696
G1 X124.0605 Y109.3712 E82.3927
G1 X118.9693 Y104.2800 E82.6866
G1 X118.4036 Y104.2800 E82.7097
G1 X124.0605 Y109.9369 E83.0362
G1 X124.0605 Y110.5025 E83.0593
G1 X117.8380 Y104.2800 E83.4185
G1 X117.2723 Y104.2800 E83.4416
G1 X124.0605 Y111.0682 E83.8334
G1 X124.0605 Y111.6339 E83.8565
G1 X116.7066 Y104.2800 E84.2810
G1 X116.1409 Y104.2800 E84.3041
G1 X124.0605 Y112.1996 E84.7612
G1 X124.0605 Y112.7653 E84.7843
G1 X115.5752 Y104.2800 E85.2741
G1 X115.0095 Y104.2800 E85.2972
G1 X124.0605 Y113.3310 E85.8196
G1 X124.0605 Y113.8966 E85.8427
G1 X114.4438 Y104.2800 E86.3978
G1 X113.8782 Y104.2800 E86.4209
G1 X124.0605 Y114.4623 E87.0087
G1 X124.0605 Y115.0280 E87.0318
G1 X113.3125 Y104.2800 E87.6522
G1 X112.7468 Y104.2800 E87.6753
G1 X124.0605 Y115.5937 E88.3283
G1 X123.6211 Y115.7200 E88.3470
G1 X112.1811 Y104.2800 E89.0073
G1 X111.6154 Y104.2800 E89.0304
G1 X123.0554 Y115.7200 E89.6908
G1 X122.4897 Y115.7200 E89.7139
G1 X111.0497 Y104.2800 E90.3742
G1 X110.4840 Y104.2800 E90.3973
G1 X121.9240 Y115.7200 E91.0577
G1 X121.3584 Y115.7200 E91.0808
G1 X109.9184 Y104.2800 E91.7411
G1 X109.3527 Y104.2800 E91.7642
G1 X120.7927 Y115.7200 E92.4245
G1 X120.2270 Y115.7200 E92.4476
G1 X108.7870 Y104.2800 E93.1080
G1 X108.2213 Y104.2800 E93.1311
G1 X119.6613 Y115.7200 E93.7914
G1 X119.0956 Y115.7200 E93.8145
G1 X107.6556 Y104.2800 E94.4749
G1 X107.0899 Y104.2800 E94.4980
G1 X118.5299 Y115.7200 E95.1583
G1 X117.9642 Y115.7200 E95.1814
G1 X106.5242 Y104.2800 E95.8417
G1 X105.9586 Y104.2800 E95.8648
G1 X117.3986 Y115.7200 E96.5252
G1 X116.8329 Y115.7200 E96.5483
G1 X105.3929 Y104.2800 E97.2086
G1 X104.8272 Y104.2800 E97.2317
G1 X116.2672 Y115.7200 E97.8921
G1 X115.7015 Y115.7200 E97.9152
G1 X104.2615 Y104.2800 E98.5755
G1 X103.6958 Y104.2800 E98.5986
G1 X115.1358 Y115.7200 E99.2589
G1 X114.5701 Y115.7200 E99.2820
G1 X103.1301 Y104.2800 E99.9424
G1 X103.0065 Y104.7220 E99.9611
G1 X114.0044 Y115.7200 E100.5960
G1 X113.4388 Y115.7200 E100.6190
G1 X103.0065 Y105.2877 E101.2212
G1 X103.0065 Y105.8534 E101.2443
G1 X112.8731 Y115.7200 E101.8138
G1 X112.3074 Y115.7200 E101.8369
G1 X103.0065 Y106.4191 E102.3738
G1 X103.0065 Y106.9848 E102.3969
G1 X111.7417 Y115.7200 E102.9011
G1 X111.1760 Y115.7200 E102.9242
G1 X103.0065 Y107.5505 E103.3958
G1 X103.0065 Y108.1162 E103.4189
G1 X110.6103 Y115.7200 E103.8578
G1 X110.0447 Y115.7200 E103.8809
G1 X103.0065 Y108.6818 E104.2871
G1 X103.0065 Y109.2475 E104.3102
G1 X109.4790 Y115.7200 E104.6838
G1 X108.9133 Y115.7200 E104.7069
G1 X103.0065 Y109.8132 E105.0479
G1 X103.0065 Y110.3789 E105.0710
G1 X108.3476 Y115.7200 E105.3793
G1 X107.7819 Y115.7200 E105.4024
G1 X103.0065 Y110.9446 E105.6780
G1 X103.0065 Y111.5103 E105.7011
G1 X107.2162 Y115.7200 E105.9441
G1 X106.6505 Y115.7200 E105.9672
G1 X103.0065 Y112.0760 E106.1775
G1 X103.0065 Y112.6416 E106.2006
G1 X106.0849 Y115.7200 E106.3783
G1 X105.5192 Y115.7200 E106.4014
G1 X103.0065 Y113.2073 E106.5465
G1 X103.0065 Y113.7730 E106.5695
G1 X104.9535 Y115.7200 E106.6819
G1 X104.3878 Y115.7200 E106.7050
G1 X103.0065 Y114.3387 E106.7847
G1 X103.0065 Y114.9044 E106.8078
G1 X103.8221 Y115.7200 E106.8549
G1 X103.1315 Y115.5950 E106.8836
;; --- layer 3 (0.250 @ 1.000) ---
G1 Z1.0000 F4800
G1 X103.1315 Y115.5950
G1 X102.4321 Y116.0000
G1 X124.6349 Y116.0000 E107.7898 F2242
G1 X124.6349 Y104.0000 E108.2796
G1 X102.4321 Y104.0000 E109.1858
G1 X102.4321 Y116.0000 E109.6756
G1 X102.0321 Y116.4000 F4800
G1 X125.0349 Y116.4000 E110.6145 F2319
G1 X125.0349 Y103.6000 E111.1370
G1 X102.0321 Y103.6000 E112.0759
G1 X102.0321 Y116.4000 E112.5983
G1 X101.6321 Y116.8000 F4800
G1 X125.4349 Y116.8000 E113.5699 F2395
G1 X125.4349 Y103.2000 E114.1250
G1 X101.6321 Y103.2000 E115.0965
