; Generated by Kiri:Moto 2.5.2
; Thu Jan 14 2021 21:58:45 GMT-0500 (Eastern Standard Time)
; Bed left:0 right:220 top:220 bottom:0
; Bed type: fixed
; Target: Creality.Ender.3
; --- process ---
; processName = default
; sliceHeight = 0.25
; sliceShells = 3
; sliceShellOrder = in-out
; sliceLayerStart = last
; sliceFillAngle = 45
; sliceFillOverlap = 0.3
; sliceFillSparse = 0.5
; sliceFillType = hex
; sliceSupportDensity = 0.25
; sliceSupportOffset = 1
; sliceSupportGap = 0
; sliceSupportSize = 5
; sliceSupportArea = 0.1
; sliceSupportExtra = 0
; sliceSupportAngle = 50
; sliceSupportNozzle = 0
; sliceSolidMinArea = 1
; sliceSolidLayers = 3
; sliceBottomLayers = 30
; sliceTopLayers = 3
; firstSliceHeight = 0.25
; firstLayerRate = 30
; firstLayerFillRate = 35
; firstLayerPrintMult = 1
; firstLayerNozzleTemp = 0
; firstLayerBedTemp = 0
; outputRaft = true
; outputRaftSpacing = 0.2
; outputTemp = 200
; outputFanMax = 255
; outputBedTemp = 60
; outputFeedrate = 50
; outputFinishrate = 50
; outputSeekrate = 80
; outputShellMult = 1.25
; outputFillMult = 1.25
; outputSparseMult = 1.25
; outputFanLayer = 1
; outputRetractDist = 3
; outputRetractSpeed = 40
; outputRetractDwell = 20
; outputBrimCount = 2
; outputBrimOffset = 2
; outputShortPoly = 100
; outputMinSpeed = 10
; outputCoastDist = 0
; outputWipeDistance = 0
; outputLayerRetract = true
; outputOriginCenter = false
; outputInvertX = false
; outputInvertY = false
; detectThinWalls = false
; sliceMinHeight = 0
; sliceAdaptive = true
; zHopDistance = 0.2
; antiBacklash = 1
; gcodePause = 
; --- startup ---
M107                     ; turn off filament cooling fan
G90                      ; set absolute positioning mode
M82                      ; set absolute positioning for extruder
M104 S200 T0     ; set extruder temperature
M140 S60 T0 ; set bed temperature
G28                      ; home axes
G92 X0 Y0 Z0 E0          ; reset all axes positions
G1 X0 Y0 Z0.25 F180      ; move XY to 0,0 and Z 0.25mm over bed
G92 E0                   ; zero the extruded
M190 S60 T0 ; wait for bed to reach target temp
M109 S200 T0     ; wait for extruder to reach target temp
G92 E0                   ; zero the extruded
G1 F225                  ; set feed speed
;; e-retract 3
G1 E-3.0000 F2400
;; --- layer 0 (0.400 @ 0.400) ---
G1 Z0.4000 F4800
G1 X126.1579 Y118.8000
G1 X126.9579 Y103.5941
G1 X125.9579 Y104.5941
;; e-engage 3
G1 E0.0000 F2400
G4 P20
G1 X122.7638 Y101.4000 E0.9440 F600
;; e-retract 3
G1 E-2.0560 F2400
;; z-hop start
G1 Z0.6000 F4800
G1 X120.3697 Y100.4000
G1 X119.3697 Y101.4000
;; z-hop end
G1 Z0.4000
;; e-engage 3
G1 E0.9440 F2400
G4 P20
G1 X125.9579 Y107.9882 E2.8911 F600
;; e-retract 3
G1 E-0.1089 F2400
;; z-hop start
G1 Z0.6000 F4800
G1 X126.9579 Y110.3823
G1 X125.9579 Y111.3823
;; z-hop end
G1 Z0.4000
;; e-engage 3
G1 E2.8911 F2400
G4 P20
G1 X115.9756 Y101.4000 E5.8413 F600
;; e-retract 3
G1 E2.8413 F2400
;; z-hop start
G1 Z0.6000 F4800
G1 X113.5814 Y100.4000
G1 X112.5814 Y101.4000
;; z-hop end
G1 Z0.4000
;; e-engage 3
G1 E5.8413 F2400
G4 P20
G1 X125.9579 Y114.7764 E9.7946 F600
;; e-retract 3
G1 E6.7946 F2400
;; z-hop start
G1 Z0.6000 F4800
G1 X126.9579 Y117.1706
G1 X125.9579 Y118.1706
;; z-hop end
G1 Z0.4000
;; e-engage 3
G1 E9.7946 F2400
G4 P20
G1 X109.1873 Y101.4000 E14.7510 F600
;; e-retract 3
G1 E11.7510 F2400
;; z-hop start
G1 Z0.6000 F4800
G1 X106.7932 Y100.4000
G1 X105.7932 Y101.4000
;; z-hop end
G1 Z0.4000
;; e-engage 3
G1 E14.7510 F2400
G4 P20
G1 X122.9932 Y118.6000 E19.8343 F600
;; e-retract 3
G1 E16.8343 F2400
;; z-hop start
G1 Z0.6000 F4800
G1 X120.5991 Y117.6000
G1 X119.5991 Y118.6000
;; z-hop end
G1 Z0.4000
;; e-engage 3
G1 E19.8343 F2400
G4 P20
G1 X102.3991 Y101.4000 E24.9176 F600
;; e-retract 3
G1 E21.9176 F2400
;; z-hop start
G1 Z0.6000 F4800
G1 X102.1091 Y102.5041
G1 X101.1091 Y103.5041
;; z-hop end
G1 Z0.4000
;; e-engage 3
G1 E24.9176 F2400
G4 P20
G1 X116.2050 Y118.6000 E29.3791 F600
;; e-retract 3
G1 E26.3791 F2400
;; z-hop start
G1 Z0.6000 F4800
G1 X113.8109 Y117.6000
G1 X112.8109 Y118.6000
;; z-hop end
G1 Z0.4000
;; e-engage 3
G1 E29.3791 F2400
G4 P20
G1 X101.1091 Y106.8982 E32.8375 F600
;; e-retract 3
G1 E29.8375 F2400
;; z-hop start
G1 Z0.6000 F4800
G1 X102.1091 Y109.2923
G1 X101.1091 Y110.2923
;; z-hop end
G1 Z0.4000
;; e-engage 3
G1 E32.8375 F2400
G4 P20
G1 X109.4168 Y118.6000 E35.2927 F600
;; e-retract 3
G1 E32.2927 F2400
;; z-hop start
G1 Z0.6000 F4800
G1 X107.0227 Y117.6000
G1 X106.0227 Y118.6000
;; z-hop end
G1 Z0.4000
;; e-engage 3
G1 E35.2927 F2400
G4 P20
G1 X101.1091 Y113.6864 E36.7449 F600
;; e-retract 3
G1 E33.7449 F2400
;; z-hop start
G1 Z0.6000 F4800
G1 X102.1091 Y116.0806
G1 X101.1091 Y117.0806
;; z-hop end
G1 Z0.4000
;; e-engage 3
G1 E36.7449 F2400
G4 P20
G1 X102.6285 Y118.6000 E37.1939 F600
;; --- layer 1 (0.400 @ 0.800) ---
;; e-retract 3
G1 E34.1939 F2400
M106 S255
G1 Z0.8000 F4800
G1 X102.6285 Y118.6000
G1 X126.9579 Y103.5941
G1 X125.9579 Y104.5941
;; e-engage 3
G1 E37.1939 F2400
G4 P20
G1 X122.7638 Y101.4000 E38.1379 F900
;; e-retract 3
G1 E35.1379 F2400
;; z-hop start
G1 Z1.0000 F4800
G1 X120.3697 Y100.4000
G1 X119.3697 Y101.4000
;; z-hop end
G1 Z0.8000
;; e-engage 3
G1 E38.1379 F2400
G4 P20
G1 X125.9579 Y107.9882 E40.0850 F900
;; e-retract 3
G1 E37.0850 F2400
;; z-hop start
G1 Z1.0000 F4800
G1 X126.9579 Y110.3823
G1 X125.9579 Y111.3823
;; z-hop end
G1 Z0.8000
;; e-engage 3
G1 E40.0850 F2400
G4 P20
G1 X115.9756 Y101.4000 E43.0352 F900
;; e-retract 3
G1 E40.0352 F2400
;; z-hop start
G1 Z1.0000 F4800
G1 X113.5814 Y100.4000
G1 X112.5814 Y101.4000
;; z-hop end
G1 Z0.8000
;; e-engage 3
G1 E43.0352 F2400
G4 P20
G1 X125.9579 Y114.7764 E46.9885 F900
;; e-retract 3
G1 E43.9885 F2400
;; z-hop start
G1 Z1.0000 F4800
G1 X126.9579 Y117.1706
G1 X125.9579 Y118.1706
;; z-hop end
G1 Z0.8000
;; e-engage 3
G1 E46.9885 F2400
G4 P20
G1 X109.1873 Y101.4000 E51.9449 F900
;; e-retract 3
G1 E48.9449 F2400
;; z-hop start
G1 Z1.0000 F4800
G1 X106.7932 Y100.4000
G1 X105.7932 Y101.4000
;; z-hop end
G1 Z0.8000
;; e-engage 3
G1 E51.9449 F2400
G4 P20
G1 X122.9932 Y118.6000 E57.0283 F900
;; e-retract 3
G1 E54.0283 F2400
;; z-hop start
G1 Z1.0000 F4800
G1 X120.5991 Y117.6000
G1 X119.5991 Y118.6000
;; z-hop end
G1 Z0.8000
;; e-engage 3
G1 E57.0283 F2400
G4 P20
G1 X102.3991 Y101.4000 E62.1116 F900
;; e-retract 3
G1 E59.1116 F2400
;; z-hop start
G1 Z1.0000 F4800
G1 X102.1091 Y102.5041
G1 X101.1091 Y103.5041
;; z-hop end
G1 Z0.8000
;; e-engage 3
G1 E62.1116 F2400
G4 P20
G1 X116.2050 Y118.6000 E66.5730 F900
;; e-retract 3
G1 E63.5730 F2400
;; z-hop start
G1 Z1.0000 F4800
G1 X113.8109 Y117.6000
G1 X112.8109 Y118.6000
;; z-hop end
G1 Z0.8000
;; e-engage 3
G1 E66.5730 F2400
G4 P20
G1 X101.1091 Y106.8982 E70.0314 F900
;; e-retract 3
G1 E67.0314 F2400
;; z-hop start
G1 Z1.0000 F4800
G1 X102.1091 Y109.2923
G1 X101.1091 Y110.2923
;; z-hop end
G1 Z0.8000
;; e-engage 3
G1 E70.0314 F2400
G4 P20
G1 X109.4168 Y118.6000 E72.4867 F900
;; e-retract 3
G1 E69.4867 F2400
;; z-hop start
G1 Z1.0000 F4800
G1 X107.0227 Y117.6000
G1 X106.0227 Y118.6000
;; z-hop end
G1 Z0.8000
;; e-engage 3
G1 E72.4867 F2400
G4 P20
G1 X101.1091 Y113.6864 E73.9388 F900
;; e-retract 3
G1 E70.9388 F2400
;; z-hop start
G1 Z1.0000 F4800
G1 X102.1091 Y116.0806
G1 X101.1091 Y117.0806
;; z-hop end
G1 Z0.8000
;; e-engage 3
G1 E73.9388 F2400
G4 P20
G1 X102.6285 Y118.6000 E74.3879 F900
;; --- layer 2 (0.200 @ 1.000) ---
;; e-retract 3
G1 E71.3879 F2400
G1 Z1.0000 F4800
G1 X102.6285 Y118.6000
G1 X103.6062 Y100.4000
G1 X102.6062 Y101.4000
;; e-engage 3
G1 E74.3879 F2400
G4 P20
G1 X101.1091 Y102.8971 E74.5262 F3000
;; e-retract 3
G1 E71.5262 F2400
;; z-hop start
G1 Z1.2000 F4800
G1 X102.1091 Y103.5941
G1 X101.1091 Y104.5941
;; z-hop end
G1 Z1.0000
;; e-engage 3
G1 E74.5262 F2400
G4 P20
G1 X104.3032 Y101.4000 E74.8212 F3000
;; e-retract 3
G1 E71.8212 F2400
;; z-hop start
G1 Z1.2000 F4800
G1 X107.0003 Y100.4000
G1 X106.0003 Y101.4000
;; z-hop end
G1 Z1.0000
;; e-engage 3
G1 E74.8212 F2400
G4 P20
G1 X101.1091 Y106.2912 E75.2729 F3000
;; e-retract 3
G1 E72.2729 F2400
;; z-hop start
G1 Z1.2000 F4800
G1 X102.1091 Y106.9882
G1 X101.1091 Y107.9882
;; z-hop end
G1 Z1.0000
;; e-engage 3
G1 E75.2729 F2400
G4 P20
G1 X107.6973 Y101.4000 E75.8814 F3000
;; e-retract 3
G1 E72.8814 F2400
;; z-hop start
G1 Z1.2000 F4800
G1 X110.3944 Y100.4000
G1 X109.3944 Y101.4000
;; z-hop end
G1 Z1.0000
;; e-engage 3
G1 E75.8814 F2400
G4 P20
G1 X101.1091 Y109.6853 E76.6466 F3000
;; e-retract 3
G1 E73.6466 F2400
;; z-hop start
G1 Z1.2000 F4800
G1 X102.1091 Y110.3823
G1 X101.1091 Y111.3823
;; z-hop end
G1 Z1.0000
;; e-engage 3
G1 E76.6466 F2400
G4 P20
G1 X111.0914 Y101.4000 E77.5685 F3000
;; e-retract 3
G1 E74.5685 F2400
;; z-hop start
G1 Z1.2000 F4800
G1 X113.7885 Y100.4000
G1 X112.7885 Y101.4000
;; z-hop end
G1 Z1.0000
;; e-engage 3
G1 E77.5685 F2400
G4 P20
G1 X101.1091 Y113.0794 E78.6472 F3000
;; e-retract 3
G1 E75.6472 F2400
;; z-hop start
G1 Z1.2000 F4800
G1 X102.1091 Y113.7764
G1 X101.1091 Y114.7764
;; z-hop end
G1 Z1.0000
;; e-engage 3
G1 E78.6472 F2400
G4 P20
G1 X114.4855 Y101.4000 E79.8826 F3000
;; e-retract 3
G1 E76.8826 F2400
;; z-hop start
G1 Z1.2000 F4800
G1 X117.1826 Y100.4000
G1 X116.1826 Y101.4000
;; z-hop end
G1 Z1.0000
;; e-engage 3
G1 E79.8826 F2400
G4 P20
G1 X101.1091 Y116.4735 E81.2747 F3000
;; e-retract 3
G1 E78.2747 F2400
;; z-hop start
G1 Z1.2000 F4800
G1 X102.1091 Y117.1706
G1 X101.1091 Y118.1706
;; z-hop end
G1 Z1.0000
;; e-engage 3
G1 E81.2747 F2400
G4 P20
G1 X117.8797 Y101.4000 E82.8236 F3000
;; e-retract 3
G1 E79.8236 F2400
;; z-hop start
G1 Z1.2000 F4800
G1 X120.5767 Y100.4000
G1 X119.5767 Y101.4000
;; z-hop end
G1 Z1.0000
;; e-engage 3
G1 E82.8236 F2400
G4 P20
G1 X102.3767 Y118.6000 E84.4121 F3000
;; e-retract 3
G1 E81.4121 F2400
;; z-hop start
G1 Z1.2000 F4800
G1 X105.0738 Y117.6000
G1 X104.0738 Y118.6000
;; z-hop end
G1 Z1.0000
;; e-engage 3
G1 E84.4121 F2400
G4 P20
G1 X121.2738 Y101.4000 E86.0007 F3000
;; e-retract 3
G1 E83.0007 F2400
;; z-hop start
G1 Z1.2000 F4800
G1 X123.9708 Y100.4000
G1 X122.9708 Y101.4000
;; z-hop end
G1 Z1.0000
;; e-engage 3
G1 E86.0007 F2400
G4 P20
G1 X105.7708 Y118.6000 E87.5892 F3000
;; e-retract 3
G1 E84.5892 F2400
;; z-hop start
G1 Z1.2000 F4800
G1 X108.4679 Y117.6000
G1 X107.4679 Y118.6000
;; z-hop end
G1 Z1.0000
;; e-engage 3
G1 E87.5892 F2400
G4 P20
G1 X124.6679 Y101.4000 E89.1777 F3000
G1 X125.9579 Y101.8070 F4800
G1 X109.1649 Y118.6000 E90.7287 F3000
;; e-retract 3
G1 E87.7287 F2400
;; z-hop start
G1 Z1.2000 F4800
G1 X111.8620 Y117.6000
G1 X110.8620 Y118.6000
;; z-hop end
G1 Z1.0000
;; e-engage 3
G1 E90.7287 F2400
G4 P20
G1 X125.9579 Y103.5041 E92.1229 F3000
;; e-retract 3
G1 E89.1229 F2400
;; z-hop start
G1 Z1.2000 F4800
G1 X126.9579 Y104.2012
G1 X125.9579 Y105.2012
;; z-hop end
G1 Z1.0000
;; e-engage 3
G1 E92.1229 F2400
G4 P20
G1 X112.5591 Y118.6000 E93.3604 F3000
;; e-retract 3
G1 E90.3604 F2400
;; z-hop start
G1 Z1.2000 F4800
G1 X115.2561 Y117.6000
G1 X114.2561 Y118.6000
;; z-hop end
G1 Z1.0000
;; e-engage 3
G1 E93.3604 F2400
G4 P20
G1 X125.9579 Y106.8982 E94.4411 F3000
;; e-retract 3
G1 E91.4411 F2400
;; z-hop start
G1 Z1.2000 F4800
G1 X126.9579 Y107.5953
G1 X125.9579 Y108.5953
;; z-hop end
G1 Z1.0000
;; e-engage 3
G1 E94.4411 F2400
G4 P20
G1 X115.9532 Y118.6000 E95.3651 F3000
;; e-retract 3
G1 E92.3651 F2400
;; z-hop start
G1 Z1.2000 F4800
G1 X118.6502 Y117.6000
G1 X117.6502 Y118.6000
;; z-hop end
G1 Z1.0000
;; e-engage 3
G1 E95.3651 F2400
G4 P20
G1 X125.9579 Y110.2923 E96.1324 F3000
;; e-retract 3
G1 E93.1324 F2400
;; z-hop start
G1 Z1.2000 F4800
G1 X126.9579 Y110.9894
G1 X125.9579 Y111.9894
;; z-hop end
G1 Z1.0000
;; e-engage 3
G1 E96.1324 F2400
G4 P20
G1 X119.3473 Y118.6000 E96.7429 F3000
;; e-retract 3
G1 E93.7429 F2400
;; z-hop start
G1 Z1.2000 F4800
G1 X122.0443 Y117.6000
G1 X121.0443 Y118.6000
;; z-hop end
G1 Z1.0000
;; e-engage 3
G1 E96.7429 F2400
G4 P20
G1 X125.9579 Y113.6864 E97.1967 F3000
;; e-retract 3
G1 E94.1967 F2400
;; z-hop start
G1 Z1.2000 F4800
G1 X126.9579 Y114.3835
G1 X125.9579 Y115.3835
;; z-hop end
G1 Z1.0000
;; e-engage 3
G1 E97.1967 F2400
G4 P20
G1 X122.7414 Y118.6000 E97.4938 F3000
;; e-retract 3
G1 E94.4938 F2400
;; z-hop start
G1 Z1.2000 F4800
G1 X125.4384 Y117.6000
G1 X124.4384 Y118.6000
;; z-hop end
G1 Z1.0000
;; e-engage 3
G1 E97.4938 F2400
G4 P20
G1 X125.9579 Y117.0806 E97.6341 F3000
;; --- layer 3 (0.200 @ 1.200) ---
;; e-retract 3
G1 E94.6341 F2400
G1 Z1.2000 F4800
G1 X125.9579 Y117.0806
G1 X126.9579 Y100.7657
G1 X125.9579 Y101.7657
;; e-engage 3
G1 E97.6341 F2400
G4 P20
G1 X125.5922 Y101.4000 E97.6544 F3000
G1 X125.0265 Y101.4000 E97.6765
G1 X125.9579 Y102.3314 E97.7282
G1 X125.9579 Y102.8971 E97.7503
G1 X124.4608 Y101.4000 E97.8333
G1 X123.8952 Y101.4000 E97.8554
G1 X125.9579 Y103.4627 E97.9698
G1 X125.9579 Y104.0284 E97.9919
G1 X123.3295 Y101.4000 E98.1376
G1 X122.7638 Y101.4000 E98.1597
G1 X125.9579 Y104.5941 E98.3367
G1 X125.9579 Y105.1598 E98.3589
G1 X122.1981 Y101.4000 E98.5672
G1 X121.6324 Y101.4000 E98.5894
G1 X125.9579 Y105.7255 E98.8291
G1 X125.9579 Y106.2912 E98.8513
G1 X121.0667 Y101.4000 E99.1223
G1 X120.5010 Y101.4000 E99.1445
G1 X125.9579 Y106.8568 E99.4469
G1 X125.9579 Y107.4225 E99.4690
G1 X119.9354 Y101.4000 E99.8028
G1 X119.3697 Y101.4000 E99.8249
G1 X125.9579 Y107.9882 E100.1900
G1 X125.9579 Y108.5539 E100.2122
G1 X118.8040 Y101.4000 E100.6086
G1 X118.2383 Y101.4000 E100.6308
G1 X125.9579 Y109.1196 E101.0585
G1 X125.9579 Y109.6853 E101.0807
G1 X117.6726 Y101.4000 E101.5398
G1 X117.1069 Y101.4000 E101.5620
G1 X125.9579 Y110.2510 E102.0525
G1 X125.9579 Y110.8166 E102.0746
G1 X116.5412 Y101.4000 E102.5964
G1 X115.9756 Y101.4000 E102.6186
G1 X125.9579 Y111.3823 E103.1718
G1 X125.9579 Y111.9480 E103.1939
G1 X115.4099 Y101.4000 E103.7784
G1 X114.8442 Y101.4000 E103.8006
G1 X125.9579 Y112.5137 E104.4165
G1 X125.9579 Y113.0794 E104.4386
G1 X114.2785 Y101.4000 E105.0858
G1 X113.7128 Y101.4000 E105.1080
G1 X125.9579 Y113.6451 E105.7866
G1 X125.9579 Y114.2108 E105.8087
G1 X113.1471 Y101.4000 E106.5186
G1 X112.5814 Y101.4000 E106.5408
G1 X125.9579 Y114.7764 E107.2820
G1 X125.9579 Y115.3421 E107.3042
G1 X112.0158 Y101.4000 E108.0768
G1 X111.4501 Y101.4000 E108.0989
G1 X125.9579 Y115.9078 E108.9029
G1 X125.9579 Y116.4735 E108.9250
G1 X110.8844 Y101.4000 E109.7603
G1 X110.3187 Y101.4000 E109.7825
G1 X125.9579 Y117.0392 E110.6491
G1 X125.9579 Y117.6049 E110.6713
G1 X109.7530 Y101.4000 E111.5693
G1 X109.1873 Y101.4000 E111.5914
G1 X125.9579 Y118.1706 E112.5208
G1 X125.8216 Y118.6000 E112.5384
G1 X108.6216 Y101.4000 E113.4915
G1 X108.0560 Y101.4000 E113.5137
G1 X125.2560 Y118.6000 E114.4668
G1 X124.6903 Y118.6000 E114.4890
G1 X107.4903 Y101.4000 E115.4421
G1 X106.9246 Y101.4000 E115.4643
G1 X124.1246 Y118.6000 E116.4174
G1 X123.5589 Y118.6000 E116.4396
G1 X106.3589 Y101.4000 E117.3927
G1 X105.7932 Y101.4000 E117.4149
G1 X122.9932 Y118.6000 E118.3680
G1 X122.4275 Y118.6000 E118.3901
G1 X105.2275 Y101.4000 E119.3433
G1 X104.6618 Y101.4000 E119.3654
G1 X121.8618 Y118.6000 E120.3186
G1 X121.2962 Y118.6000 E120.3407
G1 X104.0962 Y101.4000 E121.2938
G1 X103.5305 Y101.4000 E121.3160
G1 X120.7305 Y118.6000 E122.2691
G1 X120.1648 Y118.6000 E122.2913
G1 X102.9648 Y101.4000 E123.2444
G1 X102.3991 Y101.4000 E123.2666
G1 X119.5991 Y118.6000 E124.2197
G1 X119.0334 Y118.6000 E124.2419
G1 X101.8334 Y101.4000 E125.1950
G1 X101.2677 Y101.4000 E125.2172
G1 X118.4677 Y118.6000 E126.1703
G1 X117.9021 Y118.6000 E126.1924
G1 X101.1091 Y101.8070 E127.1230
G1 X101.1091 Y102.3727 E127.1452
G1 X117.3364 Y118.6000 E128.0444
G1 X116.7707 Y118.6000 E128.0666
G1 X101.1091 Y102.9384 E128.9344
G1 X101.1091 Y103.5041 E128.9566
G1 X116.2050 Y118.6000 E129.7931
G1 X115.6393 Y118.6000 E129.8153
G1 X101.1091 Y104.0698 E130.6205
G1 X101.1091 Y104.6355 E130.6426
G1 X115.0736 Y118.6000 E131.4165
G1 X114.5079 Y118.6000 E131.4386
G1 X101.1091 Y105.2012 E132.1811
G1 X101.1091 Y105.7668 E132.2033
G1 X113.9423 Y118.6000 E132.9144
G1 X113.3766 Y118.6000 E132.9366
G1 X101.1091 Y106.3325 E133.6164
G1 X101.1091 Y106.8982 E133.6385
G1 X112.8109 Y118.6000 E134.2870
