G21         ; Set units to mm
G90         ; Absolute positioning


; Pass 0

; First Move
G0 X0.10 Y0.10 ; Generated by LaserWeb (lw.raster-to-gcode.js)
; Size       : 0 x 0 mm
; PPI        : x: 300 - y: 300
; PPM        : x: 0.0846666667 - y: 0.0846666667
; Tool diam. : 0.2 mm
; Feed rate  : 2000 mm/min
; Beam range : 0 to 1
; Beam power : 0 to 100 %
; Options    : trimLine, joinPixel

G1 F2000

G0 X0.10 Y0.10 S0.0000
G1 X87.90 S1.0000
G0 Y0.30 S0.0000
G1 X0.10 S1.0000
G0 Y0.50 S0.0000
G1 X87.90 S1.0000
G0 Y0.70 S0.0000
G1 X0.10 S1.0000
G0 Y0.90 S0.0000
G1 X87.90 S1.0000
G0 Y1.10 S0.0000
G1 X0.10 S1.0000
G0 Y1.30 S0.0000
G1 X87.90 S1.0000
G0 Y1.50 S0.0000
G1 X0.10 S1.0000
G0 Y1.70 S0.0000
G1 X87.90 S1.0000
G0 Y1.90 S0.0000
G1 X0.10 S1.0000
G0 Y2.10 S0.0000
G1 X87.90 S1.0000
G0 Y2.30 S0.0000
G1 X0.10 S1.0000
G0 Y2.50 S0.0000
G1 X87.90 S1.0000
G0 Y2.70 S0.0000
G1 X0.10 S1.0000
G0 Y2.90 S0.0000
G1 X87.90 S1.0000
G0 Y3.10 S0.0000
G1 X0.10 S1.0000
G0 Y3.30 S0.0000
G1 X87.90 S1.0000
G0 Y3.50 S0.0000
G1 X0.10 S1.0000
G0 Y3.70 S0.0000
G1 X87.90 S1.0000
G0 Y3.90 S0.0000
G1 X0.10 S1.0000
G0 Y4.10 S0.0000
G1 X87.90 S1.0000
G0 Y4.30 S0.0000
G1 X0.10 S1.0000
G0 Y4.50 S0.0000
G1 X87.90 S1.0000
G0 Y4.70 S0.0000
G1 X0.10 S1.0000
G0 Y4.90 S0.0000
G1 X87.90 S1.0000
G0 Y5.10 S0.0000
G1 X0.10 S1.0000
G0 Y5.30 S0.0000
G1 X87.90 S1.0000
G0 Y5.50 S0.0000
G1 X0.10 S1.0000
G0 Y5.70 S0.0000
G1 X87.90 S1.0000
G0 Y5.90 S0.0000
G1 X0.10 S1.0000
G0 Y6.10 S0.0000
G1 X87.90 S1.0000
G0 Y6.30 S0.0000
G1 X0.10 S1.0000
G0 Y6.50 S0.0000
G1 X87.90 S1.0000
G0 Y6.70 S0.0000
G1 X0.10 S1.0000
G0 Y6.90 S0.0000
G1 X87.90 S1.0000
G0 Y7.10 S0.0000
G1 X0.10 S1.0000
G0 Y7.30 S0.0000
G1 X87.90 S1.0000
G0 Y7.50 S0.0000
G1 X0.10 S1.0000
G0 Y7.70 S0.0000
G1 X87.90 S1.0000
G0 Y7.90 S0.0000
G1 X0.10 S1.0000
G0 Y8.10 S0.0000
G1 X87.90 S1.0000
G0 Y8.30 S0.0000
G1 X0.10 S1.0000
G0 Y8.50 S0.0000
G1 X87.90 S1.0000
G0 Y8.70 S0.0000
G1 X0.10 S1.0000
G0 Y8.90 S0.0000
G1 X87.90 S1.0000
G0 Y9.10 S0.0000
G1 X60.50 S1.0000
G0 X59.90 S0.0000
G1 X0.10 S1.0000
G0 Y9.30 S0.0000
G1 X56.40 S1.0000
X56.50 S0.1765
G0 X56.90 S0.0000
G1 X59.90 S1.0000
G0 X60.50 S0.0000
G1 X87.90 S1.0000
G0 Y9.50 S0.0000
G1 X61.80 S1.0000
X61.60 S0.6824
X61.40 S0.6314
X61.10 S1.0000
G0 X60.50 S0.0000
G1 X60.40 S1.0000
X60.20 S0.4196
X60.00 S0.8000
X56.80 S1.0000
X56.60 S0.4196
X0.10 S1.0000
G0 Y9.70 S0.0000
G1 X55.90 S1.0000
G0 X56.50 S0.0000
G1 X56.60 S0.8235
X57.00 S1.0000
X57.20 S0.2196
X57.60 S1.0000
X57.70 S0.0039
G0 X58.10 S0.0000
G1 X60.50 S1.0000
G0 X61.10 S0.0000
G1 X61.40 S1.0000
X61.60 S0.1216
X61.80 S0.2392
X87.90 S1.0000
G0 Y9.90 S0.0000
G1 X62.40 S1.0000
X62.30 S0.3294
G0 X61.70 S0.0000
G1 X61.40 S1.0000
X61.30 S0.5137
G0 X60.90 S0.0000
G1 X58.00 S1.0000
X57.80 S0.4510
X57.60 S0.1490
X57.20 S1.0000
X57.00 S0.1451
X56.60 S1.0000
X56.50 S0.8510
G0 X55.90 S0.0000
G1 X0.10 S1.0000
G0 Y10.10 S0.0000
G1 X47.10 S1.0000
G0 X47.50 S0.0000
G1 X55.60 S1.0000
X56.00 S0.4980
X60.90 S1.0000
G0 X61.30 S0.0000
G1 X61.40 S0.5137
X61.70 S1.0000
G0 X62.30 S0.0000
G1 X62.40 S0.3294
X87.90 S1.0000
G0 Y10.30 S0.0000
G1 X62.80 S1.0000
X62.60 S0.1765
X62.40 S0.1333
X62.20 S1.0000
X62.00 S0.8667
X61.80 S0.9216
X61.60 S0.1333
X61.40 S0.2392
X56.10 S1.0000
G0 X55.50 S0.0000
G1 X52.40 S1.0000
X52.20 S0.1333
X47.40 S1.0000
X47.20 S0.8667
X0.10 S1.0000
G0 Y10.50 S0.0000
G1 X46.60 S1.0000
X46.80 S0.9843
X47.00 S0.7686
X47.60 S1.0000
X47.80 S0.1137
X48.00 S0.2471
X48.40 S1.0000
X48.50 S0.6627
G0 X48.90 S0.0000
G1 X52.20 S1.0000
X52.40 S0.2314
X54.40 S1.0000
X54.60 S0.7686
X55.60 S1.0000
X55.80 S0.7098
X56.00 S0.2314
X56.20 S0.9765
X56.40 S0.7686
X56.60 S0.9608
X57.00 S1.0000
X57.20 S0.7922
X57.40 S0.8314
X61.40 S1.0000
X61.50 S0.1216
G0 X61.90 S0.0000
G1 X62.40 S1.0000
X62.60 S0.2314
X62.80 S0.2706
X87.90 S1.0000
G0 Y10.70 S0.0000
G1 X63.30 S1.0000
G0 X62.70 S0.0000
G1 X62.60 S1.0000
X62.50 S0.6863
G0 X62.10 S0.0000
G1 X62.00 S0.4275
X57.40 S1.0000
X57.20 S0.2745
X57.00 S0.0902
X56.60 S1.0000
X56.50 S0.8235
G0 X56.10 S0.0000
G1 X56.00 S0.9020
X54.70 S1.0000
G0 X54.30 S0.0000
G1 X53.90 S1.0000
G0 X53.30 S0.0000
G1 X52.90 S1.0000
G0 X52.50 S0.0000
G1 X52.40 S0.6549
X52.00 S1.0000
X51.90 S0.4941
G0 X51.50 S0.0000
G1 X48.90 S1.0000
G0 X48.50 S0.0000
G1 X48.40 S0.6627
X48.00 S1.0000
X47.80 S0.6941
X47.60 S0.6392
X47.10 S1.0000
G0 X46.70 S0.0000
G1 X46.60 S0.9255
X0.10 S1.0000
G0 Y10.90 S0.0000
G1 X46.40 S1.0000
X46.60 S0.0471
X47.20 S1.0000
X47.40 S0.0471
X47.60 S0.5451
X47.90 S1.0000
G0 X48.50 S0.0000
G1 X48.80 S1.0000
X49.00 S0.9451
X49.20 S0.0471
X49.40 S0.7961
X50.70 S1.0000
G0 X51.10 S0.0000
G1 X51.50 S1.0000
G0 X52.10 S0.0000
G1 X52.40 S1.0000
X52.50 S0.4235
G0 X52.90 S0.0000
G1 X53.30 S1.0000
G0 X53.90 S0.0000
G1 X54.30 S1.0000
G0 X54.70 S0.0000
G1 X56.00 S1.0000
X56.20 S0.9961
X56.40 S0.9529
X56.60 S0.9922
X56.80 S0.0471
X57.00 S0.5686
X58.30 S1.0000
G0 X58.90 S0.0000
G1 X61.80 S1.0000
X61.90 S0.4000
G0 X62.50 S0.0000
G1 X62.60 S0.9843
X62.70 S1.0000
G0 X63.30 S0.0000
G1 X87.90 S1.0000
G0 Y11.10 S0.0000
G1 X63.60 S1.0000
X63.20 S0.6824
X63.00 S0.3176
X62.80 S0.7176
X62.20 S1.0000
X62.00 S0.3176
X61.80 S0.5882
X58.90 S1.0000
G0 X58.30 S0.0000
G1 X57.90 S1.0000
G0 X57.30 S0.0000
G1 X57.10 S1.0000
G0 X56.50 S0.0000
G1 X56.40 S0.1765
X56.10 S1.0000
G0 X55.70 S0.0000
G1 X55.60 S0.6235
X53.40 S1.0000
X53.20 S0.6941
X53.00 S0.7882
X52.60 S1.0000
X52.50 S0.5765
G0 X52.10 S0.0000
G1 X52.00 S0.7294
X51.60 S1.0000
X51.20 S0.6824
X49.40 S1.0000
X49.30 S0.8549
G0 X48.90 S0.0000
G1 X48.80 S0.9412
X48.50 S1.0000
G0 X47.90 S0.0000
G1 X47.60 S1.0000
X47.50 S0.5216
G0 X47.10 S0.0000
G1 X46.70 S1.0000
G0 X46.30 S0.0000
G1 X46.20 S0.6471
X35.50 S1.0000
G0 X34.90 S0.0000
G1 X34.80 S1.0000
X34.60 S0.6824
X34.40 S0.6902
X0.10 S1.0000
G0 Y11.30 S0.0000
G1 X34.40 S1.0000
X34.50 S0.0196
G0 X34.90 S0.0000
G1 X35.00 S1.0000
X35.40 S0.6784
X36.40 S1.0000
X36.80 S0.3216
X50.00 S1.0000
X50.10 S0.7686
G0 X50.70 S0.0000
G1 X50.80 S0.3216
X51.10 S1.0000
G0 X51.70 S0.0000
G1 X52.00 S1.0000
X52.10 S0.1451
G0 X52.50 S0.0000
G1 X52.60 S0.5765
X53.00 S1.0000
X53.20 S0.3373
X53.40 S0.0275
X55.60 S1.0000
X55.70 S0.6235
G0 X56.10 S0.0000
G1 X56.40 S1.0000
X56.50 S0.7373
G0 X56.90 S0.0000
G1 X57.00 S0.3725
X59.60 S1.0000
X59.80 S0.5804
X60.00 S0.3216
X62.30 S1.0000
G0 X62.90 S0.0000
G1 X63.10 S1.0000
G0 X63.70 S0.0000
G1 X87.90 S1.0000
G0 Y11.50 S0.0000
G1 X64.20 S1.0000
X64.10 S0.9804
G0 X63.70 S0.0000
G1 X63.60 S0.1294
X63.30 S1.0000
G0 X62.90 S0.0000
G1 X62.80 S0.5608
X62.70 S0.0039
G0 X62.30 S0.0000
G1 X60.40 S1.0000
X60.30 S0.9569
G0 X59.70 S0.0000
G1 X59.60 S0.3843
X59.30 S1.0000
G0 X58.70 S0.0000
G1 X58.60 S0.1922
X58.30 S1.0000
G0 X57.70 S0.0000
G1 X57.50 S1.0000
G0 X56.90 S0.0000
G1 X56.70 S1.0000
G0 X55.90 S0.0000
G1 X55.80 S1.0000
X55.70 S0.3765
G0 X55.30 S0.0000
G1 X55.20 S0.3373
X54.80 S1.0000
X54.70 S0.5608
G0 X54.30 S0.0000
G1 X53.00 S1.0000
X52.80 S0.9686
X52.60 S0.9608
X52.40 S1.0000
X52.20 S0.0431
X52.10 S0.9922
G0 X51.70 S0.0000
G1 X51.60 S0.8353
X51.40 S0.7804
X51.20 S0.0431
X50.80 S1.0000
X50.60 S0.3490
X50.40 S0.0431
X50.20 S0.4314
X49.80 S1.0000
X49.70 S0.5059
G0 X49.10 S0.0000
G1 X47.20 S1.0000
X47.10 S0.8000
G0 X46.70 S0.0000
G1 X46.60 S0.9255
X36.90 S1.0000
G0 X36.30 S0.0000
G1 X35.00 S1.0000
X34.60 S0.9569
X33.40 S1.0000
X33.20 S0.9922
X32.80 S0.9569
X32.40 S1.0000
X32.00 S0.9569
X0.10 S1.0000
G0 Y11.70 S0.0000
G1 X30.60 S1.0000
X30.80 S0.5961
X31.00 S0.7843
X31.80 S1.0000
X31.90 S0.7255
G0 X32.50 S0.0000
G1 X32.70 S1.0000
G0 X33.30 S0.0000
G1 X33.40 S0.8078
X34.50 S1.0000
G0 X35.10 S0.0000
G1 X46.60 S1.0000
X46.80 S0.9569
X47.00 S0.4039
X47.20 S0.5569
X47.40 S0.5961
X48.80 S1.0000
X49.00 S0.9765
X49.20 S0.5961
X49.40 S0.9137
X49.60 S0.4039
X49.80 S1.0000
X49.90 S0.1294
G0 X50.30 S0.0000
G1 X50.70 S1.0000
G0 X51.10 S0.0000
G1 X51.20 S0.0431
X51.50 S1.0000
G0 X52.30 S0.0000
G1 X52.50 S1.0000
G0 X52.90 S0.0000
G1 X53.00 S0.3059
X54.30 S1.0000
G0 X54.70 S0.0000
G1 X54.80 S0.5608
X55.10 S1.0000
G0 X55.70 S0.0000
G1 X55.80 S0.3765
X56.00 S1.0000
X56.10 S0.3647
G0 X56.70 S0.0000
G1 X57.00 S1.0000
X57.20 S0.0353
X57.40 S0.1098
X57.80 S1.0000
X58.00 S0.7843
X58.20 S0.4039
X58.40 S1.0000
X58.50 S0.5961
G0 X59.10 S0.0000
G1 X59.20 S0.4039
X59.40 S0.6392
X59.60 S0.5961
X59.80 S0.8471
X59.90 S1.0000
G0 X60.50 S0.0000
G1 X60.60 S0.0392
X62.00 S1.0000
X62.20 S0.0196
X62.40 S0.3294
X62.60 S1.0000
X62.70 S0.9490
G0 X63.30 S0.0000
G1 X63.50 S1.0000
G0 X64.30 S0.0000
G1 X87.90 S1.0000
G0 Y11.90 S0.0000
G1 X65.00 S1.0000
X64.80 S0.2627
X64.60 S0.2353
X64.40 S1.0000
X64.20 S0.2353
X64.10 S0.4471
G0 X63.70 S0.0000
G1 X63.60 S0.1373
X63.30 S1.0000
G0 X62.70 S0.0000
G1 X62.60 S0.9490
X62.40 S1.0000
X62.30 S0.3294
G0 X61.90 S0.0000
G1 X60.70 S1.0000
G0 X59.90 S0.0000
G1 X59.80 S1.0000
X59.70 S0.6157
G0 X59.30 S0.0000
G1 X59.20 S0.1059
X58.90 S1.0000
G0 X58.30 S0.0000
G1 X57.90 S1.0000
G0 X57.50 S0.0000
G1 X57.40 S0.5137
X57.10 S1.0000
G0 X56.50 S0.0000
G1 X56.40 S0.9569
X56.20 S0.7647
X56.10 S0.2863
G0 X55.70 S0.0000
G1 X55.60 S0.1451
X55.40 S0.7647
X55.20 S0.8471
X53.00 S1.0000
X52.90 S0.3059
G0 X52.50 S0.0000
G1 X52.30 S1.0000
G0 X51.50 S0.0000
G1 X51.20 S1.0000
X51.10 S0.0431
G0 X50.70 S0.0000
G1 X50.30 S1.0000
G0 X49.90 S0.0000
G1 X49.80 S0.1294
X49.40 S1.0000
X49.30 S0.7843
G0 X48.70 S0.0000
G1 X47.50 S1.0000
G0 X47.10 S0.0000
G1 X47.00 S0.2000
X38.10 S1.0000
G0 X37.70 S0.0000
G1 X37.60 S0.2235
X36.40 S1.0000
X36.30 S0.2392
G0 X35.90 S0.0000
G1 X35.60 S1.0000
X35.40 S0.8431
X35.20 S0.2353
X35.00 S0.9490
X33.20 S1.0000
X32.80 S0.7647
X32.40 S1.0000
X32.30 S0.7608
G0 X31.90 S0.0000
G1 X31.80 S0.9373
X31.60 S0.2353
X31.00 S1.0000
X30.90 S0.4627
G0 X30.50 S0.0000
G1 X30.40 S0.2667
X0.10 S1.0000
G0 Y12.10 S0.0000
G1 X28.80 S1.0000
X29.00 S0.8902
X29.20 S0.8706
X30.10 S1.0000
G0 X31.30 S0.0000
G1 X31.40 S1.0000
X31.50 S0.4549
G0 X31.90 S0.0000
G1 X35.00 S1.0000
X35.10 S0.9333
G0 X35.50 S0.0000
G1 X35.60 S0.7922
X36.00 S1.0000
X36.20 S0.1294
X36.40 S0.3373
X37.60 S1.0000
X37.80 S0.3216
X38.00 S0.2471
X48.80 S1.0000
X49.20 S0.1294
X49.60 S1.0000
X49.80 S0.9333
X50.00 S0.8706
X50.20 S1.0000
X50.30 S0.4078
G0 X50.90 S0.0000
G1 X51.20 S1.0000
X51.30 S0.5176
G0 X51.70 S0.0000
G1 X51.90 S1.0000
G0 X52.50 S0.0000
G1 X52.60 S0.5765
X52.90 S1.0000
G0 X53.50 S0.0000
G1 X53.90 S1.0000
G0 X54.30 S0.0000
G1 X54.40 S0.8392
X54.70 S1.0000
G0 X55.10 S0.0000
G1 X55.20 S0.2902
X55.50 S1.0000
G0 X56.10 S0.0000
G1 X56.20 S0.0980
X56.50 S1.0000
G0 X57.10 S0.0000
G1 X57.40 S1.0000
X57.60 S0.4471
X57.80 S0.1294
X58.00 S1.0000
X58.20 S0.8706
X58.40 S0.8824
X58.60 S0.1294
X58.80 S0.8314
X59.20 S0.8706
X59.40 S0.2196
X59.60 S0.1294
X59.70 S0.0510
G0 X60.10 S0.0000
G1 X60.20 S0.0431
X60.40 S0.1294
X60.50 S0.1765
G0 X61.10 S0.0000
G1 X61.60 S1.0000
X61.80 S0.8706
X62.30 S1.0000
G0 X62.90 S0.0000
G1 X63.10 S1.0000
G0 X63.90 S0.0000
G1 X64.10 S1.0000
G0 X64.50 S0.0000
G1 X64.60 S0.3137
X64.80 S0.1294
X65.00 S0.1608
X87.90 S1.0000
G0 Y12.30 S0.0000
G1 X64.60 S1.0000
X64.40 S0.6471
X64.20 S0.4902
X63.90 S1.0000
G0 X63.10 S0.0000
G1 X62.90 S1.0000
G0 X62.30 S0.0000
G1 X61.90 S1.0000
G0 X61.50 S0.0000
G1 X61.40 S0.1216
X61.10 S1.0000
G0 X60.50 S0.0000
G1 X60.40 S0.9333
X60.30 S1.0000
G0 X59.50 S0.0000
G1 X59.40 S0.8745
X59.30 S0.8941
G0 X58.70 S0.0000
G1 X58.40 S1.0000
X58.30 S0.0824
G0 X57.90 S0.0000
G1 X57.80 S0.6392
X57.60 S1.0000
X57.50 S0.8196
G0 X57.10 S0.0000
G1 X57.00 S0.0902
X56.80 S0.7686
X56.70 S0.4902
G0 X56.10 S0.0000
G1 X56.00 S0.9529
X55.80 S0.4902
X55.70 S0.8078
G0 X55.30 S0.0000
G1 X55.20 S0.3529
X55.00 S0.6353
X54.80 S0.4902
X53.40 S1.0000
X53.20 S0.0118
X53.00 S0.1647
X52.60 S1.0000
X52.50 S0.7843
G0 X51.90 S0.0000
G1 X51.70 S1.0000
G0 X51.10 S0.0000
G1 X50.80 S1.0000
X50.70 S0.1569
G0 X50.30 S0.0000
G1 X50.20 S0.4078
X50.10 S1.0000
G0 X49.70 S0.0000
G1 X49.60 S0.4941
X37.80 S1.0000
X37.70 S0.7765
G0 X37.30 S0.0000
G1 X37.20 S0.9490
X35.80 S1.0000
X35.60 S0.5098
X31.90 S1.0000
G0 X31.50 S0.0000
G1 X31.40 S0.4549
X31.30 S1.0000
G0 X30.10 S0.0000
G1 X29.30 S1.0000
G0 X28.90 S0.0000
G1 X28.80 S0.1608
X28.50 S1.0000
G0 X28.10 S0.0000
G1 X28.00 S0.6078
X0.10 S1.0000
G0 Y12.50 S0.0000
G1 X28.00 S1.0000
X28.20 S0.9412
X28.40 S0.8510
X28.80 S1.0000
X29.00 S0.8745
X29.20 S0.8510
X30.20 S1.0000
X30.60 S0.1490
X31.20 S1.0000
X31.40 S0.1490
X31.60 S0.6157
X32.00 S1.0000
X32.40 S0.1490
X35.50 S1.0000
G0 X35.90 S0.0000
G1 X37.20 S1.0000
X37.30 S0.9490
G0 X37.70 S0.0000
G1 X37.80 S0.7765
X49.60 S1.0000
X49.80 S0.9255
X50.00 S0.8510
X51.00 S1.0000
X51.20 S0.1490
X51.60 S1.0000
X51.80 S0.8902
X52.00 S0.1490
X52.20 S0.8745
X52.40 S0.8824
X53.40 S1.0000
X53.60 S0.6667
X53.80 S0.1490
X55.20 S1.0000
X55.30 S0.3529
G0 X55.70 S0.0000
G1 X56.00 S1.0000
X56.10 S0.9020
G0 X56.70 S0.0000
G1 X57.00 S1.0000
X57.10 S0.0902
G0 X57.50 S0.0000
G1 X57.60 S0.6314
X57.80 S1.0000
X57.90 S0.6392
G0 X58.30 S0.0000
G1 X58.40 S0.0824
X58.70 S1.0000
G0 X59.30 S0.0000
G1 X59.40 S0.8941
X59.50 S0.1098
G0 X60.10 S0.0000
G1 X60.20 S0.2941
X60.40 S1.0000
X60.50 S0.9882
G0 X61.10 S0.0000
G1 X61.40 S1.0000
X61.60 S0.1216
X61.80 S0.2039
X62.40 S1.0000
X62.60 S0.8510
X62.80 S0.8588
X62.90 S0.0863
G0 X63.30 S0.0000
G1 X63.40 S0.9804
X63.60 S0.8510
X63.70 S0.2667
G0 X64.10 S0.0000
G1 X64.20 S0.0863
X87.90 S1.0000
G0 Y12.70 S0.0000
G1 X64.30 S1.0000
G0 X63.70 S0.0000
G1 X63.60 S0.1373
X63.40 S1.0000
X63.30 S0.1373
G0 X62.70 S0.0000
G1 X62.50 S1.0000
G0 X62.10 S0.0000
G1 X62.00 S0.0353
X61.60 S1.0000
X61.50 S0.8784
G0 X61.10 S0.0000
G1 X61.00 S0.8471
X60.80 S1.0000
X60.70 S0.4314
G0 X60.10 S0.0000
G1 X60.00 S0.6549
X59.80 S0.9843
X59.70 S0.1333
G0 X59.30 S0.0000
G1 X59.20 S0.1059
X58.90 S1.0000
G0 X58.30 S0.0000
G1 X58.20 S0.9843
X58.00 S1.0000
X57.90 S0.2824
G0 X57.50 S0.0000
G1 X57.40 S0.3686
X57.00 S1.0000
X56.80 S0.7843
X56.60 S0.9608
X56.40 S0.8627
X56.20 S0.2157
X53.80 S1.0000
X53.60 S0.2157
X53.40 S0.6941
X52.00 S1.0000
X51.80 S0.2157
X51.60 S0.8980
X51.20 S1.0000
X51.00 S0.0078
X50.80 S0.3216
X32.50 S1.0000
G0 X31.90 S0.0000
G1 X31.60 S1.0000
X31.50 S0.5451
G0 X31.10 S0.0000
G1 X30.70 S1.0000
G0 X30.10 S0.0000
G1 X30.00 S0.9882
X29.80 S1.0000
X29.70 S0.2902
G0 X29.30 S0.0000
G1 X28.90 S1.0000
G0 X28.30 S0.0000
G1 X27.80 S1.0000
X27.40 S0.7843
X26.20 S1.0000
X26.00 S0.9490
X25.80 S0.7843
X25.60 S0.9922
X0.10 S1.0000
G0 Y12.90 S0.0000
G1 X25.60 S1.0000
X25.70 S0.9569
G0 X26.10 S0.0000
G1 X26.20 S0.7686
X27.30 S1.0000
G0 X27.90 S0.0000
G1 X28.00 S0.0275
X28.30 S1.0000
G0 X28.90 S0.0000
G1 X29.30 S1.0000
G0 X29.70 S0.0000
G1 X29.80 S0.1216
X30.10 S0.4235
G0 X30.70 S0.0000
G1 X31.20 S1.0000
X31.40 S0.5765
X31.60 S0.8078
X31.80 S0.4745
X32.00 S0.4235
X32.40 S0.5765
X56.60 S1.0000
X56.70 S0.8157
G0 X57.10 S0.0000
G1 X57.40 S1.0000
X57.50 S0.3686
G0 X58.10 S0.0000
G1 X58.20 S1.0000
X58.30 S0.9176
G0 X58.90 S0.0000
G1 X59.20 S1.0000
X59.30 S0.1059
G0 X59.70 S0.0000
G1 X59.80 S0.6157
X60.00 S1.0000
X60.10 S0.6549
G0 X60.70 S0.0000
G1 X60.80 S0.7608
X61.00 S1.0000
X61.20 S0.9373
X61.40 S0.5765
X61.60 S0.9490
X61.80 S0.4235
X62.00 S0.7686
X62.20 S0.5922
X62.40 S0.7176
X62.80 S0.4235
X63.20 S0.5765
X63.40 S0.5569
X63.60 S0.4235
X63.80 S0.9216
X64.00 S0.5765
X64.20 S0.8235
X64.60 S0.4235
X87.90 S1.0000
G0 Y13.10 S0.0000
